;FLAVOR:Marlin
;TIME:2982
;Filament used: 2.82418m
;Layer height: 0.28
;MINX:-30.665
;MINY:-30.665
;MINZ:0.28
;MAXX:30.653
;MAXY:30.665
;MAXZ:8.12
;Generated with Cura_SteamEngine 5.3.1
M104 S210
M105
M109 S210
M82 ;absolute extrusion mode
; Ender 3 Custom Start G-code
G92 E0 ; Reset Extruder
G92 E0
G92 E0
G1 F2700 E-5
;LAYER_COUNT:29
;LAYER:0
M107
G0 F6000 X0.6 Y-10.2 Z0.28
;TYPE:SKIRT
G1 F2700 E0
G1 F1200 X-7.85 Y-10.2 E0.39347
G1 X-7.876 Y-10.198 E0.39468
G1 X-8.298 Y-10.143 E0.4145
G1 X-8.325 Y-10.138 E0.41578
G1 X-8.704 Y-10.034 E0.43408
G1 X-8.738 Y-10.021 E0.43577
G1 X-9.042 Y-9.874 E0.4515
G1 X-9.072 Y-9.856 E0.45312
G1 X-9.391 Y-9.625 E0.47146
G1 X-9.421 Y-9.599 E0.47331
G1 X-9.696 Y-9.302 E0.49216
G1 X-9.72 Y-9.27 E0.49402
G1 X-9.928 Y-8.927 E0.5127
G1 X-9.943 Y-8.897 E0.51426
G1 X-10.05 Y-8.629 E0.5277
G1 X-10.058 Y-8.603 E0.52897
G1 X-10.153 Y-8.218 E0.54743
G1 X-10.158 Y-8.188 E0.54885
G1 X-10.197 Y-7.765 E0.56863
G1 X-10.198 Y-7.747 E0.56947
G1 X-10.2 Y7.469 E1.27799
G1 X-10.2 Y7.482 E1.27859
G1 X-10.167 Y7.995 E1.30253
G1 X-10.162 Y8.028 E1.30408
G1 X-10.07 Y8.42 E1.32283
G1 X-10.061 Y8.447 E1.32416
G1 X-9.916 Y8.815 E1.34258
G1 X-9.899 Y8.848 E1.34431
G1 X-9.657 Y9.234 E1.36552
G1 X-9.633 Y9.266 E1.36738
G1 X-9.349 Y9.563 E1.38652
G1 X-9.318 Y9.589 E1.3884
G1 X-8.928 Y9.861 E1.41054
G1 X-8.889 Y9.883 E1.41263
G1 X-8.391 Y10.083 E1.43762
G1 X-8.352 Y10.094 E1.4395
G1 X-7.979 Y10.163 E1.45717
G1 X-7.958 Y10.165 E1.45815
G1 X-7.515 Y10.198 E1.47883
G1 X-7.5 Y10.199 E1.47953
G1 X9.8 Y10.2 E2.28509
G1 X9.8 Y29.8 E3.19775
G1 X-29.8 Y29.8 E5.04169
G1 X-29.8 Y-29.8 E7.81692
G1 X0.6 Y-29.8 E9.23247
G1 X0.6 Y-10.2 E10.14513
G0 F6000 X0.2 Y-10.6
G1 F1200 X-7.85 Y-10.6 E10.51997
G1 X-7.928 Y-10.595 E10.52361
G1 X-8.35 Y-10.54 E10.54343
G1 X-8.431 Y-10.524 E10.54727
G1 X-8.81 Y-10.42 E10.56557
G1 X-8.912 Y-10.381 E10.57066
G1 X-9.216 Y-10.234 E10.58638
G1 X-9.307 Y-10.18 E10.59131
G1 X-9.626 Y-9.949 E10.60965
G1 X-9.714 Y-9.871 E10.61512
G1 X-9.989 Y-9.574 E10.63397
G1 X-10.062 Y-9.477 E10.63962
G1 X-10.27 Y-9.134 E10.6583
G1 X-10.314 Y-9.045 E10.66292
G1 X-10.421 Y-8.777 E10.67636
G1 X-10.447 Y-8.699 E10.68019
G1 X-10.542 Y-8.314 E10.69865
G1 X-10.556 Y-8.225 E10.70285
G1 X-10.595 Y-7.802 E10.72263
G1 X-10.598 Y-7.747 E10.72519
G1 X-10.6 Y7.469 E11.43371
G1 X-10.599 Y7.508 E11.43553
G1 X-10.566 Y8.021 E11.45947
G1 X-10.551 Y8.119 E11.46408
G1 X-10.459 Y8.511 E11.48283
G1 X-10.433 Y8.594 E11.48688
G1 X-10.288 Y8.962 E11.5053
G1 X-10.238 Y9.061 E11.51047
G1 X-9.996 Y9.447 E11.53168
G1 X-9.922 Y9.543 E11.53732
G1 X-9.638 Y9.84 E11.55646
G1 X-9.547 Y9.917 E11.56201
G1 X-9.157 Y10.189 E11.58415
G1 X-9.038 Y10.254 E11.59046
G1 X-8.54 Y10.454 E11.61545
G1 X-8.425 Y10.487 E11.62102
G1 X-8.052 Y10.556 E11.63869
G1 X-7.988 Y10.564 E11.64169
G1 X-7.545 Y10.597 E11.66238
G1 X-7.5 Y10.599 E11.66447
G1 X9.4 Y10.6 E12.45141
G1 X9.4 Y29.4 E13.32681
G1 X-29.4 Y29.4 E15.13351
G1 X-29.4 Y-29.4 E17.87148
G1 X0.2 Y-29.4 E19.24978
G1 X0.2 Y-10.6 E20.12519
G0 F6000 X-.2 Y-11
G1 F1200 X-7.85 Y-11 E20.4814
G1 X-7.979 Y-10.992 E20.48742
G1 X-8.401 Y-10.937 E20.50724
G1 X-8.537 Y-10.909 E20.5137
G1 X-8.916 Y-10.805 E20.532
G1 X-9.086 Y-10.741 E20.54046
G1 X-9.39 Y-10.594 E20.55618
G1 X-9.542 Y-10.504 E20.56441
G1 X-9.861 Y-10.273 E20.58275
G1 X-10.008 Y-10.142 E20.59192
G1 X-10.283 Y-9.845 E20.61077
G1 X-10.404 Y-9.685 E20.62011
G1 X-10.612 Y-9.342 E20.63879
G1 X-10.686 Y-9.194 E20.64649
G1 X-10.793 Y-8.926 E20.65993
G1 X-10.835 Y-8.795 E20.66633
G1 X-10.93 Y-8.41 E20.6848
G1 X-10.955 Y-8.262 E20.69179
G1 X-10.994 Y-7.839 E20.71157
G1 X-10.998 Y-7.747 E20.71586
G1 X-11 Y7.469 E21.42438
G1 X-10.998 Y7.533 E21.42736
G1 X-10.965 Y8.046 E21.45129
G1 X-10.941 Y8.21 E21.45901
G1 X-10.849 Y8.602 E21.47776
G1 X-10.805 Y8.741 E21.48455
G1 X-10.66 Y9.109 E21.50297
G1 X-10.577 Y9.273 E21.51153
G1 X-10.335 Y9.659 E21.53274
G1 X-10.211 Y9.819 E21.54217
G1 X-9.927 Y10.116 E21.5613
G1 X-9.776 Y10.245 E21.57055
G1 X-9.386 Y10.517 E21.59269
G1 X-9.187 Y10.625 E21.60323
G1 X-8.689 Y10.825 E21.62822
G1 X-8.498 Y10.88 E21.63748
G1 X-8.125 Y10.949 E21.65514
G1 X-8.017 Y10.963 E21.66021
G1 X-7.574 Y10.996 E21.6809
G1 X-7.5 Y10.999 E21.68434
G1 X9 Y11 E22.45265
G1 X9 Y29 E23.29081
G1 X-29 Y29 E25.06025
G1 X-29 Y-29 E27.76097
G1 X-.2 Y-29 E29.10202
G1 X-.2 Y-11 E29.94018
G0 F6000 X-.6 Y-11.4
G1 F1200 X-7.85 Y-11.4 E30.27777
G1 X-8.031 Y-11.388 E30.28621
G1 X-8.453 Y-11.333 E30.30603
G1 X-8.642 Y-11.295 E30.31501
G1 X-9.021 Y-11.191 E30.33331
G1 X-9.26 Y-11.101 E30.3452
G1 X-9.564 Y-10.954 E30.36092
G1 X-9.776 Y-10.828 E30.3724
G1 X-10.095 Y-10.597 E30.39074
G1 X-10.301 Y-10.414 E30.40357
G1 X-10.576 Y-10.117 E30.42242
G1 X-10.746 Y-9.892 E30.43555
G1 X-10.954 Y-9.549 E30.45423
G1 X-11.057 Y-9.342 E30.465
G1 X-11.164 Y-9.074 E30.47843
G1 X-11.223 Y-8.89 E30.48743
G1 X-11.318 Y-8.505 E30.5059
G1 X-11.353 Y-8.299 E30.51563
G1 X-11.392 Y-7.876 E30.53541
G1 X-11.398 Y-7.747 E30.54142
G1 X-11.4 Y7.469 E31.24994
G1 X-11.397 Y7.559 E31.25413
G1 X-11.364 Y8.072 E31.27807
G1 X-11.33 Y8.302 E31.2889
G1 X-11.238 Y8.694 E31.30765
G1 X-11.178 Y8.887 E31.31706
G1 X-11.033 Y9.255 E31.33548
G1 X-10.916 Y9.486 E31.34753
G1 X-10.674 Y9.872 E31.36875
G1 X-10.5 Y10.096 E31.38195
G1 X-10.216 Y10.393 E31.40109
G1 X-10.005 Y10.573 E31.414
G1 X-9.615 Y10.845 E31.43614
G1 X-9.336 Y10.996 E31.45092
G1 X-8.838 Y11.196 E31.47591
G1 X-8.571 Y11.274 E31.48886
G1 X-8.198 Y11.343 E31.50652
G1 X-8.047 Y11.362 E31.51361
G1 X-7.604 Y11.395 E31.53429
G1 X-7.5 Y11.399 E31.53914
G1 X8.6 Y11.4 E32.28882
G1 X8.6 Y28.6 E33.08973
G1 X-28.6 Y28.6 E34.82191
G1 X-28.6 Y-28.6 E37.48539
G1 X-.6 Y-28.6 E38.78918
G1 X-.6 Y-11.4 E39.59009
G0 F6000 X-1 Y-11.8
G1 F1200 X-7.85 Y-11.8 E39.90905
G1 X-8.083 Y-11.785 E39.91992
G1 X-8.505 Y-11.73 E39.93974
G1 X-8.748 Y-11.681 E39.95128
G1 X-9.127 Y-11.577 E39.96958
G1 X-9.435 Y-11.461 E39.98491
G1 X-9.739 Y-11.314 E40.00063
G1 X-10.011 Y-11.152 E40.01537
G1 X-10.33 Y-10.921 E40.03371
G1 X-10.595 Y-10.686 E40.05021
G1 X-10.87 Y-10.389 E40.06905
G1 X-11.088 Y-10.099 E40.08595
G1 X-11.296 Y-9.756 E40.10463
G1 X-11.429 Y-9.49 E40.11847
G1 X-11.536 Y-9.222 E40.13191
G1 X-11.612 Y-8.986 E40.14346
G1 X-11.707 Y-8.601 E40.16192
G1 X-11.751 Y-8.335 E40.17447
G1 X-11.79 Y-7.912 E40.19425
G1 X-11.798 Y-7.747 E40.20195
G1 X-11.8 Y7.469 E40.91047
G1 X-11.796 Y7.585 E40.91587
G1 X-11.763 Y8.098 E40.93981
G1 X-11.719 Y8.393 E40.9537
G1 X-11.627 Y8.785 E40.97245
G1 X-11.55 Y9.034 E40.98458
G1 X-11.405 Y9.402 E41.003
G1 X-11.255 Y9.698 E41.01845
G1 X-11.013 Y10.084 E41.03967
G1 X-10.789 Y10.372 E41.05666
G1 X-10.505 Y10.669 E41.07579
G1 X-10.234 Y10.901 E41.0924
G1 X-9.844 Y11.173 E41.11454
G1 X-9.485 Y11.367 E41.13354
G1 X-8.987 Y11.567 E41.15853
G1 X-8.643 Y11.667 E41.17521
G1 X-8.27 Y11.736 E41.19288
G1 X-8.077 Y11.761 E41.20194
G1 X-7.634 Y11.794 E41.22262
G1 X-7.5 Y11.799 E41.22887
G1 X8.2 Y11.8 E41.95993
G1 X8.2 Y28.2 E42.72358
G1 X-28.2 Y28.2 E44.41851
G1 X-28.2 Y-28.2 E47.04473
G1 X-1 Y-28.2 E48.31128
G1 X-1 Y-11.8 E49.07493
G0 F6000 X-1.4 Y-12.2
G1 F1200 X-7.85 Y-12.2 E49.37527
G1 X-8.134 Y-12.182 E49.38852
G1 X-8.556 Y-12.127 E49.40834
G1 X-8.854 Y-12.067 E49.42249
G1 X-9.233 Y-11.963 E49.44079
G1 X-9.609 Y-11.822 E49.45949
G1 X-9.913 Y-11.675 E49.47522
G1 X-10.245 Y-11.476 E49.49324
G1 X-10.564 Y-11.245 E49.51158
G1 X-10.888 Y-10.958 E49.53173
G1 X-11.163 Y-10.661 E49.55058
G1 X-11.43 Y-10.307 E49.57123
G1 X-11.638 Y-9.964 E49.58991
G1 X-11.8 Y-9.639 E49.60682
G1 X-11.907 Y-9.371 E49.62025
G1 X-12 Y-9.082 E49.63439
G1 X-12.095 Y-8.697 E49.65286
G1 X-12.15 Y-8.372 E49.6682
G1 X-12.189 Y-7.949 E49.68798
G1 X-12.198 Y-7.747 E49.6974
G1 X-12.2 Y7.469 E50.40592
G1 X-12.195 Y7.61 E50.41249
G1 X-12.162 Y8.123 E50.43643
G1 X-12.109 Y8.485 E50.45346
G1 X-12.017 Y8.877 E50.47221
G1 X-11.922 Y9.18 E50.487
G1 X-11.777 Y9.548 E50.50542
G1 X-11.594 Y9.911 E50.52434
G1 X-11.352 Y10.297 E50.54556
G1 X-11.078 Y10.648 E50.56629
G1 X-10.794 Y10.945 E50.58543
G1 X-10.463 Y11.229 E50.60574
G1 X-10.073 Y11.501 E50.62788
G1 X-9.634 Y11.739 E50.65113
G1 X-9.136 Y11.939 E50.67612
G1 X-8.716 Y12.06 E50.69647
G1 X-8.343 Y12.129 E50.71413
G1 X-8.106 Y12.16 E50.72526
G1 X-7.663 Y12.193 E50.74595
G1 X-7.5 Y12.199 E50.75354
G1 X7.8 Y12.2 E51.46598
G1 X7.8 Y27.8 E52.19238
G1 X-27.8 Y27.8 E53.85006
G1 X-27.8 Y-27.8 E56.43903
G1 X-1.4 Y-27.8 E57.66833
G1 X-1.4 Y-12.2 E58.39473
G0 F6000 X-1.8 Y-12.6
G1 F1200 X-7.85 Y-12.6 E58.67644
G1 X-8.186 Y-12.578 E58.69212
G1 X-8.608 Y-12.523 E58.71194
G1 X-8.96 Y-12.452 E58.72866
G1 X-9.339 Y-12.348 E58.74696
G1 X-9.783 Y-12.182 E58.76903
G1 X-10.087 Y-12.035 E58.78475
G1 X-10.48 Y-11.8 E58.80607
G1 X-10.799 Y-11.569 E58.82441
G1 X-11.182 Y-11.229 E58.84826
G1 X-11.457 Y-10.932 E58.86711
G1 X-11.772 Y-10.514 E58.89148
G1 X-11.98 Y-10.171 E58.91016
G1 X-12.172 Y-9.787 E58.93015
G1 X-12.279 Y-9.519 E58.94359
G1 X-12.388 Y-9.178 E58.96026
G1 X-12.483 Y-8.793 E58.97872
G1 X-12.548 Y-8.409 E58.99686
G1 X-12.587 Y-7.986 E59.01664
G1 X-12.598 Y-7.747 E59.02778
G1 X-12.6 Y7.469 E59.7363
G1 X-12.595 Y7.636 E59.74408
G1 X-12.562 Y8.149 E59.76802
G1 X-12.498 Y8.576 E59.78812
G1 X-12.406 Y8.968 E59.80687
G1 X-12.294 Y9.327 E59.82438
G1 X-12.149 Y9.695 E59.8428
G1 X-11.933 Y10.123 E59.86512
G1 X-11.691 Y10.509 E59.88634
G1 X-11.367 Y10.925 E59.91089
G1 X-11.083 Y11.222 E59.93002
G1 X-10.691 Y11.558 E59.95406
G1 X-10.301 Y11.83 E59.9762
G1 X-9.783 Y12.11 E60.00362
G1 X-9.285 Y12.31 E60.02861
G1 X-8.789 Y12.454 E60.05266
G1 X-8.416 Y12.523 E60.07033
G1 X-8.136 Y12.559 E60.08347
G1 X-7.693 Y12.592 E60.10416
G1 X-7.5 Y12.599 E60.11315
G1 X7.4 Y12.6 E60.80695
G1 X7.4 Y27.4 E61.4961
G1 X-27.4 Y27.4 E63.11654
G1 X-27.4 Y-27.4 E65.66826
G1 X-1.8 Y-27.4 E66.8603
G1 X-1.8 Y-12.6 E67.54945
G0 F6000 X-2.2 Y-13
G1 F1200 X-7.85 Y-13 E67.81254
G1 X-8.238 Y-12.975 E67.83064
G1 X-8.66 Y-12.92 E67.85046
G1 X-9.066 Y-12.838 E67.86974
G1 X-9.445 Y-12.734 E67.88804
G1 X-9.957 Y-12.542 E67.91351
G1 X-10.261 Y-12.395 E67.92923
G1 X-10.715 Y-12.124 E67.95385
G1 X-11.034 Y-11.893 E67.97219
G1 X-11.475 Y-11.501 E67.99966
G1 X-11.75 Y-11.204 E68.01851
G1 X-12.114 Y-10.722 E68.04664
G1 X-12.322 Y-10.379 E68.06532
G1 X-12.543 Y-9.935 E68.08841
G1 X-12.65 Y-9.667 E68.10185
G1 X-12.777 Y-9.274 E68.12108
G1 X-12.872 Y-8.889 E68.13954
G1 X-12.946 Y-8.445 E68.1605
G1 X-12.985 Y-8.022 E68.18028
G1 X-12.998 Y-7.747 E68.1931
G1 X-13 Y7.469 E68.90162
G1 X-12.994 Y7.662 E68.91061
G1 X-12.961 Y8.175 E68.93455
G1 X-12.888 Y8.667 E68.95771
G1 X-12.796 Y9.059 E68.97646
G1 X-12.666 Y9.474 E68.99671
G1 X-12.521 Y9.842 E69.01513
G1 X-12.272 Y10.336 E69.04089
G1 X-12.03 Y10.722 E69.0621
G1 X-11.656 Y11.201 E69.0904
G1 X-11.372 Y11.498 E69.10953
G1 X-10.92 Y11.886 E69.13727
G1 X-10.53 Y12.158 E69.15941
G1 X-9.932 Y12.481 E69.19106
G1 X-9.434 Y12.681 E69.21605
G1 X-8.862 Y12.847 E69.24378
G1 X-8.489 Y12.916 E69.26145
G1 X-8.166 Y12.958 E69.27661
G1 X-7.723 Y12.991 E69.2973
G1 X-7.5 Y12.999 E69.30769
G1 X7 Y13 E69.98287
G1 X7 Y27 E70.63477
G1 X-27 Y27 E72.21795
G1 X-27 Y-27 E74.73242
G1 X-2.2 Y-27 E75.88721
G1 X-2.2 Y-13 E76.53911
G0 F6000 X-2.6 Y-13.4
G1 F1200 X-7.85 Y-13.4 E76.78357
G1 X-8.289 Y-13.371 E76.80406
G1 X-8.711 Y-13.316 E76.82387
G1 X-9.172 Y-13.224 E76.84576
G1 X-9.551 Y-13.12 E76.86406
G1 X-10.131 Y-12.902 E76.89291
G1 X-10.435 Y-12.755 E76.90864
G1 X-10.949 Y-12.448 E76.93652
G1 X-11.268 Y-12.217 E76.95485
G1 X-11.769 Y-11.773 E76.98603
G1 X-12.044 Y-11.476 E77.00487
G1 X-12.456 Y-10.929 E77.03676
G1 X-12.664 Y-10.586 E77.05544
G1 X-12.915 Y-10.084 E77.08157
G1 X-13.022 Y-9.816 E77.09501
G1 X-13.165 Y-9.37 E77.11682
G1 X-13.26 Y-8.985 E77.13529
G1 X-13.345 Y-8.482 E77.15904
G1 X-13.384 Y-8.059 E77.17882
G1 X-13.398 Y-7.747 E77.19336
G1 X-13.4 Y7.469 E77.90188
G1 X-13.393 Y7.687 E77.91204
G1 X-13.36 Y8.2 E77.93598
G1 X-13.277 Y8.759 E77.96229
G1 X-13.185 Y9.151 E77.98104
G1 X-13.038 Y9.62 E78.00393
G1 X-12.893 Y9.988 E78.02234
G1 X-12.611 Y10.548 E78.05154
G1 X-12.369 Y10.934 E78.07275
G1 X-11.945 Y11.478 E78.10487
G1 X-11.661 Y11.775 E78.124
G1 X-11.149 Y12.214 E78.15541
G1 X-10.759 Y12.486 E78.17755
G1 X-10.081 Y12.852 E78.21343
G1 X-9.583 Y13.052 E78.23842
G1 X-8.934 Y13.24 E78.26988
G1 X-8.561 Y13.309 E78.28754
G1 X-8.196 Y13.357 E78.30468
G1 X-7.753 Y13.39 E78.32537
G1 X-7.5 Y13.399 E78.33716
G1 X6.6 Y13.4 E78.99371
G1 X6.6 Y26.6 E79.60836
G1 X-26.6 Y26.6 E81.15429
G1 X-26.6 Y-26.6 E83.6315
G1 X-2.6 Y-26.6 E84.74905
G1 X-2.6 Y-13.4 E85.36369
G0 F6000 X-3 Y-13.8
G1 F1200 X-7.85 Y-13.8 E85.58953
G1 X-8.341 Y-13.768 E85.61244
G1 X-8.763 Y-13.713 E85.63226
G1 X-9.278 Y-13.61 E85.65671
G1 X-9.657 Y-13.506 E85.67501
G1 X-10.305 Y-13.262 E85.70725
G1 X-10.609 Y-13.115 E85.72298
G1 X-11.184 Y-12.772 E85.75415
G1 X-11.503 Y-12.541 E85.77249
G1 X-12.062 Y-12.045 E85.80729
G1 X-12.337 Y-11.748 E85.82614
G1 X-12.798 Y-11.136 E85.86182
G1 X-13.006 Y-10.793 E85.8805
G1 X-13.286 Y-10.232 E85.90969
G1 X-13.393 Y-9.964 E85.92313
G1 X-13.553 Y-9.465 E85.94753
G1 X-13.648 Y-9.08 E85.96599
G1 X-13.743 Y-8.519 E85.99249
G1 X-13.782 Y-8.096 E86.01227
G1 X-13.798 Y-7.747 E86.02854
G1 X-13.8 Y7.469 E86.73706
G1 X-13.792 Y7.713 E86.74843
G1 X-13.759 Y8.226 E86.77236
G1 X-13.666 Y8.85 E86.80174
G1 X-13.574 Y9.242 E86.82049
G1 X-13.41 Y9.767 E86.8461
G1 X-13.265 Y10.135 E86.86452
G1 X-12.95 Y10.76 E86.89711
G1 X-12.708 Y11.146 E86.91832
G1 X-12.234 Y11.754 E86.95422
G1 X-11.95 Y12.051 E86.97335
G1 X-11.378 Y12.542 E87.00846
G1 X-10.988 Y12.814 E87.0306
G1 X-10.514 Y13.095 E87.05625
G1 X-10.23 Y13.223 E87.07076
G1 X-9.732 Y13.423 E87.09575
G1 X-9.007 Y13.634 E87.13091
G1 X-8.634 Y13.703 E87.14857
G1 X-8.225 Y13.756 E87.16778
G1 X-7.782 Y13.789 E87.18846
G1 X-7.5 Y13.799 E87.2016
G1 X6.2 Y13.8 E87.83953
G1 X6.2 Y26.2 E88.41693
G1 X-26.2 Y26.2 E89.9256
G1 X-26.2 Y-26.2 E92.36557
G1 X-3 Y-26.2 E93.44586
G1 X-3 Y-13.8 E94.02325
G1 F2700 E89.02325
G0 F6000 X-2.535 Y-13.8
G0 X0.947 Y-9.347
G0 X22.143 Y1.331
G1 F2700 E94.02325
G1 F1200 X20.699 Y3.756 E94.15467
G1 X19.325 Y6.222 E94.28612
G1 X18.022 Y8.72 E94.41731
G1 X16.787 Y11.264 E94.54899
G1 X15.629 Y13.832 E94.68017
G1 X14.539 Y16.442 E94.81187
G1 X13.526 Y19.077 E94.94332
G1 X12.586 Y21.739 E95.07478
G1 X11.725 Y24.421 E95.20594
G1 X10.937 Y27.138 E95.33767
G1 X10.186 Y30.038 E95.47716
G1 X10.064 Y30.189 E95.4862
G1 X9.676 Y30.2 E95.50427
G1 X-29.296 Y30.2 E97.31897
G1 X-29.994 Y30.19 E97.35148
G1 X-30.112 Y30.149 E97.35729
G1 X-30.191 Y29.995 E97.36535
G1 X-30.2 Y29.663 E97.38082
G1 X-30.2 Y-29.329 E100.12773
G1 X-30.19 Y-29.994 E100.1587
G1 X-30.149 Y-30.112 E100.16452
G1 X-29.996 Y-30.191 E100.17254
G1 X-29.676 Y-30.2 E100.18744
G1 X29.296 Y-30.2 E102.93343
G1 X29.994 Y-30.19 E102.96593
G1 X30.112 Y-30.149 E102.97175
G1 X30.191 Y-29.996 E102.97977
G1 X30.2 Y-29.676 E102.99467
G1 X30.2 Y-10.704 E103.87809
G1 X30.19 Y-10.004 E103.91069
G1 X30.147 Y-9.881 E103.91675
G1 X28.586 Y-7.934 E104.03295
G1 X26.881 Y-5.691 E104.16415
G1 X25.233 Y-3.392 E104.29586
G1 X23.655 Y-1.052 E104.42728
G1 X22.143 Y1.331 E104.5587
G1 F2700 E99.5587
G0 F6000 X18.377 Y8.905
G1 F2700 E104.5587
G1 F1200 X17.147 Y11.439 E104.68986
G1 X15.994 Y13.996 E104.82046
G1 X14.908 Y16.596 E104.95167
G1 X13.899 Y19.221 E105.08262
G1 X12.963 Y21.872 E105.21353
G1 X12.106 Y24.543 E105.34415
G1 X11.321 Y27.249 E105.47534
G1 X10.573 Y30.138 E105.6143
G1 X10.497 Y30.289 E105.62218
G1 X10.249 Y30.544 E105.63874
G1 X10.075 Y30.589 E105.64711
G1 X9.687 Y30.6 E105.66518
G1 X-29.302 Y30.6 E107.48067
G1 X-30 Y30.59 E107.51318
G1 X-30.243 Y30.527 E107.52487
G1 X-30.394 Y30.433 E107.53315
G1 X-30.547 Y30.178 E107.547
G1 X-30.591 Y30.006 E107.55526
G1 X-30.6 Y29.674 E107.57073
G1 X-30.6 Y-29.335 E110.31843
G1 X-30.59 Y-30 E110.3494
G1 X-30.527 Y-30.243 E110.36109
G1 X-30.433 Y-30.394 E110.36937
G1 X-30.18 Y-30.546 E110.38312
G1 X-30.007 Y-30.591 E110.39144
G1 X-29.687 Y-30.6 E110.40635
G1 X29.302 Y-30.6 E113.15312
G1 X30 Y-30.59 E113.18563
G1 X30.243 Y-30.527 E113.19732
G1 X30.394 Y-30.433 E113.2056
G1 X30.546 Y-30.18 E113.21934
G1 X30.591 Y-30.007 E113.22767
G1 X30.6 Y-29.687 E113.24257
