;FLAVOR:Marlin
;TIME:1887
;Filament used: 1.52481m
;Layer height: 0.28
;MINX:-16
;MINY:-16
;MINZ:0.28
;MAXX:16
;MAXY:16
;MAXZ:19.88
;Generated with Cura_SteamEngine 5.3.1
M104 S210
M105
M109 S210
M82 ;absolute extrusion mode
; Ender 3 Custom Start G-code
G92 E0 ; Reset Extruder
G92 E0
G92 E0
G1 F2700 E-5
;LAYER_COUNT:71
;LAYER:0
M107
G0 F6000 X-5.198 Y0.2 Z0.28
;TYPE:SKIRT
G1 F2700 E0
G1 F1200 X-5.198 Y2.529 E0.10845
G1 X-5.196 Y2.554 E0.10962
G1 X-5.134 Y3.037 E0.13229
G1 X-5.126 Y3.074 E0.13405
G1 X-4.926 Y3.684 E0.16395
G1 X-4.906 Y3.727 E0.16615
G1 X-4.636 Y4.162 E0.18999
G1 X-4.61 Y4.195 E0.19195
G1 X-4.253 Y4.568 E0.21599
G1 X-4.22 Y4.596 E0.21801
G1 X-3.828 Y4.858 E0.23996
G1 X-3.794 Y4.877 E0.24178
G1 X-3.402 Y5.041 E0.26156
G1 X-3.376 Y5.049 E0.26283
G1 X-3.077 Y5.128 E0.27723
G1 X-3.056 Y5.133 E0.27823
G1 X-2.772 Y5.176 E0.29161
G1 X-2.751 Y5.178 E0.29259
G1 X-2.272 Y5.2 E0.31492
G1 X-2.263 Y5.2 E0.31534
G1 X1.772 Y5.196 E0.50322
G1 X1.779 Y5.196 E0.50355
G1 X2.251 Y5.179 E0.52554
G1 X2.26 Y5.178 E0.52596
G1 X2.526 Y5.157 E0.53839
G1 X2.539 Y5.156 E0.539
G1 X2.863 Y5.109 E0.55424
G1 X2.892 Y5.102 E0.55563
G1 X3.348 Y4.964 E0.57781
G1 X3.381 Y4.951 E0.57947
G1 X3.784 Y4.744 E0.60056
G1 X3.809 Y4.729 E0.60192
G1 X4.122 Y4.507 E0.61979
G1 X4.146 Y4.487 E0.62124
G1 X4.418 Y4.221 E0.63896
G1 X4.438 Y4.198 E0.64038
G1 X4.706 Y3.841 E0.66116
G1 X4.725 Y3.811 E0.66282
G1 X4.936 Y3.393 E0.68462
G1 X4.947 Y3.364 E0.68606
G1 X5.05 Y3.042 E0.70181
G1 X5.056 Y3.023 E0.70273
G1 X5.144 Y2.61 E0.7224
G1 X5.147 Y2.588 E0.72343
G1 X5.184 Y2.221 E0.74061
G1 X5.185 Y2.206 E0.74131
G1 X5.193 Y1.896 E0.75575
G1 X5.193 Y1.891 E0.75598
G1 X5.2 Y-14.8 E1.53318
G1 X14.8 Y-14.8 E1.9802
G1 X14.8 Y14.8 E3.3585
G1 X-14.8 Y14.8 E4.7368
G1 X-14.8 Y0.2 E5.41664
G1 X-5.198 Y0.2 E5.86374
G0 F6000 X-5.598 Y0.6
G1 F1200 X-5.598 Y2.529 E5.95357
G1 X-5.593 Y2.605 E5.95711
G1 X-5.531 Y3.088 E5.97979
G1 X-5.506 Y3.199 E5.98509
G1 X-5.306 Y3.809 E6.01498
G1 X-5.246 Y3.938 E6.0216
G1 X-4.976 Y4.373 E6.04544
G1 X-4.899 Y4.472 E6.05128
G1 X-4.542 Y4.845 E6.07532
G1 X-4.442 Y4.929 E6.08141
G1 X-4.05 Y5.191 E6.10336
G1 X-3.949 Y5.246 E6.10872
G1 X-3.557 Y5.41 E6.1285
G1 X-3.478 Y5.436 E6.13237
G1 X-3.179 Y5.515 E6.14678
G1 X-3.116 Y5.528 E6.14977
G1 X-2.832 Y5.571 E6.16315
G1 X-2.77 Y5.577 E6.16605
G1 X-2.291 Y5.599 E6.18837
G1 X-2.262 Y5.6 E6.18973
G1 X1.773 Y5.596 E6.37761
G1 X1.794 Y5.596 E6.37859
G1 X2.266 Y5.579 E6.40058
G1 X2.291 Y5.577 E6.40175
G1 X2.557 Y5.556 E6.41417
G1 X2.596 Y5.552 E6.416
G1 X2.92 Y5.505 E6.43124
G1 X3.008 Y5.485 E6.43545
G1 X3.464 Y5.347 E6.45763
G1 X3.564 Y5.307 E6.46265
G1 X3.967 Y5.1 E6.48374
G1 X4.04 Y5.055 E6.48774
G1 X4.353 Y4.833 E6.5056
G1 X4.426 Y4.773 E6.51
G1 X4.698 Y4.507 E6.52772
G1 X4.758 Y4.438 E6.53198
G1 X5.026 Y4.081 E6.55276
G1 X5.082 Y3.991 E6.5577
G1 X5.293 Y3.573 E6.5795
G1 X5.328 Y3.486 E6.58387
G1 X5.431 Y3.164 E6.59961
G1 X5.447 Y3.106 E6.60241
G1 X5.535 Y2.693 E6.62207
G1 X5.545 Y2.628 E6.62514
G1 X5.582 Y2.261 E6.64231
G1 X5.585 Y2.216 E6.64441
G1 X5.593 Y1.906 E6.65885
G1 X5.593 Y1.891 E6.65955
G1 X5.6 Y-14.4 E7.41813
G1 X14.4 Y-14.4 E7.82789
G1 X14.4 Y14.4 E9.16894
G1 X-14.4 Y14.4 E10.50999
G1 X-14.4 Y0.6 E11.15258
G1 X-5.598 Y0.6 E11.56243
G0 F6000 X-5.998 Y1
G1 F1200 X-5.998 Y2.529 E11.63363
G1 X-5.99 Y2.656 E11.63956
G1 X-5.928 Y3.139 E11.66223
G1 X-5.886 Y3.324 E11.67106
G1 X-5.686 Y3.934 E11.70096
G1 X-5.586 Y4.149 E11.712
G1 X-5.316 Y4.584 E11.73584
G1 X-5.188 Y4.748 E11.74553
G1 X-4.831 Y5.121 E11.76957
G1 X-4.665 Y5.261 E11.77968
G1 X-4.273 Y5.523 E11.80163
G1 X-4.103 Y5.615 E11.81063
G1 X-3.711 Y5.779 E11.83042
G1 X-3.58 Y5.823 E11.83686
G1 X-3.281 Y5.902 E11.85126
G1 X-3.176 Y5.924 E11.85625
G1 X-2.892 Y5.967 E11.86963
G1 X-2.788 Y5.977 E11.87449
G1 X-2.309 Y5.999 E11.89682
G1 X-2.262 Y6 E11.89901
G1 X1.773 Y5.996 E12.08689
G1 X1.808 Y5.995 E12.08852
G1 X2.28 Y5.978 E12.11052
G1 X2.323 Y5.976 E12.11252
G1 X2.589 Y5.955 E12.12495
G1 X2.654 Y5.948 E12.12799
G1 X2.978 Y5.901 E12.14324
G1 X3.124 Y5.868 E12.1502
G1 X3.58 Y5.73 E12.17239
G1 X3.747 Y5.663 E12.18077
G1 X4.15 Y5.456 E12.20186
G1 X4.272 Y5.382 E12.20851
G1 X4.585 Y5.16 E12.22638
G1 X4.705 Y5.059 E12.23368
G1 X4.977 Y4.793 E12.2514
G1 X5.078 Y4.678 E12.25852
G1 X5.346 Y4.321 E12.27931
G1 X5.439 Y4.172 E12.28749
G1 X5.65 Y3.754 E12.30929
G1 X5.709 Y3.608 E12.31662
G1 X5.812 Y3.286 E12.33236
G1 X5.838 Y3.189 E12.33704
G1 X5.926 Y2.776 E12.3567
G1 X5.943 Y2.668 E12.36179
G1 X5.98 Y2.301 E12.37897
G1 X5.985 Y2.227 E12.38242
G1 X5.993 Y1.917 E12.39686
G1 X5.993 Y1.891 E12.39807
G1 X6 Y-14 E13.13803
G1 X14 Y-14 E13.51054
G1 X14 Y14 E14.81434
G1 X-14 Y14 E16.11813
G1 X-14 Y1 E16.72347
G1 X-5.998 Y1 E17.09607
G0 F6000 X-6.398 Y1.4
G1 F1200 X-6.398 Y2.529 E17.14865
G1 X-6.387 Y2.707 E17.15695
G1 X-6.325 Y3.19 E17.17963
G1 X-6.266 Y3.448 E17.19195
G1 X-6.066 Y4.058 E17.22184
G1 X-5.925 Y4.36 E17.23736
G1 X-5.655 Y4.795 E17.2612
G1 X-5.477 Y5.025 E17.27474
G1 X-5.12 Y5.398 E17.29878
G1 X-4.887 Y5.594 E17.31296
G1 X-4.495 Y5.856 E17.33492
G1 X-4.257 Y5.984 E17.3475
G1 X-3.865 Y6.148 E17.36729
G1 X-3.683 Y6.21 E17.37624
G1 X-3.384 Y6.289 E17.39064
G1 X-3.236 Y6.319 E17.39767
G1 X-2.952 Y6.362 E17.41105
G1 X-2.806 Y6.377 E17.41788
G1 X-2.327 Y6.399 E17.44021
G1 X-2.262 Y6.4 E17.44324
G1 X1.773 Y6.396 E17.63112
G1 X1.822 Y6.395 E17.6334
G1 X2.294 Y6.378 E17.6554
G1 X2.354 Y6.375 E17.65819
G1 X2.62 Y6.354 E17.67062
G1 X2.711 Y6.343 E17.67489
G1 X3.035 Y6.296 E17.69013
G1 X3.24 Y6.251 E17.6999
G1 X3.696 Y6.113 E17.72209
G1 X3.93 Y6.018 E17.73385
G1 X4.333 Y5.811 E17.75494
G1 X4.503 Y5.708 E17.7642
G1 X4.816 Y5.486 E17.78207
G1 X4.985 Y5.345 E17.79232
G1 X5.257 Y5.079 E17.81003
G1 X5.398 Y4.919 E17.81996
G1 X5.666 Y4.562 E17.84075
G1 X5.796 Y4.352 E17.85225
G1 X6.007 Y3.934 E17.87405
G1 X6.09 Y3.73 E17.88431
G1 X6.193 Y3.408 E17.90005
G1 X6.229 Y3.273 E17.90656
G1 X6.317 Y2.86 E17.92622
G1 X6.341 Y2.708 E17.93338
G1 X6.378 Y2.341 E17.95056
G1 X6.385 Y2.237 E17.95541
G1 X6.393 Y1.927 E17.96985
G1 X6.393 Y1.892 E17.97148
G1 X6.399 Y-13.6 E18.69285
G1 X13.6 Y-13.6 E19.02816
G1 X13.6 Y13.6 E20.29471
G1 X-13.6 Y13.6 E21.56126
G1 X-13.6 Y1.4 E22.12934
G1 X-6.398 Y1.4 E22.46469
G0 F6000 X-6.798 Y1.8
G1 F1200 X-6.798 Y2.529 E22.49864
G1 X-6.783 Y2.758 E22.50933
G1 X-6.721 Y3.241 E22.532
G1 X-6.646 Y3.573 E22.54785
G1 X-6.446 Y4.183 E22.57774
G1 X-6.265 Y4.571 E22.59768
G1 X-5.995 Y5.006 E22.62152
G1 X-5.766 Y5.302 E22.63894
G1 X-5.409 Y5.675 E22.66298
G1 X-5.109 Y5.927 E22.68123
G1 X-4.717 Y6.189 E22.70318
G1 X-4.412 Y6.353 E22.71931
G1 X-4.02 Y6.517 E22.73909
G1 X-3.785 Y6.596 E22.75064
G1 X-3.486 Y6.675 E22.76504
G1 X-3.295 Y6.715 E22.77413
G1 X-3.011 Y6.758 E22.7875
G1 X-2.825 Y6.776 E22.7962
G1 X-2.346 Y6.798 E22.81853
G1 X-2.261 Y6.8 E22.82249
G1 X1.774 Y6.796 E23.01038
G1 X1.837 Y6.795 E23.01331
G1 X2.309 Y6.778 E23.0353
G1 X2.386 Y6.773 E23.0389
G1 X2.652 Y6.752 E23.05132
G1 X2.768 Y6.739 E23.05676
G1 X3.092 Y6.692 E23.072
G1 X3.355 Y6.634 E23.08454
G1 X3.811 Y6.496 E23.10672
G1 X4.112 Y6.374 E23.12185
G1 X4.515 Y6.167 E23.14294
G1 X4.734 Y6.034 E23.15488
G1 X5.047 Y5.812 E23.17274
G1 X5.265 Y5.631 E23.18594
G1 X5.537 Y5.365 E23.20365
G1 X5.718 Y5.159 E23.21642
G1 X5.986 Y4.802 E23.23721
G1 X6.153 Y4.532 E23.25199
G1 X6.364 Y4.114 E23.27379
G1 X6.471 Y3.851 E23.28701
G1 X6.574 Y3.529 E23.30276
G1 X6.62 Y3.356 E23.31109
G1 X6.708 Y2.943 E23.33075
G1 X6.739 Y2.749 E23.3399
G1 X6.776 Y2.382 E23.35708
G1 X6.784 Y2.247 E23.36338
G1 X6.792 Y1.937 E23.37782
G1 X6.793 Y1.892 E23.37991
G1 X6.799 Y-13.2 E24.08266
G1 X13.2 Y-13.2 E24.38072
G1 X13.2 Y13.2 E25.61001
G1 X-13.2 Y13.2 E26.8393
G1 X-13.2 Y1.8 E27.37014
G1 X-6.798 Y1.8 E27.66824
G0 F6000 X-7.198 Y2.2
G1 F1200 X-7.198 Y2.529 E27.68356
G1 X-7.18 Y2.809 E27.69662
G1 X-7.118 Y3.292 E27.7193
G1 X-7.027 Y3.697 E27.73863
G1 X-6.827 Y4.307 E27.76852
G1 X-6.605 Y4.782 E27.79293
G1 X-6.335 Y5.217 E27.81677
G1 X-6.055 Y5.578 E27.83805
G1 X-5.698 Y5.951 E27.86209
G1 X-5.331 Y6.259 E27.8844
G1 X-4.939 Y6.521 E27.90635
G1 X-4.566 Y6.722 E27.92608
G1 X-4.174 Y6.886 E27.94587
G1 X-3.887 Y6.983 E27.95998
G1 X-3.588 Y7.062 E27.97438
G1 X-3.355 Y7.11 E27.98545
G1 X-3.071 Y7.153 E27.99883
G1 X-2.843 Y7.176 E28.0095
G1 X-2.364 Y7.198 E28.03183
G1 X-2.261 Y7.2 E28.03662
G1 X1.774 Y7.196 E28.22451
G1 X1.851 Y7.195 E28.2281
G1 X2.323 Y7.178 E28.25009
G1 X2.417 Y7.172 E28.25448
G1 X2.683 Y7.151 E28.2669
G1 X2.826 Y7.135 E28.2736
G1 X3.15 Y7.088 E28.28885
G1 X3.471 Y7.017 E28.30415
G1 X3.927 Y6.879 E28.32634
G1 X4.295 Y6.73 E28.34482
G1 X4.698 Y6.523 E28.36592
G1 X4.966 Y6.36 E28.38053
G1 X5.279 Y6.138 E28.3984
G1 X5.544 Y5.917 E28.41446
G1 X5.816 Y5.651 E28.43218
G1 X6.037 Y5.399 E28.44779
G1 X6.305 Y5.042 E28.46857
G1 X6.51 Y4.712 E28.48666
G1 X6.721 Y4.294 E28.50846
G1 X6.852 Y3.973 E28.52461
G1 X6.955 Y3.651 E28.54035
G1 X7.012 Y3.439 E28.55057
G1 X7.1 Y3.026 E28.57024
G1 X7.137 Y2.789 E28.5814
G1 X7.174 Y2.422 E28.59858
G1 X7.184 Y2.258 E28.60623
G1 X7.192 Y1.948 E28.62067
G1 X7.193 Y1.892 E28.62328
G1 X7.199 Y-12.8 E29.3074
G1 X12.8 Y-12.8 E29.56821
G1 X12.8 Y12.8 E30.76025
G1 X-12.8 Y12.8 E31.95229
G1 X-12.8 Y2.2 E32.44587
G1 X-7.198 Y2.2 E32.70673
G0 F6000 X-7.593 Y2.6
G1 F1200 X-7.577 Y2.86 E32.71885
G1 X-7.515 Y3.343 E32.74153
G1 X-7.407 Y3.822 E32.76439
G1 X-7.207 Y4.432 E32.79429
G1 X-6.945 Y4.993 E32.82312
G1 X-6.675 Y5.428 E32.84696
G1 X-6.344 Y5.855 E32.87211
G1 X-5.987 Y6.228 E32.89616
G1 X-5.554 Y6.592 E32.9225
G1 X-5.162 Y6.854 E32.94445
G1 X-4.72 Y7.091 E32.9678
G1 X-4.328 Y7.255 E32.98759
G1 X-3.989 Y7.37 E33.00426
G1 X-3.69 Y7.449 E33.01866
G1 X-3.415 Y7.506 E33.03174
G1 X-3.131 Y7.549 E33.04511
G1 X-2.861 Y7.575 E33.05774
G1 X-2.382 Y7.597 E33.08007
G1 X-2.26 Y7.6 E33.08575
G1 X1.775 Y7.596 E33.27364
G1 X1.866 Y7.594 E33.27788
G1 X2.338 Y7.577 E33.29987
G1 X2.449 Y7.571 E33.30505
G1 X2.715 Y7.55 E33.31747
G1 X2.883 Y7.531 E33.32534
G1 X3.207 Y7.484 E33.34059
G1 X3.587 Y7.4 E33.35871
G1 X4.043 Y7.262 E33.38089
G1 X4.478 Y7.086 E33.40274
G1 X4.881 Y6.879 E33.42384
G1 X5.197 Y6.687 E33.44106
G1 X5.51 Y6.465 E33.45893
G1 X5.824 Y6.203 E33.47797
G1 X6.096 Y5.937 E33.49568
G1 X6.357 Y5.639 E33.51413
G1 X6.625 Y5.282 E33.53492
G1 X6.867 Y4.893 E33.55625
G1 X7.078 Y4.475 E33.57805
G1 X7.233 Y4.095 E33.59716
G1 X7.336 Y3.773 E33.6129
G1 X7.403 Y3.523 E33.62496
G1 X7.491 Y3.11 E33.64462
G1 X7.535 Y2.829 E33.65786
G1 X7.572 Y2.462 E33.67504
G1 X7.584 Y2.268 E33.68409
G1 X7.592 Y1.958 E33.69853
G1 X7.593 Y1.892 E33.7016
G1 X7.599 Y-12.4 E34.3671
G1 X12.4 Y-12.4 E34.59065
G1 X12.4 Y12.4 E35.74544
G1 X-12.4 Y12.4 E36.90024
G1 X-12.4 Y2.6 E37.35656
G1 X-7.593 Y2.6 E37.5804
G0 F6000 X-7.963 Y3
G1 F1200 X-7.912 Y3.394 E37.5989
G1 X-7.787 Y3.947 E37.6253
G1 X-7.587 Y4.557 E37.65519
G1 X-7.285 Y5.204 E37.68844
G1 X-7.015 Y5.639 E37.71228
G1 X-6.633 Y6.131 E37.74128
G1 X-6.276 Y6.504 E37.76532
G1 X-5.776 Y6.924 E37.79573
G1 X-5.384 Y7.186 E37.81768
G1 X-4.875 Y7.46 E37.8446
G1 X-4.483 Y7.624 E37.86439
G1 X-4.091 Y7.756 E37.88365
G1 X-3.792 Y7.835 E37.89805
G1 X-3.475 Y7.901 E37.91313
G1 X-3.191 Y7.944 E37.9265
G1 X-2.88 Y7.975 E37.94105
G1 X-2.401 Y7.997 E37.96338
G1 X-2.26 Y8 E37.96995
G1 X1.775 Y7.996 E38.15783
G1 X1.88 Y7.994 E38.16272
G1 X2.352 Y7.977 E38.18472
G1 X2.48 Y7.97 E38.19069
G1 X2.746 Y7.949 E38.20311
G1 X2.941 Y7.927 E38.21225
G1 X3.265 Y7.88 E38.22749
G1 X3.703 Y7.782 E38.24839
G1 X4.159 Y7.644 E38.27058
G1 X4.661 Y7.442 E38.29577
G1 X5.064 Y7.235 E38.31687
G1 X5.429 Y7.013 E38.33676
G1 X5.742 Y6.791 E38.35463
G1 X6.104 Y6.489 E38.37658
G1 X6.376 Y6.223 E38.3943
G1 X6.677 Y5.879 E38.41558
G1 X6.945 Y5.522 E38.43637
G1 X7.224 Y5.073 E38.46098
G1 X7.435 Y4.655 E38.48279
G1 X7.614 Y4.217 E38.50482
G1 X7.717 Y3.895 E38.52056
G1 X7.794 Y3.606 E38.53449
G1 X7.882 Y3.193 E38.55415
G1 X7.933 Y2.869 E38.56942
G1 X7.97 Y2.502 E38.5866
G1 X7.984 Y2.278 E38.59705
G1 X7.992 Y1.968 E38.61149
G1 X7.993 Y1.892 E38.61503
G1 X7.999 Y-12 E39.2619
G1 X12 Y-12 E39.4482
G1 X12 Y12 E40.56574
G1 X-12 Y12 E41.68328
G1 X-12 Y3 E42.10236
G1 X-7.963 Y3 E42.29034
G0 F6000 X-8.314 Y3.4
G1 F1200 X-8.308 Y3.445 E42.29245
G1 X-8.167 Y4.071 E42.32233
G1 X-7.967 Y4.681 E42.35222
G1 X-7.767 Y5.163 E42.37652
G1 X-7.625 Y5.415 E42.38999
G1 X-7.355 Y5.85 E42.41383
G1 X-6.922 Y6.408 E42.44672
G1 X-6.565 Y6.781 E42.47076
G1 X-5.998 Y7.257 E42.50524
G1 X-5.606 Y7.519 E42.52719
G1 X-5.029 Y7.829 E42.55769
G1 X-4.637 Y7.993 E42.57748
G1 X-4.194 Y8.143 E42.59925
G1 X-3.895 Y8.222 E42.61365
G1 X-3.535 Y8.297 E42.63078
G1 X-3.251 Y8.34 E42.64415
G1 X-2.898 Y8.374 E42.66067
G1 X-2.419 Y8.396 E42.68299
G1 X-2.26 Y8.4 E42.6904
G1 X1.775 Y8.396 E42.87829
G1 X1.894 Y8.394 E42.88383
G1 X2.366 Y8.377 E42.90582
G1 X2.512 Y8.368 E42.91263
G1 X2.778 Y8.347 E42.92506
G1 X2.998 Y8.323 E42.93536
G1 X3.322 Y8.276 E42.95061
G1 X3.819 Y8.165 E42.97432
G1 X4.275 Y8.027 E42.9965
G1 X4.843 Y7.797 E43.02504
G1 X5.246 Y7.59 E43.04613
G1 X5.66 Y7.339 E43.06868
G1 X5.973 Y7.117 E43.08655
G1 X6.383 Y6.775 E43.11141
G1 X6.655 Y6.509 E43.12912
G1 X6.997 Y6.119 E43.15328
G1 X7.265 Y5.762 E43.17406
G1 X7.581 Y5.253 E43.20196
G1 X7.792 Y4.835 E43.22376
G1 X7.995 Y4.339 E43.24872
G1 X8.098 Y4.017 E43.26446
G1 X8.185 Y3.69 E43.28022
G1 X8.273 Y3.277 E43.29988
G1 X8.331 Y2.909 E43.31723
G1 X8.368 Y2.542 E43.3344
G1 X8.384 Y2.289 E43.34621
G1 X8.392 Y1.979 E43.36065
G1 X8.393 Y1.892 E43.3647
G1 X8.399 Y-11.6 E43.99294
G1 X11.6 Y-11.6 E44.14199
G1 X11.6 Y11.6 E45.22228
G1 X-11.6 Y11.6 E46.30257
G1 X-11.6 Y3.4 E46.6844
G1 X-8.314 Y3.4 E46.83741
G0 F6000 X-8.636 Y3.8
G1 F1200 X-8.547 Y4.196 E46.85631
G1 X-8.347 Y4.806 E46.8862
G1 X-8.138 Y5.316 E46.91186
G1 X-7.965 Y5.626 E46.92839
G1 X-7.695 Y6.061 E46.95223
G1 X-7.211 Y6.684 E46.98897
G1 X-6.854 Y7.057 E47.01301
G1 X-6.445 Y7.427 E47.03869
G1 X-6.221 Y7.589 E47.05156
G1 X-5.829 Y7.851 E47.07352
G1 X-5.184 Y8.198 E47.10762
G1 X-4.792 Y8.362 E47.12741
G1 X-4.296 Y8.53 E47.15179
G1 X-3.997 Y8.609 E47.16619
G1 X-3.595 Y8.692 E47.18531
G1 X-3.311 Y8.735 E47.19868
G1 X-2.916 Y8.774 E47.21717
G1 X-2.437 Y8.796 E47.23949
G1 X-2.259 Y8.8 E47.24778
G1 X1.776 Y8.796 E47.43567
G1 X1.909 Y8.794 E47.44186
G1 X2.381 Y8.777 E47.46386
G1 X2.543 Y8.767 E47.47141
G1 X2.809 Y8.746 E47.48384
G1 X3.056 Y8.719 E47.49541
G1 X3.38 Y8.672 E47.51065
G1 X3.935 Y8.548 E47.53713
G1 X4.391 Y8.41 E47.55932
G1 X5.026 Y8.153 E47.59122
G1 X5.429 Y7.946 E47.61231
G1 X5.891 Y7.666 E47.63747
G1 X6.204 Y7.444 E47.65534
G1 X6.663 Y7.061 E47.68317
G1 X6.935 Y6.795 E47.70089
G1 X7.317 Y6.359 E47.72788
G1 X7.585 Y6.002 E47.74867
G1 X7.938 Y5.433 E47.77985
G1 X8.149 Y5.015 E47.80165
G1 X8.376 Y4.461 E47.82953
G1 X8.479 Y4.139 E47.84527
G1 X8.577 Y3.773 E47.86291
G1 X8.665 Y3.36 E47.88257
G1 X8.729 Y2.949 E47.90194
G1 X8.766 Y2.582 E47.91912
G1 X8.784 Y2.299 E47.93232
G1 X8.792 Y1.989 E47.94676
G1 X8.793 Y1.893 E47.95123
G1 X8.798 Y-11.2 E48.5609
G1 X11.2 Y-11.2 E48.67274
G1 X11.2 Y11.2 E49.71578
G1 X-11.2 Y11.2 E50.75882
G1 X-11.2 Y3.8 E51.1034
G1 X-8.636 Y3.8 E51.22279
G1 F2700 E46.22279
G0 F6000 X-8.231 Y3.667
G0 X-8.346 Y3.343
G0 X-11.653 Y3.347
G0 X-15.2 Y14.663
G1 F2700 E51.22279
G1 F1200 X-15.2 Y-14.329 E52.57278
G1 X-15.19 Y-14.994 E52.60374
G1 X-15.149 Y-15.112 E52.60956
G1 X-14.996 Y-15.191 E52.61758
G1 X-14.676 Y-15.2 E52.63249
G1 X-5.704 Y-15.2 E53.05026
G1 X-5.006 Y-15.19 E53.08276
G1 X-4.252 Y-15.158 E53.11791
G1 X-1.427 Y-15.077 E53.2495
G1 X1.389 Y-15.077 E53.38063
G1 X4.213 Y-15.156 E53.51218
G1 X4.752 Y-15.183 E53.53731
G1 X5.35 Y-15.2 E53.56516
G1 X14.296 Y-15.2 E53.98173
G1 X14.994 Y-15.19 E54.01423
G1 X15.112 Y-15.149 E54.02005
G1 X15.191 Y-14.996 E54.02807
G1 X15.2 Y-14.676 E54.04297
G1 X15.2 Y14.267 E55.39068
G1 X15.19 Y14.994 E55.42453
G1 X15.149 Y15.112 E55.43035
G1 X14.996 Y15.191 E55.43837
G1 X14.676 Y15.2 E55.45328
G1 X-14.296 Y15.2 E56.80233
G1 X-14.994 Y15.19 E56.83484
G1 X-15.112 Y15.149 E56.84066
G1 X-15.191 Y14.995 E56.84872
G1 X-15.2 Y14.663 E56.86418
G1 F2700 E51.86418
G0 F6000 X-11.653 Y3.347
G0 X-4.347 Y-.147
G0 X1.378 Y-15.477
G1 F2700 E56.86418
G1 F1200 X4.202 Y-15.555 E56.99573
G1 X4.741 Y-15.583 E57.02086
