;FLAVOR:Marlin
;TIME:122245
;Filament used: 143.516m
;Layer height: 0.28
;MINX:-96.665
;MINY:-96.665
;MINZ:0.28
;MAXX:96.665
;MAXY:96.665
;MAXZ:59.92
;Generated with Cura_SteamEngine 5.3.1
M104 S210
M105
M109 S210
M82 ;absolute extrusion mode
; Ender 3 Custom Start G-code
G92 E0 ; Reset Extruder
G92 E0
G92 E0
G1 F2700 E-5
;LAYER_COUNT:214
;LAYER:0
M107
G0 F6000 X67.4 Y92.2 Z0.28
;TYPE:SKIRT
G1 F2700 E0
G1 F1200 X-67.4 Y92.2 E6.27685
G1 X-67.4 Y-92.2 E14.86329
G1 X67.4 Y-92.2 E21.14014
G1 X67.4 Y92.2 E29.72658
G0 F6000 X67.8 Y92.6
G1 F1200 X-67.8 Y92.6 E36.04068
G1 X-67.8 Y-92.6 E44.66437
G1 X67.8 Y-92.6 E50.97847
G1 X67.8 Y92.6 E59.60216
G0 F6000 X68.2 Y93
G1 F1200 X-68.2 Y93 E65.95352
G1 X-68.2 Y-93 E74.61446
G1 X68.2 Y-93 E80.96581
G1 X68.2 Y93 E89.62675
G0 F6000 X68.6 Y93.4
G1 F1200 X-68.6 Y93.4 E96.01536
G1 X-68.6 Y-93.4 E104.71355
G1 X68.6 Y-93.4 E111.10216
G1 X68.6 Y93.4 E119.80035
G0 F6000 X69 Y93.8
G1 F1200 X-69 Y93.8 E126.2262
G1 X-69 Y-93.8 E134.96165
G1 X69 Y-93.8 E141.3875
G1 X69 Y93.8 E150.12295
G0 F6000 X69.4 Y94.2
G1 F1200 X-69.4 Y94.2 E156.58605
G1 X-69.4 Y-94.2 E165.35875
G1 X69.4 Y-94.2 E171.82186
G1 X69.4 Y94.2 E180.59455
G0 F6000 X69.8 Y94.6
G1 F1200 X-69.8 Y94.6 E187.09491
G1 X-69.8 Y-94.6 E195.90486
G1 X69.8 Y-94.6 E202.40522
G1 X69.8 Y94.6 E211.21516
G0 F6000 X70.2 Y95
G1 F1200 X-70.2 Y95 E217.75277
G1 X-70.2 Y-95 E226.59997
G1 X70.2 Y-95 E233.13758
G1 X70.2 Y95 E241.98478
G0 F6000 X70.6 Y95.4
G1 F1200 X-70.6 Y95.4 E248.55964
G1 X-70.6 Y-95.4 E257.44409
G1 X70.6 Y-95.4 E264.01895
G1 X70.6 Y95.4 E272.9034
G0 F6000 X71 Y95.8
G1 F1200 X-71 Y95.8 E279.51551
G1 X-71 Y-95.8 E288.43721
G1 X71 Y-95.8 E295.04933
G1 X71 Y95.8 E303.97103
G1 F2700 E298.97103
G0 F6000 X71.347 Y96.653
G0 X96.653 Y96.653
G0 X96.665 Y-33
G0 X96.2 Y-33
G1 F2700 E303.97103
G1 F1200 X96.2 Y95.267 E309.94368
G1 X96.19 Y95.994 E309.97753
G1 X96.149 Y96.112 E309.98335
G1 X95.996 Y96.191 E309.99137
G1 X95.676 Y96.2 E310.00627
G1 X-95.296 Y96.2 E318.89873
G1 X-95.994 Y96.19 E318.93123
G1 X-96.112 Y96.149 E318.93705
G1 X-96.191 Y95.995 E318.94511
G1 X-96.2 Y95.663 E318.96057
G1 X-96.2 Y-95.329 E327.85396
G1 X-96.19 Y-95.994 E327.88493
G1 X-96.149 Y-96.112 E327.89075
G1 X-95.996 Y-96.191 E327.89877
G1 X-95.676 Y-96.2 E327.91367
G1 X95.296 Y-96.2 E336.80613
G1 X95.994 Y-96.19 E336.83863
G1 X96.112 Y-96.149 E336.84445
G1 X96.191 Y-95.996 E336.85247
G1 X96.2 Y-95.676 E336.86737
G1 X96.2 Y-42.5 E339.34347
G1 F2700 E334.34347
G0 F6000 X96.665 Y-42.5
G0 X96.653 Y-96.653
G0 X71.347 Y-96.653
G0 X67.865 Y-91.8
G0 X67 Y-91.8
;TYPE:SUPPORT
G1 F2700 E339.34347
G1 F1200 X67 Y91.8 E347.89266
G1 X-67 Y91.8 E354.13226
G1 X-67 Y-91.8 E362.68144
G1 X67 Y-91.8 E368.92104
G1 F2700 E363.92104
G0 F6000 X67 Y-92.665
G0 X62.862 Y-92.665
G0 X62.862 Y-91.719
G1 F2700 E368.92104
G1 F1200 X-66.919 Y-16.789 E375.89909
G1 F2700 E370.89909
G0 F6000 X-67.865 Y-16.789
G0 X-67.865 Y-10.923
G0 X-66.919 Y-10.923
G1 F2700 E375.89909
G1 F1200 X66.92 Y66.349 E383.09531
G1 F2700 E378.09531
G0 F6000 X67.865 Y66.349
G0 X67.865 Y72.215
G0 X66.919 Y72.215
G1 F2700 E383.09531
G1 F1200 X33.137 Y91.719 E384.91168
G1 F2700 E379.91168
G0 F6000 X33.137 Y92.665
G0 X36 Y92.665
G0 X36 Y91.72
G1 F2700 E384.91168
G1 F1200 X36 Y-91.72 E393.45342
G1 F2700 E388.45342
G0 F6000 X36 Y-92.665
G0 X38.862 Y-92.665
G0 X38.862 Y-91.719
G1 F2700 E393.45342
G1 F1200 X-66.918 Y-30.646 E399.14099
G1 F2700 E394.14099
G0 F6000 X-67.865 Y-30.646
G0 X-67.865 Y-24.78
G0 X-66.92 Y-24.78
G1 F2700 E399.14099
G1 F1200 X66.92 Y52.492 E406.33724
G1 F2700 E401.33724
G0 F6000 X67.865 Y52.492
G0 X67.865 Y58.359
G0 X66.919 Y58.359
G1 F2700 E406.33724
G1 F1200 X9.136 Y91.719 E409.44408
G1 F2700 E404.44408
G0 F6000 X9.136 Y92.665
G0 X12 Y92.665
G0 X12 Y91.72
G1 F2700 E409.44408
G1 F1200 X12 Y-91.72 E417.98581
G1 F2700 E412.98581
G0 F6000 X12 Y-92.665
G0 X14.862 Y-92.665
G0 X14.862 Y-91.719
G1 F2700 E417.98581
G1 F1200 X-66.918 Y-44.502 E422.38296
G1 F2700 E417.38296
G0 F6000 X-67.865 Y-44.502
G0 X-67.865 Y-38.636
G0 X-66.92 Y-38.636
G1 F2700 E422.38296
G1 F1200 X66.92 Y38.636 E429.57922
G1 F2700 E424.57922
G0 F6000 X67.865 Y38.636
G0 X67.865 Y44.502
G0 X66.918 Y44.502
G1 F2700 E429.57922
G1 F1200 X-14.862 Y91.719 E433.97637
G1 F2700 E428.97637
G0 F6000 X-14.862 Y92.665
G0 X-12 Y92.665
G0 X-12 Y91.72
G1 F2700 E433.97637
G1 F1200 X-12 Y-91.72 E442.51811
G1 F2700 E437.51811
G0 F6000 X-12 Y-92.665
G0 X-14.861 Y-92.665
G0 X-14.861 Y-91.718
G1 F2700 E442.51811
G1 F1200 X66.919 Y-44.502 E446.91523
G1 F2700 E441.91523
G0 F6000 X67.865 Y-44.502
G0 X67.865 Y-38.635
G0 X66.919 Y-38.635
G1 F2700 E446.91523
G1 F1200 X-66.919 Y38.635 E454.11136
G1 F2700 E449.11136
G0 F6000 X-67.865 Y38.635
G0 X-67.865 Y44.502
G0 X-66.919 Y44.502
G1 F2700 E454.11136
G1 F1200 X14.861 Y91.718 E458.50849
G1 F2700 E453.50849
G0 F6000 X14.861 Y92.665
G0 X24 Y92.665
G0 X24 Y91.72
G1 F2700 E458.50849
G1 F1200 X24 Y-91.72 E467.05023
G1 F2700 E462.05023
G0 F6000 X24 Y-92.665
G0 X33.138 Y-92.665
G0 X33.138 Y-91.718
G1 F2700 E467.05023
G1 F1200 X66.92 Y-72.214 E468.86661
G1 F2700 E463.86661
G0 F6000 X67.865 Y-72.214
G0 X67.865 Y-66.348
G0 X66.919 Y-66.348
G1 F2700 E468.86661
G1 F1200 X-66.919 Y10.922 E476.06273
G1 F2700 E471.06273
G0 F6000 X-67.865 Y10.922
G0 X-67.865 Y16.789
G0 X-66.92 Y16.789
G1 F2700 E476.06273
G1 F1200 X62.861 Y91.718 E483.04076
G1 F2700 E478.04076
G0 F6000 X62.861 Y92.665
G0 X60 Y92.665
G0 X60 Y91.72
G1 F2700 E483.04076
G1 F1200 X60 Y-91.72 E491.58249
G1 F2700 E486.58249
G0 F6000 X60 Y-92.665
G0 X57.137 Y-92.665
G0 X57.137 Y-91.719
G1 F2700 E491.58249
G1 F1200 X66.919 Y-86.071 E492.10846
G1 F2700 E487.10846
G0 F6000 X67.865 Y-86.071
G0 X67.865 Y-80.205
G0 X66.919 Y-80.205
G1 F2700 E492.10846
G1 F1200 X-66.919 Y-2.933 E499.30463
G1 F2700 E494.30463
G0 F6000 X-67.865 Y-2.933
G0 X-67.865 Y2.932
G0 X-66.92 Y2.932
G1 F2700 E499.30463
G1 F1200 X66.92 Y80.205 E506.50091
G1 F2700 E501.50091
G0 F6000 X67.865 Y80.205
G0 X67.865 Y86.072
G0 X66.918 Y86.072
G1 F2700 E506.50091
G1 F1200 X57.136 Y91.719 E507.02685
G1 F2700 E502.02685
G0 F6000 X57.136 Y92.665
G0 X48 Y92.665
G0 X48 Y91.72
G1 F2700 E507.02685
G1 F1200 X48 Y-91.72 E515.56858
G1 F2700 E510.56858
G0 F6000 X48 Y-92.665
G0 X67.853 Y-92.653
G0 X67.865 Y-58.358
G0 X66.919 Y-58.358
G1 F2700 E515.56858
G1 F1200 X9.137 Y-91.719 E518.6754
G1 F2700 E513.6754
G0 F6000 X9.137 Y-92.665
G0 X0.00 Y-92.665
G0 X0.00 Y-91.72
G1 F2700 E518.6754
G1 F1200 X0.00 Y91.72 E527.21714
G1 F2700 E522.21714
G0 F6000 X0.00 Y92.665
G0 X-9.137 Y92.665
G0 X-9.137 Y91.719
G1 F2700 E527.21714
G1 F1200 X-66.919 Y58.358 E530.32395
G1 F2700 E525.32395
G0 F6000 X-67.865 Y58.358
G0 X-67.865 Y52.492
G0 X-66.919 Y52.492
G1 F2700 E530.32395
G1 F1200 X66.919 Y-24.779 E537.52011
G1 F2700 E532.52011
G0 F6000 X67.865 Y-24.779
G0 X67.865 Y-30.646
G0 X66.919 Y-30.646
G1 F2700 E537.52011
G1 F1200 X-38.862 Y-91.719 E543.20771
G1 F2700 E538.20771
G0 F6000 X-38.862 Y-92.665
G0 X-36 Y-92.665
G0 X-36 Y-91.72
G1 F2700 E543.20771
G1 F1200 X-36 Y91.72 E551.74945
G1 F2700 E546.74945
G0 F6000 X-36 Y92.665
G0 X-38.862 Y92.665
G0 X-38.862 Y91.719
G1 F2700 E551.74945
G1 F1200 X66.918 Y30.646 E557.43702
G1 F2700 E552.43702
G0 F6000 X67.865 Y30.646
G0 X67.865 Y24.78
G0 X66.92 Y24.78
G1 F2700 E557.43702
G1 F1200 X-66.92 Y-52.492 E564.63327
G1 F2700 E559.63327
G0 F6000 X-67.865 Y-52.492
G0 X-67.865 Y-58.359
G0 X-66.919 Y-58.359
G1 F2700 E564.63327
G1 F1200 X-9.136 Y-91.719 E567.7401
G1 F2700 E562.7401
G0 F6000 X-9.136 Y-92.665
G0 X-24 Y-92.665
G0 X-24 Y-91.72
G1 F2700 E567.7401
G1 F1200 X-24 Y91.72 E576.28184
G1 F2700 E571.28184
G0 F6000 X-24 Y92.665
G0 X-33.138 Y92.665
G0 X-33.138 Y91.718
G1 F2700 E576.28184
G1 F1200 X-66.92 Y72.214 E578.09822
G1 F2700 E573.09822
G0 F6000 X-67.865 Y72.214
G0 X-67.865 Y66.348
G0 X-66.919 Y66.348
G1 F2700 E578.09822
G1 F1200 X66.919 Y-10.922 E585.29435
G1 F2700 E580.29435
G0 F6000 X67.865 Y-10.922
G0 X67.865 Y-16.789
G0 X66.92 Y-16.789
G1 F2700 E585.29435
G1 F1200 X-62.861 Y-91.718 E592.27237
G1 F2700 E587.27237
G0 F6000 X-62.861 Y-92.665
G0 X-60 Y-92.665
G0 X-60 Y-91.72
G1 F2700 E592.27237
G1 F1200 X-60 Y91.72 E600.8141
G1 F2700 E595.8141
G0 F6000 X-60 Y92.665
G0 X-62.862 Y92.665
G0 X-62.862 Y91.719
G1 F2700 E600.8141
G1 F1200 X66.919 Y16.789 E607.79215
G1 F2700 E602.79215
G0 F6000 X67.865 Y16.789
G0 X67.865 Y10.923
G0 X66.919 Y10.923
G1 F2700 E607.79215
G1 F1200 X-66.92 Y-66.349 E614.98837
G1 F2700 E609.98837
G0 F6000 X-67.865 Y-66.349
G0 X-67.865 Y-72.215
G0 X-66.919 Y-72.215
G1 F2700 E614.98837
G1 F1200 X-33.137 Y-91.719 E616.80474
G1 F2700 E611.80474
G0 F6000 X-33.137 Y-92.665
G0 X-48 Y-92.665
G0 X-48 Y-91.72
G1 F2700 E616.80474
G1 F1200 X-48 Y91.72 E625.34648
G1 F2700 E620.34648
G0 F6000 X-48 Y92.665
G0 X-57.137 Y92.665
G0 X-57.137 Y91.719
G1 F2700 E625.34648
G1 F1200 X-66.919 Y86.071 E625.87244
G1 F2700 E620.87244
G0 F6000 X-67.865 Y86.071
G0 X-67.865 Y80.205
G0 X-66.919 Y80.205
G1 F2700 E625.87244
G1 F1200 X66.919 Y2.933 E633.06862
G1 F2700 E628.06862
G0 F6000 X67.865 Y2.933
G0 X67.865 Y-2.932
G0 X66.92 Y-2.932
G1 F2700 E633.06862
G1 F1200 X-66.92 Y-80.205 E640.2649
G1 F2700 E635.2649
G0 F6000 X-67.865 Y-80.205
G0 X-67.865 Y-86.072
G0 X-66.918 Y-86.072
G1 F2700 E640.2649
G1 F1200 X-57.136 Y-91.719 E640.79084
G1 F2700 E635.79084
G0 F6000 X-57.136 Y-92.665
G0 X-67.853 Y-92.653
G0 X-67.865 Y24.779
G0 X-66.919 Y24.779
G1 F2700 E640.79084
G1 F1200 X66.919 Y-52.492 E647.98699
G1 F2700 E642.98699
G0 F6000 X67.865 Y-52.492
G0 X67.853 Y92.653
G0 X38.862 Y92.665
G0 X38.862 Y91.719
G1 F2700 E647.98699
G1 F1200 X-66.919 Y30.646 E653.6746
G1 F2700 E648.6746
;MESH:bridge_rect_final_10.stl
G0 F6000 X-67.865 Y30.646
G0 X-71.335 Y30.646
G0 X-72.6 Y95.4
;TYPE:WALL-INNER
G1 F2700 E653.6746
G1 F1200 X-72.6 Y-95.4 E662.55904
G1 X-95.4 Y-95.4 E663.62071
G1 X-95.4 Y95.4 E672.50515
G1 X-72.6 Y95.4 E673.56682
G0 F6000 X-72.2 Y95.8
;TYPE:WALL-OUTER
G1 F1200 X-72.2 Y-95.8 E682.48852
G1 X-95.8 Y-95.8 E683.58743
G1 X-95.8 Y95.8 E692.50913
G1 X-72.2 Y95.8 E693.60804
G0 F6000 X-72.47 Y95.53
G0 X-72.7 Y95.04
G0 X-72.96 Y95.04
;TYPE:SKIN
G1 F1200 X-95.04 Y95.04 E694.63618
G1 X-95.04 Y-95.04 E703.4871
G1 X-72.96 Y-95.04 E704.51524
G1 X-72.96 Y95.04 E713.36616
G0 F6000 X-72.7 Y95.04
G0 X-94.665 Y95.3
G0 X-94.665 Y94.839
G1 F1200 X-94.839 Y94.664 E713.37765
G0 F6000 X-94.839 Y94.098
G1 F1200 X-94.099 Y94.839 E713.42642
G0 F6000 X-93.533 Y94.839
G1 F1200 X-94.839 Y93.533 E713.51242
G0 F6000 X-94.839 Y92.967
G1 F1200 X-92.968 Y94.839 E713.63566
G0 F6000 X-92.402 Y94.839
G1 F1200 X-94.839 Y92.401 E713.79617
G0 F6000 X-94.839 Y91.836
G1 F1200 X-91.836 Y94.839 E713.99393
G0 F6000 X-91.271 Y94.839
G1 F1200 X-94.839 Y91.27 E714.22892
G0 F6000 X-94.839 Y90.704
G1 F1200 X-90.705 Y94.839 E714.50118
G0 F6000 X-90.139 Y94.839
G1 F1200 X-94.839 Y90.139 E714.81068
G0 F6000 X-94.839 Y89.573
G1 F1200 X-89.574 Y94.839 E715.15743
G0 F6000 X-89.008 Y94.839
G1 F1200 X-94.839 Y89.007 E715.54144
G0 F6000 X-94.839 Y88.442
G1 F1200 X-88.442 Y94.839 E715.96269
G0 F6000 X-87.877 Y94.839
G1 F1200 X-94.839 Y87.876 E716.42119
G0 F6000 X-94.839 Y87.31
G1 F1200 X-87.311 Y94.839 E716.91695
G0 F6000 X-86.745 Y94.839
G1 F1200 X-94.839 Y86.745 E717.44996
G0 F6000 X-94.839 Y86.179
G1 F1200 X-86.18 Y94.839 E718.0202
G0 F6000 X-85.614 Y94.839
G1 F1200 X-94.839 Y85.613 E718.62771
G0 F6000 X-94.839 Y85.047
G1 F1200 X-85.048 Y94.839 E719.2725
G0 F6000 X-84.482 Y94.839
G1 F1200 X-94.839 Y84.482 E719.95453
G0 F6000 X-94.839 Y83.916
G1 F1200 X-83.917 Y94.839 E720.67379
G0 F6000 X-83.351 Y94.839
G1 F1200 X-94.839 Y83.35 E721.43033
G0 F6000 X-94.839 Y82.785
G1 F1200 X-82.785 Y94.839 E722.22411
G0 F6000 X-82.22 Y94.839
G1 F1200 X-94.839 Y82.219 E723.05512
G0 F6000 X-94.839 Y81.653
G1 F1200 X-81.654 Y94.839 E723.92341
G0 F6000 X-81.088 Y94.839
G1 F1200 X-94.839 Y81.088 E724.82894
G0 F6000 X-94.839 Y80.522
G1 F1200 X-80.523 Y94.839 E725.7717
G0 F6000 X-79.957 Y94.839
G1 F1200 X-94.839 Y79.956 E726.75174
G0 F6000 X-94.839 Y79.391
G1 F1200 X-79.391 Y94.839 E727.76902
G0 F6000 X-78.826 Y94.839
G1 F1200 X-94.839 Y78.825 E728.82353
G0 F6000 X-94.839 Y78.259
G1 F1200 X-78.26 Y94.839 E729.91532
G0 F6000 X-77.694 Y94.839
G1 F1200 X-94.839 Y77.694 E731.04435
G0 F6000 X-94.839 Y77.128
G1 F1200 X-77.129 Y94.839 E732.21062
G0 F6000 X-76.563 Y94.839
G1 F1200 X-94.839 Y76.562 E733.41415
G0 F6000 X-94.839 Y75.997
G1 F1200 X-75.997 Y94.839 E734.65493
G0 F6000 X-75.432 Y94.839
G1 F1200 X-94.839 Y75.431 E735.93295
G0 F6000 X-94.839 Y74.865
G1 F1200 X-74.866 Y94.839 E737.24824
G0 F6000 X-74.3 Y94.839
G1 F1200 X-94.839 Y74.299 E738.6008
G0 F6000 X-94.839 Y73.734
G1 F1200 X-73.734 Y94.839 E739.9906
G0 F6000 X-73.169 Y94.839
G1 F1200 X-94.839 Y73.168 E741.41764
G0 F6000 X-94.839 Y72.602
G1 F1200 X-73.159 Y94.283 E742.84534
G0 F6000 X-73.159 Y93.717
G1 F1200 X-94.839 Y72.037 E744.273
G0 F6000 X-94.839 Y71.471
G1 F1200 X-73.159 Y93.152 E745.7007
G0 F6000 X-73.159 Y92.586
G1 F1200 X-94.839 Y70.905 E747.1284
G0 F6000 X-94.839 Y70.34
G1 F1200 X-73.159 Y92.02 E748.55606
G0 F6000 X-73.159 Y91.455
G1 F1200 X-94.839 Y69.774 E749.98376
G0 F6000 X-94.839 Y69.208
G1 F1200 X-73.159 Y90.889 E751.41146
G0 F6000 X-73.159 Y90.323
G1 F1200 X-94.839 Y68.643 E752.83912
G0 F6000 X-94.839 Y68.077
G1 F1200 X-73.159 Y89.758 E754.26682
G0 F6000 X-73.159 Y89.192
G1 F1200 X-94.839 Y67.511 E755.69452
G0 F6000 X-94.839 Y66.946
G1 F1200 X-73.159 Y88.626 E757.12218
G0 F6000 X-73.159 Y88.06
G1 F1200 X-94.839 Y66.38 E758.54985
G0 F6000 X-94.839 Y65.814
G1 F1200 X-73.159 Y87.495 E759.97755
G0 F6000 X-73.159 Y86.929
G1 F1200 X-94.839 Y65.248 E761.40525
G0 F6000 X-94.839 Y64.683
G1 F1200 X-73.159 Y86.363 E762.83291
G0 F6000 X-73.159 Y85.798
G1 F1200 X-94.839 Y64.117 E764.26061
G0 F6000 X-94.839 Y63.551
G1 F1200 X-73.159 Y85.232 E765.68831
G0 F6000 X-73.159 Y84.666
G1 F1200 X-94.839 Y62.986 E767.11597
G0 F6000 X-94.839 Y62.42
G1 F1200 X-73.159 Y84.101 E768.54367
G0 F6000 X-73.159 Y83.535
G1 F1200 X-94.839 Y61.854 E769.97137
G0 F6000 X-94.839 Y61.289
G1 F1200 X-73.159 Y82.969 E771.39903
G0 F6000 X-73.159 Y82.404
G1 F1200 X-94.839 Y60.723 E772.82673
G0 F6000 X-94.839 Y60.157
G1 F1200 X-73.159 Y81.838 E774.25443
G0 F6000 X-73.159 Y81.272
G1 F1200 X-94.839 Y59.592 E775.68209
G0 F6000 X-94.839 Y59.026
G1 F1200 X-73.159 Y80.707 E777.10979
G0 F6000 X-73.159 Y80.141
G1 F1200 X-94.839 Y58.46 E778.53749
G0 F6000 X-94.839 Y57.895
G1 F1200 X-73.159 Y79.575 E779.96515
G0 F6000 X-73.159 Y79.009
G1 F1200 X-94.839 Y57.329 E781.39282
G0 F6000 X-94.839 Y56.763
G1 F1200 X-73.159 Y78.444 E782.82052
G0 F6000 X-73.159 Y77.878
G1 F1200 X-94.839 Y56.198 E784.24818
G0 F6000 X-94.839 Y55.632
G1 F1200 X-73.159 Y77.312 E785.67585
G0 F6000 X-73.159 Y76.747
G1 F1200 X-94.839 Y55.066 E787.10355
G0 F6000 X-94.839 Y54.5
G1 F1200 X-73.159 Y76.181 E788.53124
G0 F6000 X-73.159 Y75.615
G1 F1200 X-94.839 Y53.935 E789.95891
G0 F6000 X-94.839 Y53.369
G1 F1200 X-73.159 Y75.05 E791.38661
G0 F6000 X-73.159 Y74.484
G1 F1200 X-94.839 Y52.803 E792.8143
G0 F6000 X-94.839 Y52.238
G1 F1200 X-73.159 Y73.918 E794.24197
G0 F6000 X-73.159 Y73.353
G1 F1200 X-94.839 Y51.672 E795.66967
G0 F6000 X-94.839 Y51.106
G1 F1200 X-73.159 Y72.787 E797.09737
G0 F6000 X-73.159 Y72.221
G1 F1200 X-94.839 Y50.541 E798.52503
G0 F6000 X-94.839 Y49.975
G1 F1200 X-73.159 Y71.656 E799.95273
G0 F6000 X-73.159 Y71.09
G1 F1200 X-94.839 Y49.409 E801.38043
G0 F6000 X-94.839 Y48.844
G1 F1200 X-73.159 Y70.524 E802.80809
G0 F6000 X-73.159 Y69.959
G1 F1200 X-94.839 Y48.278 E804.23579
G0 F6000 X-94.839 Y47.712
G1 F1200 X-73.159 Y69.393 E805.66349
G0 F6000 X-73.159 Y68.827
G1 F1200 X-94.839 Y47.147 E807.09115
G0 F6000 X-94.839 Y46.581
G1 F1200 X-73.159 Y68.261 E808.51882
G0 F6000 X-73.159 Y67.696
G1 F1200 X-94.839 Y46.015 E809.94651
G0 F6000 X-94.839 Y45.449
G1 F1200 X-73.159 Y67.13 E811.37421
G0 F6000 X-73.159 Y66.564
G1 F1200 X-94.839 Y44.884 E812.80188
G0 F6000 X-94.839 Y44.318
G1 F1200 X-73.159 Y65.999 E814.22958
G0 F6000 X-73.159 Y65.433
G1 F1200 X-94.839 Y43.752 E815.65727
G0 F6000 X-94.839 Y43.187
G1 F1200 X-73.159 Y64.867 E817.08494
G0 F6000 X-73.159 Y64.302
G1 F1200 X-94.839 Y42.621 E818.51264
