;FLAVOR:Marlin
;TIME:101878
;Filament used: 115.199m
;Layer height: 0.28
;MINX:-88.665
;MINY:-88.665
;MINZ:0.28
;MAXX:88.665
;MAXY:88.665
;MAXZ:54.88
;Generated with Cura_SteamEngine 5.3.1
M104 S210
M105
M109 S210
M82 ;absolute extrusion mode
; Ender 3 Custom Start G-code
G92 E0 ; Reset Extruder
G92 E0
G92 E0
G1 F2700 E-5
;LAYER_COUNT:196
;LAYER:0
M107
G0 F6000 X61.4 Y84.2 Z0.28
;TYPE:SKIRT
G1 F2700 E0
G1 F1200 X-61.4 Y84.2 E5.71808
G1 X-61.4 Y-84.2 E13.55949
G1 X61.4 Y-84.2 E19.27757
G1 X61.4 Y84.2 E27.11898
G0 F6000 X61.8 Y84.6
G1 F1200 X-61.8 Y84.6 E32.87432
G1 X-61.8 Y-84.6 E40.75298
G1 X61.8 Y-84.6 E46.50831
G1 X61.8 Y84.6 E54.38697
G0 F6000 X62.2 Y85
G1 F1200 X-62.2 Y85 E60.17956
G1 X-62.2 Y-85 E68.09547
G1 X62.2 Y-85 E73.88806
G1 X62.2 Y85 E81.80397
G0 F6000 X62.6 Y85.4
G1 F1200 X-62.6 Y85.4 E87.6338
G1 X-62.6 Y-85.4 E95.58697
G1 X62.6 Y-85.4 E101.4168
G1 X62.6 Y85.4 E109.36997
G0 F6000 X63 Y85.8
G1 F1200 X-63 Y85.8 E115.23706
G1 X-63 Y-85.8 E123.22747
G1 X63 Y-85.8 E129.09456
G1 X63 Y85.8 E137.08497
G0 F6000 X63.4 Y86.2
G1 F1200 X-63.4 Y86.2 E142.98931
G1 X-63.4 Y-86.2 E151.01698
G1 X63.4 Y-86.2 E156.92132
G1 X63.4 Y86.2 E164.94898
G0 F6000 X63.8 Y86.6
G1 F1200 X-63.8 Y86.6 E170.89057
G1 X-63.8 Y-86.6 E178.95549
G1 X63.8 Y-86.6 E184.89708
G1 X63.8 Y86.6 E192.962
G0 F6000 X64.2 Y87
G1 F1200 X-64.2 Y87 E198.94084
G1 X-64.2 Y-87 E207.04301
G1 X64.2 Y-87 E213.02185
G1 X64.2 Y87 E221.12402
G0 F6000 X64.6 Y87.4
G1 F1200 X-64.6 Y87.4 E227.14011
G1 X-64.6 Y-87.4 E235.27953
G1 X64.6 Y-87.4 E241.29563
G1 X64.6 Y87.4 E249.43505
G0 F6000 X65 Y87.8
G1 F1200 X-65 Y87.8 E255.48839
G1 X-65 Y-87.8 E263.66506
G1 X65 Y-87.8 E269.71841
G1 X65 Y87.8 E277.89508
G1 F2700 E272.89508
G0 F6000 X65.347 Y88.653
G0 X88.653 Y88.653
G0 X88.665 Y-33
G0 X88.2 Y-33
G1 F2700 E277.89508
G1 F1200 X88.2 Y87.267 E283.49522
G1 X88.19 Y87.994 E283.52907
G1 X88.149 Y88.112 E283.53489
G1 X87.996 Y88.191 E283.54291
G1 X87.676 Y88.2 E283.55781
G1 X-87.296 Y88.2 E291.70524
G1 X-87.994 Y88.19 E291.73775
G1 X-88.112 Y88.149 E291.74356
G1 X-88.191 Y87.995 E291.75162
G1 X-88.2 Y87.663 E291.76709
G1 X-88.2 Y-87.329 E299.91545
G1 X-88.19 Y-87.994 E299.94642
G1 X-88.149 Y-88.112 E299.95223
G1 X-87.996 Y-88.191 E299.96025
G1 X-87.676 Y-88.2 E299.97516
G1 X87.296 Y-88.2 E308.12259
G1 X87.994 Y-88.19 E308.15509
G1 X88.112 Y-88.149 E308.16091
G1 X88.191 Y-87.996 E308.16893
G1 X88.2 Y-87.676 E308.18383
G1 X88.2 Y-42.5 E310.28742
G1 F2700 E305.28742
G0 F6000 X88.665 Y-42.5
G0 X88.653 Y-88.653
G0 X65.347 Y-88.653
G0 X61.865 Y-83.8
G0 X61 Y-83.8
;TYPE:SUPPORT
G1 F2700 E310.28742
G1 F1200 X61 Y83.8 E318.09158
G1 X-61 Y83.8 E323.77241
G1 X-61 Y-83.8 E331.57656
G1 X61 Y-83.8 E337.2574
G0 F6000 X60 Y-83.72
G1 F1200 X60 Y83.72 E345.0541
G1 F2700 E340.0541
G0 F6000 X60 Y84.665
G0 X61.853 Y84.653
G0 X61.865 Y76.741
G0 X60.92 Y76.741
G1 F2700 E345.0541
G1 F1200 X-60.92 Y6.396 E351.60517
G0 F6000 X-60.919 Y7.458
G1 F1200 X60.919 Y-62.884 E358.1561
G0 F6000 X60.92 Y-61.822
G1 F1200 X22.994 Y-83.719 E360.1953
G0 F6000 X24 Y-83.72
G1 F1200 X24 Y83.72 E367.99201
G0 F6000 X25.005 Y83.719
G1 F1200 X-60.919 Y34.11 E372.61196
G0 F6000 X-60.919 Y35.171
G1 F1200 X60.919 Y-35.171 E379.16288
G0 F6000 X60.919 Y-34.11
G1 F1200 X-25.005 Y-83.719 E383.78283
G0 F6000 X-24 Y-83.72
G1 F1200 X-24 Y83.72 E391.57954
G0 F6000 X-22.994 Y83.719
G1 F1200 X-60.92 Y61.822 E393.61874
G0 F6000 X-60.919 Y62.884
G1 F1200 X60.919 Y-7.458 E400.16966
G0 F6000 X60.92 Y-6.396
G1 F1200 X-60.92 Y-76.741 E406.72073
G0 F6000 X-60.919 Y-75.679
G1 F1200 X-46.992 Y-83.719 E407.46954
G0 F6000 X-48 Y-83.72
G1 F1200 X-48 Y83.72 E415.26625
G0 F6000 X-49.006 Y83.719
G1 F1200 X60.919 Y20.253 E421.17668
G0 F6000 X60.919 Y21.315
G1 F1200 X-60.92 Y-49.028 E427.72766
G0 F6000 X-60.919 Y-47.966
G1 F1200 X1.006 Y-83.719 E431.05724
G0 F6000 X0.00 Y-83.72
G1 F1200 X0.00 Y83.72 E438.85395
G0 F6000 X1.006 Y83.719
G1 F1200 X-60.919 Y47.966 E442.18353
G0 F6000 X-60.919 Y49.028
G1 F1200 X60.919 Y-21.315 E448.73447
G0 F6000 X60.92 Y-20.253
G1 F1200 X-49.005 Y-83.719 E454.6449
G1 F2700 E449.6449
G0 F6000 X-49.005 Y-84.665
G0 X-60 Y-84.665
G0 X-60 Y-83.72
G1 F2700 E454.6449
G1 F1200 X-60 Y83.72 E462.44161
G1 F2700 E457.44161
G0 F6000 X-60 Y84.665
G0 X-61.853 Y84.653
G0 X-61.865 Y76.741
G0 X-60.92 Y76.741
G1 F2700 E462.44161
G1 F1200 X60.919 Y6.397 E468.99262
G0 F6000 X60.92 Y7.459
G1 F1200 X-60.92 Y-62.885 E475.54366
G0 F6000 X-60.919 Y-61.823
G1 F1200 X-22.993 Y-83.719 E477.58284
G1 F2700 E472.58284
G0 F6000 X-22.993 Y-84.665
G0 X-12 Y-84.665
G0 X-12 Y-83.72
G1 F2700 E477.58284
G1 F1200 X-12 Y83.72 E485.37955
G1 F2700 E480.37955
G0 F6000 X-12 Y84.665
G0 X-1.006 Y84.665
G0 X-1.006 Y83.719
G1 F2700 E485.37955
G1 F1200 X60.919 Y47.966 E488.70913
G0 F6000 X60.92 Y49.028
G1 F1200 X-60.919 Y-21.315 E495.26011
G0 F6000 X-60.919 Y-20.253
G1 F1200 X49.006 Y-83.719 E501.17055
G0 F6000 X48 Y-83.72
G1 F1200 X48 Y83.72 E508.96725
G0 F6000 X49.005 Y83.719
G1 F1200 X-60.92 Y20.253 E514.87769
G0 F6000 X-60.919 Y21.315
G1 F1200 X60.919 Y-49.028 E521.42863
G0 F6000 X60.919 Y-47.966
G1 F1200 X-1.006 Y-83.719 E524.75821
G1 F2700 E519.75821
G0 F6000 X-1.006 Y-84.665
G0 X12 Y-84.665
G0 X12 Y-83.72
G1 F2700 E524.75821
G1 F1200 X12 Y83.72 E532.55492
G1 F2700 E527.55492
G0 F6000 X12 Y84.665
G0 X22.993 Y84.665
G0 X22.993 Y83.719
G1 F2700 E532.55492
G1 F1200 X60.919 Y61.823 E534.5941
G0 F6000 X60.92 Y62.885
G1 F1200 X-60.92 Y-7.459 E541.14514
G0 F6000 X-60.919 Y-6.397
G1 F1200 X60.92 Y-76.741 E547.69615
G0 F6000 X60.92 Y-75.678
G1 F1200 X46.993 Y-83.719 E548.44498
G1 F2700 E543.44498
G0 F6000 X46.993 Y-84.665
G0 X36 Y-84.665
G0 X36 Y-83.72
G1 F2700 E548.44498
G1 F1200 X36 Y83.72 E556.24169
G1 F2700 E551.24169
G0 F6000 X36 Y84.665
G0 X46.992 Y84.665
G0 X46.992 Y83.719
G1 F2700 E556.24169
G1 F1200 X60.919 Y75.679 E556.99049
G1 F2700 E551.99049
G0 F6000 X61.865 Y75.679
G0 X61.865 Y35.172
G0 X60.92 Y35.172
G1 F2700 E556.99049
G1 F1200 X-60.92 Y-35.172 E563.54154
G0 F6000 X-60.918 Y-34.11
G1 F1200 X25.006 Y-83.719 E568.16149
G1 F2700 E563.16149
G0 F6000 X25.006 Y-84.665
G0 X-36 Y-84.665
G0 X-36 Y-83.72
G1 F2700 E568.16149
G1 F1200 X-36 Y83.72 E575.9582
G1 F2700 E570.9582
G0 F6000 X-36 Y84.665
G0 X-46.993 Y84.665
G0 X-46.993 Y83.719
G1 F2700 E575.9582
G1 F1200 X-60.92 Y75.678 E576.70703
G1 F2700 E571.70703
G0 F6000 X-61.865 Y75.678
G0 X-61.853 Y84.653
G0 X-25.006 Y84.665
G0 X-25.006 Y83.719
G1 F2700 E576.70703
G1 F1200 X60.918 Y34.11 E581.32698
G1 F2700 E576.32698
;MESH:bridge_rect_final_10.stl
G0 F6000 X61.865 Y34.11
G0 X65.335 Y34.11
G0 X66.6 Y87.4
;TYPE:WALL-INNER
G1 F2700 E581.32698
G1 F1200 X87.4 Y87.4 E582.29552
G1 X87.4 Y-87.4 E590.43494
G1 X66.6 Y-87.4 E591.40347
G1 X66.6 Y87.4 E599.54289
G0 F6000 X66.2 Y87.8
;TYPE:WALL-OUTER
G1 F1200 X87.8 Y87.8 E600.54868
G1 X87.8 Y-87.8 E608.72535
G1 X66.2 Y-87.8 E609.73114
G1 X66.2 Y87.8 E617.90781
G0 F6000 X66.47 Y87.53
G0 X66.7 Y87.04
G0 X66.96 Y87.04
;TYPE:SKIN
G1 F1200 X66.96 Y-87.04 E626.0137
G1 X87.04 Y-87.04 E626.94871
G1 X87.04 Y87.04 E635.0546
G1 X66.96 Y87.04 E635.98961
G0 F6000 X67.605 Y86.839
G1 F1200 X67.16 Y86.393 E636.01895
G0 F6000 X67.16 Y85.827
G1 F1200 X68.171 Y86.839 E636.08556
G0 F6000 X68.737 Y86.839
G1 F1200 X67.16 Y85.262 E636.18941
G0 F6000 X67.16 Y84.696
G1 F1200 X69.302 Y86.839 E636.3305
G0 F6000 X69.868 Y86.839
G1 F1200 X67.16 Y84.13 E636.50885
G0 F6000 X67.16 Y83.565
G1 F1200 X70.434 Y86.839 E636.72445
G0 F6000 X70.999 Y86.839
G1 F1200 X67.16 Y82.999 E636.97729
G0 F6000 X67.16 Y82.433
G1 F1200 X71.565 Y86.839 E637.2674
G0 F6000 X72.131 Y86.839
G1 F1200 X67.16 Y81.868 E637.59475
G0 F6000 X67.16 Y81.302
G1 F1200 X72.696 Y86.839 E637.95934
G0 F6000 X73.262 Y86.839
G1 F1200 X67.16 Y80.736 E638.3612
G0 F6000 X67.16 Y80.171
G1 F1200 X73.828 Y86.839 E638.8003
G0 F6000 X74.393 Y86.839
G1 F1200 X67.16 Y79.605 E639.27663
G0 F6000 X67.16 Y79.039
G1 F1200 X74.959 Y86.839 E639.79025
G0 F6000 X75.525 Y86.839
G1 F1200 X67.16 Y78.474 E640.34109
G0 F6000 X67.16 Y77.908
G1 F1200 X76.091 Y86.839 E640.92922
G0 F6000 X76.656 Y86.839
G1 F1200 X67.16 Y77.342 E641.55458
G0 F6000 X67.16 Y76.776
G1 F1200 X77.222 Y86.839 E642.21721
G0 F6000 X77.788 Y86.839
G1 F1200 X67.16 Y76.211 E642.91708
G0 F6000 X67.16 Y75.645
G1 F1200 X78.353 Y86.839 E643.65419
G0 F6000 X78.919 Y86.839
G1 F1200 X67.16 Y75.079 E644.42858
G0 F6000 X67.16 Y74.514
G1 F1200 X79.485 Y86.839 E645.2402
G0 F6000 X80.05 Y86.839
G1 F1200 X67.16 Y73.948 E646.08906
G0 F6000 X67.16 Y73.382
G1 F1200 X80.616 Y86.839 E646.97519
G0 F6000 X81.182 Y86.839
G1 F1200 X67.16 Y72.817 E647.89857
G0 F6000 X67.16 Y72.251
G1 F1200 X81.747 Y86.839 E648.85918
G0 F6000 X82.313 Y86.839
G1 F1200 X67.16 Y71.685 E649.85706
G0 F6000 X67.16 Y71.12
G1 F1200 X82.879 Y86.839 E650.89218
G0 F6000 X83.444 Y86.839
G1 F1200 X67.16 Y70.554 E651.96455
G0 F6000 X67.16 Y69.988
G1 F1200 X84.01 Y86.839 E653.07418
G0 F6000 X84.576 Y86.839
G1 F1200 X67.16 Y69.423 E654.22105
G0 F6000 X67.16 Y68.857
G1 F1200 X85.142 Y86.839 E655.4052
G0 F6000 X85.707 Y86.839
G1 F1200 X67.16 Y68.291 E656.62658
G0 F6000 X67.16 Y67.725
G1 F1200 X86.273 Y86.839 E657.88524
G0 F6000 X86.839 Y86.839
G1 F1200 X67.16 Y67.16 E659.18114
G0 F6000 X67.16 Y66.594
G1 F1200 X86.839 Y86.274 E660.47707
G0 F6000 X86.839 Y85.708
G1 F1200 X67.16 Y66.028 E661.77299
G0 F6000 X67.16 Y65.463
G1 F1200 X86.839 Y85.142 E663.06889
G0 F6000 X86.839 Y84.577
G1 F1200 X67.16 Y64.897 E664.36482
G0 F6000 X67.16 Y64.331
G1 F1200 X86.839 Y84.011 E665.66075
G0 F6000 X86.839 Y83.445
G1 F1200 X67.16 Y63.766 E666.95664
G0 F6000 X67.16 Y63.2
G1 F1200 X86.839 Y82.879 E668.25254
G0 F6000 X86.839 Y82.314
G1 F1200 X67.16 Y62.634 E669.54847
G0 F6000 X67.16 Y62.069
G1 F1200 X86.839 Y81.748 E670.84436
G0 F6000 X86.839 Y81.182
G1 F1200 X67.16 Y61.503 E672.14026
G0 F6000 X67.16 Y60.937
G1 F1200 X86.839 Y80.617 E673.43619
G0 F6000 X86.839 Y80.051
G1 F1200 X67.16 Y60.372 E674.73208
G0 F6000 X67.16 Y59.806
G1 F1200 X86.839 Y79.485 E676.02798
G0 F6000 X86.839 Y78.92
G1 F1200 X67.16 Y59.24 E677.32391
G0 F6000 X67.16 Y58.675
G1 F1200 X86.839 Y78.354 E678.6198
G0 F6000 X86.839 Y77.788
G1 F1200 X67.16 Y58.109 E679.9157
G0 F6000 X67.16 Y57.543
G1 F1200 X86.839 Y77.223 E681.21163
G0 F6000 X86.839 Y76.657
G1 F1200 X67.16 Y56.977 E682.50756
G0 F6000 X67.16 Y56.412
G1 F1200 X86.839 Y76.091 E683.80345
G0 F6000 X86.839 Y75.526
G1 F1200 X67.16 Y55.846 E685.09938
G0 F6000 X67.16 Y55.28
G1 F1200 X86.839 Y74.96 E686.39531
G0 F6000 X86.839 Y74.394
G1 F1200 X67.16 Y54.715 E687.69121
G0 F6000 X67.16 Y54.149
G1 F1200 X86.839 Y73.829 E688.98713
G0 F6000 X86.839 Y73.263
G1 F1200 X67.16 Y53.583 E690.28306
G0 F6000 X67.16 Y53.018
G1 F1200 X86.839 Y72.697 E691.57896
G0 F6000 X86.839 Y72.131
G1 F1200 X67.16 Y52.452 E692.87485
G0 F6000 X67.16 Y51.886
G1 F1200 X86.839 Y71.566 E694.17078
G0 F6000 X86.839 Y71
G1 F1200 X67.16 Y51.321 E695.46668
G0 F6000 X67.16 Y50.755
G1 F1200 X86.839 Y70.434 E696.76257
G0 F6000 X86.839 Y69.869
G1 F1200 X67.16 Y50.189 E698.0585
G0 F6000 X67.16 Y49.624
G1 F1200 X86.839 Y69.303 E699.3544
G0 F6000 X86.839 Y68.737
G1 F1200 X67.16 Y49.058 E700.65029
G0 F6000 X67.16 Y48.492
G1 F1200 X86.839 Y68.172 E701.94622
G0 F6000 X86.839 Y67.606
G1 F1200 X67.16 Y47.926 E703.24215
G0 F6000 X67.16 Y47.361
G1 F1200 X86.839 Y67.04 E704.53805
G0 F6000 X86.839 Y66.475
G1 F1200 X67.16 Y46.795 E705.83398
G0 F6000 X67.16 Y46.229
G1 F1200 X86.839 Y65.909 E707.12991
G0 F6000 X86.839 Y65.343
G1 F1200 X67.16 Y45.664 E708.4258
G0 F6000 X67.16 Y45.098
G1 F1200 X86.839 Y64.778 E709.72173
G0 F6000 X86.839 Y64.212
G1 F1200 X67.16 Y44.532 E711.01766
G0 F6000 X67.16 Y43.967
G1 F1200 X86.839 Y63.646 E712.31355
G0 F6000 X86.839 Y63.08
G1 F1200 X67.16 Y43.401 E713.60945
G0 F6000 X67.16 Y42.835
G1 F1200 X86.839 Y62.515 E714.90538
G0 F6000 X86.839 Y61.949
G1 F1200 X67.16 Y42.27 E716.20127
G0 F6000 X67.16 Y41.704
G1 F1200 X86.839 Y61.383 E717.49717
G0 F6000 X86.839 Y60.818
G1 F1200 X67.16 Y41.138 E718.7931
G0 F6000 X67.16 Y40.573
G1 F1200 X86.839 Y60.252 E720.08899
G0 F6000 X86.839 Y59.686
G1 F1200 X67.16 Y40.007 E721.38489
G0 F6000 X67.16 Y39.441
G1 F1200 X86.839 Y59.121 E722.68082
G0 F6000 X86.839 Y58.555
G1 F1200 X67.16 Y38.876 E723.97671
G0 F6000 X67.16 Y38.31
G1 F1200 X86.839 Y57.989 E725.27261
G0 F6000 X86.839 Y57.424
G1 F1200 X67.16 Y37.744 E726.56854
G0 F6000 X67.16 Y37.178
G1 F1200 X86.839 Y56.858 E727.86447
G0 F6000 X86.839 Y56.292
G1 F1200 X67.16 Y36.613 E729.16036
G0 F6000 X67.16 Y36.047
G1 F1200 X86.839 Y55.727 E730.45629
G0 F6000 X86.839 Y55.161
G1 F1200 X67.16 Y35.481 E731.75222
G0 F6000 X67.16 Y34.916
G1 F1200 X86.839 Y54.595 E733.04812
G0 F6000 X86.839 Y54.03
G1 F1200 X67.16 Y34.35 E734.34405
G0 F6000 X67.16 Y33.784
G1 F1200 X86.839 Y53.464 E735.63997
G0 F6000 X86.839 Y52.898
G1 F1200 X67.16 Y33.219 E736.93587
G0 F6000 X67.16 Y32.653
G1 F1200 X86.839 Y52.332 E738.23177
G0 F6000 X86.839 Y51.767
G1 F1200 X67.16 Y32.087 E739.52769
G0 F6000 X67.16 Y31.522
G1 F1200 X86.839 Y51.201 E740.82359
G0 F6000 X86.839 Y50.635
G1 F1200 X67.16 Y30.956 E742.11949
G0 F6000 X67.16 Y30.39
G1 F1200 X86.839 Y50.07 E743.41541
G0 F6000 X86.839 Y49.504
G1 F1200 X67.16 Y29.825 E744.71131
G0 F6000 X67.16 Y29.259
G1 F1200 X86.839 Y48.938 E746.00721
G0 F6000 X86.839 Y48.373
G1 F1200 X67.16 Y28.693 E747.30313
G0 F6000 X67.16 Y28.128
G1 F1200 X86.839 Y47.807 E748.59903
G0 F6000 X86.839 Y47.241
G1 F1200 X67.16 Y27.562 E749.89493
G0 F6000 X67.16 Y26.996
G1 F1200 X86.839 Y46.676 E751.19085
G0 F6000 X86.839 Y46.11
G1 F1200 X67.16 Y26.43 E752.48678
G0 F6000 X67.16 Y25.865
G1 F1200 X86.839 Y45.544 E753.78268
G0 F6000 X86.839 Y44.979
G1 F1200 X67.16 Y25.299 E755.07861
G0 F6000 X67.16 Y24.733
G1 F1200 X86.839 Y44.413 E756.37454
G0 F6000 X86.839 Y43.847
G1 F1200 X67.16 Y24.168 E757.67043
G0 F6000 X67.16 Y23.602
G1 F1200 X86.839 Y43.282 E758.96636
G0 F6000 X86.839 Y42.716
G1 F1200 X67.16 Y23.036 E760.26229
G0 F6000 X67.16 Y22.471
G1 F1200 X86.839 Y42.15 E761.55819
G0 F6000 X86.839 Y41.584
G1 F1200 X67.16 Y21.905 E762.85408
G0 F6000 X67.16 Y21.339
G1 F1200 X86.839 Y41.019 E764.15001
G0 F6000 X86.839 Y40.453
G1 F1200 X67.16 Y20.774 E765.44591
G0 F6000 X67.16 Y20.208
G1 F1200 X86.839 Y39.887 E766.7418
G0 F6000 X86.839 Y39.322
G1 F1200 X67.16 Y19.642 E768.03773
G0 F6000 X67.16 Y19.077
G1 F1200 X86.839 Y38.756 E769.33363
G0 F6000 X86.839 Y38.19
G1 F1200 X67.16 Y18.511 E770.62952
G0 F6000 X67.16 Y17.945
G1 F1200 X86.839 Y37.625 E771.92545
G0 F6000 X86.839 Y37.059
G1 F1200 X67.16 Y17.379 E773.22138
G0 F6000 X67.16 Y16.814
G1 F1200 X86.839 Y36.493 E774.51727
G0 F6000 X86.839 Y35.928
G1 F1200 X67.16 Y16.248 E775.8132
G0 F6000 X67.16 Y15.682
G1 F1200 X86.839 Y35.362 E777.10913
G0 F6000 X86.839 Y34.796
G1 F1200 X67.16 Y15.117 E778.40503
G0 F6000 X67.16 Y14.551
G1 F1200 X86.839 Y34.231 E779.70096
G0 F6000 X86.839 Y33.665
G1 F1200 X67.16 Y13.985 E780.99689
G0 F6000 X67.16 Y13.42
G1 F1200 X86.839 Y33.099 E782.29278
G0 F6000 X86.839 Y32.533
G1 F1200 X67.16 Y12.854 E783.58868
G0 F6000 X67.16 Y12.288
G1 F1200 X86.839 Y31.968 E784.88461
G0 F6000 X86.839 Y31.402
G1 F1200 X67.16 Y11.723 E786.1805
G0 F6000 X67.16 Y11.157
G1 F1200 X86.839 Y30.836 E787.4764
G0 F6000 X86.839 Y30.271
G1 F1200 X67.16 Y10.591 E788.77233
G0 F6000 X67.16 Y10.026
G1 F1200 X86.839 Y29.705 E790.06822
G0 F6000 X86.839 Y29.139
G1 F1200 X67.16 Y9.46 E791.36412
G0 F6000 X67.16 Y8.894
G1 F1200 X86.839 Y28.574 E792.66005
G0 F6000 X86.839 Y28.008
G1 F1200 X67.16 Y8.329 E793.95594
G0 F6000 X67.16 Y7.763
G1 F1200 X86.839 Y27.442 E795.25184
G0 F6000 X86.839 Y26.877
G1 F1200 X67.16 Y7.197 E796.54777
G0 F6000 X67.16 Y6.631
G1 F1200 X86.839 Y26.311 E797.84369
G0 F6000 X86.839 Y25.745
G1 F1200 X67.16 Y6.066 E799.13959
G0 F6000 X67.16 Y5.5
G1 F1200 X86.839 Y25.18 E800.43552
G0 F6000 X86.839 Y24.614
G1 F1200 X67.16 Y4.934 E801.73145
G0 F6000 X67.16 Y4.369
G1 F1200 X86.839 Y24.048 E803.02734
G0 F6000 X86.839 Y23.483
G1 F1200 X67.16 Y3.803 E804.32327
G0 F6000 X67.16 Y3.237
G1 F1200 X86.839 Y22.917 E805.6192
G0 F6000 X86.839 Y22.351
G1 F1200 X67.16 Y2.672 E806.9151
G0 F6000 X67.16 Y2.106
G1 F1200 X86.839 Y21.785 E808.21099
G0 F6000 X86.839 Y21.22
G1 F1200 X67.16 Y1.54 E809.50692
