;FLAVOR:Marlin
;TIME:7340
;Filament used: 6.69977m
;Layer height: 0.28
;MINX:-30.665
;MINY:-30.653
;MINZ:0.28
;MAXX:30.665
;MAXY:30.665
;MAXZ:40.04
;Generated with Cura_SteamEngine 5.3.1
M104 S210
M105
M109 S210
M82 ;absolute extrusion mode
; Ender 3 Custom Start G-code
G92 E0 ; Reset Extruder
G92 E0
G92 E0
G1 F2700 E-5
;LAYER_COUNT:143
;LAYER:0
M107
G0 F6000 X-10.198 Y-.6 Z0.28
;TYPE:SKIRT
G1 F2700 E0
G1 F1200 X-10.198 Y6.913 E0.34984
G1 X-10.183 Y7.306 E0.36815
G1 X-10.182 Y7.321 E0.36885
G1 X-10.136 Y7.713 E0.38723
G1 X-10.133 Y7.73 E0.38803
G1 X-10.055 Y8.115 E0.40632
G1 X-10.045 Y8.148 E0.40793
G1 X-9.894 Y8.534 E0.42723
G1 X-9.882 Y8.559 E0.42852
G1 X-9.681 Y8.915 E0.44756
G1 X-9.663 Y8.942 E0.44907
G1 X-9.433 Y9.228 E0.46616
G1 X-9.415 Y9.248 E0.46741
G1 X-9.121 Y9.527 E0.48628
G1 X-9.093 Y9.549 E0.48794
G1 X-8.69 Y9.814 E0.5104
G1 X-8.658 Y9.831 E0.51209
G1 X-8.282 Y9.99 E0.5311
G1 X-8.259 Y9.998 E0.53223
G1 X-7.883 Y10.106 E0.55045
G1 X-7.852 Y10.112 E0.55192
G1 X-7.325 Y10.177 E0.57664
G1 X-7.307 Y10.179 E0.57749
G1 X-6.726 Y10.197 E0.60455
G1 X-6.72 Y10.197 E0.60483
G1 X6.56 Y10.177 E1.22321
G1 X6.568 Y10.177 E1.22358
G1 X6.825 Y10.167 E1.23555
G1 X6.834 Y10.166 E1.23598
G1 X7.137 Y10.14 E1.25014
G1 X7.149 Y10.139 E1.2507
G1 X7.558 Y10.079 E1.26995
G1 X7.586 Y10.073 E1.27128
G1 X8.073 Y9.928 E1.29494
G1 X8.097 Y9.919 E1.29613
G1 X8.455 Y9.761 E1.31435
G1 X8.474 Y9.751 E1.31535
G1 X8.827 Y9.548 E1.33432
G1 X8.86 Y9.525 E1.33619
G1 X9.197 Y9.226 E1.35717
G1 X9.214 Y9.209 E1.35829
G1 X9.5 Y8.887 E1.37834
G1 X9.52 Y8.859 E1.37994
G1 X9.723 Y8.53 E1.39794
G1 X9.733 Y8.512 E1.3989
G1 X9.866 Y8.236 E1.41317
G1 X9.874 Y8.216 E1.41417
G1 X10.016 Y7.816 E1.43394
G1 X10.024 Y7.789 E1.43525
G1 X10.105 Y7.395 E1.45398
G1 X10.107 Y7.381 E1.45464
G1 X10.139 Y7.134 E1.46623
G1 X10.14 Y7.124 E1.4667
G1 X10.17 Y6.756 E1.48389
G1 X10.171 Y6.748 E1.48427
G1 X10.194 Y6.166 E1.51139
G1 X10.194 Y6.158 E1.51176
G1 X10.2 Y-9.8 E2.25483
G1 X29.8 Y-9.8 E3.16749
G1 X29.8 Y29.8 E5.01143
G1 X-29.8 Y29.8 E7.78666
G1 X-29.8 Y-.6 E9.20221
G1 X-10.198 Y-.6 E10.11496
G0 F6000 X-10.598 Y-.2
G1 F1200 X-10.598 Y6.928 E10.44687
G1 X-10.583 Y7.321 E10.46518
G1 X-10.579 Y7.368 E10.46738
G1 X-10.533 Y7.76 E10.48576
G1 X-10.525 Y7.809 E10.48807
G1 X-10.447 Y8.194 E10.50636
G1 X-10.418 Y8.294 E10.51121
G1 X-10.267 Y8.68 E10.53051
G1 X-10.23 Y8.756 E10.53445
G1 X-10.029 Y9.112 E10.55348
G1 X-9.975 Y9.193 E10.55802
G1 X-9.745 Y9.479 E10.57511
G1 X-9.69 Y9.538 E10.57886
G1 X-9.396 Y9.817 E10.59774
G1 X-9.313 Y9.883 E10.60267
G1 X-8.91 Y10.148 E10.62513
G1 X-8.814 Y10.2 E10.63022
G1 X-8.438 Y10.359 E10.64923
G1 X-8.37 Y10.383 E10.65258
G1 X-7.994 Y10.491 E10.6708
G1 X-7.901 Y10.509 E10.67521
G1 X-7.374 Y10.574 E10.69994
G1 X-7.32 Y10.579 E10.70246
G1 X-6.739 Y10.597 E10.72953
G1 X-6.719 Y10.597 E10.73046
G1 X6.561 Y10.577 E11.34883
G1 X6.583 Y10.577 E11.34986
G1 X6.84 Y10.567 E11.36183
G1 X6.868 Y10.565 E11.36314
G1 X7.171 Y10.539 E11.3773
G1 X7.207 Y10.535 E11.37899
G1 X7.616 Y10.475 E11.39824
G1 X7.7 Y10.456 E11.40225
G1 X8.187 Y10.311 E11.42591
G1 X8.258 Y10.285 E11.42943
G1 X8.616 Y10.127 E11.44765
G1 X8.673 Y10.098 E11.45063
G1 X9.026 Y9.895 E11.46959
G1 X9.125 Y9.824 E11.47526
G1 X9.462 Y9.525 E11.49624
G1 X9.513 Y9.474 E11.4996
G1 X9.799 Y9.152 E11.51965
G1 X9.861 Y9.069 E11.52447
G1 X10.064 Y8.74 E11.54248
G1 X10.094 Y8.685 E11.54539
G1 X10.227 Y8.409 E11.55966
G1 X10.251 Y8.35 E11.56262
G1 X10.393 Y7.95 E11.58239
G1 X10.416 Y7.87 E11.58627
G1 X10.497 Y7.476 E11.605
G1 X10.504 Y7.432 E11.60707
G1 X10.536 Y7.185 E11.61867
G1 X10.539 Y7.157 E11.61998
G1 X10.569 Y6.789 E11.63717
G1 X10.571 Y6.764 E11.63834
G1 X10.594 Y6.182 E11.66546
G1 X10.594 Y6.158 E11.66658
G1 X10.6 Y-9.4 E12.39102
G1 X29.4 Y-9.4 E13.26643
G1 X29.4 Y29.4 E15.07312
G1 X-29.4 Y29.4 E17.8111
G1 X-29.4 Y-.2 E19.1894
G1 X-10.598 Y-.2 E20.0649
G0 F6000 X-10.998 Y0.2
G1 F1200 X-10.998 Y6.905 E20.37711
G1 X-10.997 Y6.943 E20.37888
G1 X-10.982 Y7.336 E20.39719
G1 X-10.976 Y7.415 E20.40088
G1 X-10.93 Y7.807 E20.41926
G1 X-10.917 Y7.889 E20.42312
G1 X-10.839 Y8.274 E20.44142
G1 X-10.79 Y8.439 E20.44943
G1 X-10.639 Y8.825 E20.46873
G1 X-10.579 Y8.953 E20.47531
G1 X-10.378 Y9.309 E20.49435
G1 X-10.286 Y9.444 E20.50196
G1 X-10.056 Y9.73 E20.51905
G1 X-9.965 Y9.828 E20.52527
G1 X-9.671 Y10.107 E20.54415
G1 X-9.532 Y10.218 E20.55243
G1 X-9.129 Y10.483 E20.57489
G1 X-8.969 Y10.568 E20.58333
G1 X-8.593 Y10.727 E20.60233
G1 X-8.48 Y10.767 E20.60792
G1 X-8.104 Y10.875 E20.62613
G1 X-7.95 Y10.906 E20.63345
G1 X-7.423 Y10.971 E20.65817
G1 X-7.332 Y10.979 E20.66243
G1 X-6.751 Y10.997 E20.68949
G1 X-6.718 Y10.997 E20.69103
G1 X6.562 Y10.977 E21.3094
G1 X6.599 Y10.976 E21.31113
G1 X6.856 Y10.966 E21.3231
G1 X6.902 Y10.963 E21.32525
G1 X7.205 Y10.937 E21.33941
G1 X7.265 Y10.93 E21.34222
G1 X7.674 Y10.87 E21.36147
G1 X7.814 Y10.839 E21.36815
G1 X8.301 Y10.694 E21.39181
G1 X8.42 Y10.651 E21.3977
G1 X8.778 Y10.493 E21.41592
G1 X8.873 Y10.445 E21.42088
G1 X9.226 Y10.242 E21.43984
G1 X9.391 Y10.123 E21.44931
G1 X9.728 Y9.824 E21.47029
G1 X9.812 Y9.74 E21.47582
G1 X10.098 Y9.418 E21.49588
G1 X10.201 Y9.279 E21.50393
G1 X10.404 Y8.95 E21.52193
G1 X10.454 Y8.859 E21.52677
G1 X10.587 Y8.583 E21.54103
G1 X10.628 Y8.484 E21.54602
G1 X10.77 Y8.084 E21.56579
G1 X10.808 Y7.95 E21.57227
G1 X10.889 Y7.556 E21.591
G1 X10.901 Y7.483 E21.59445
G1 X10.933 Y7.236 E21.60604
G1 X10.938 Y7.189 E21.60825
G1 X10.968 Y6.821 E21.62544
G1 X10.97 Y6.779 E21.6274
G1 X10.993 Y6.197 E21.65452
G1 X10.994 Y6.158 E21.65633
G1 X11 Y-9 E22.36215
G1 X29 Y-9 E23.20031
G1 X29 Y29 E24.96975
G1 X-29 Y29 E27.67047
G1 X-29 Y0.2 E29.01152
G1 X-10.998 Y0.2 E29.84977
G0 F6000 X-11.398 Y0.6
G1 F1200 X-11.398 Y6.905 E30.14336
G1 X-11.397 Y6.958 E30.14582
G1 X-11.382 Y7.351 E30.16414
G1 X-11.373 Y7.461 E30.16928
G1 X-11.327 Y7.853 E30.18766
G1 X-11.309 Y7.968 E30.19308
G1 X-11.231 Y8.353 E30.21137
G1 X-11.163 Y8.585 E30.22262
G1 X-11.012 Y8.971 E30.24192
G1 X-10.927 Y9.149 E30.25111
G1 X-10.726 Y9.505 E30.27015
G1 X-10.598 Y9.694 E30.28077
G1 X-10.368 Y9.98 E30.29786
G1 X-10.241 Y10.119 E30.30663
G1 X-9.947 Y10.398 E30.3255
G1 X-9.752 Y10.552 E30.33707
G1 X-9.349 Y10.817 E30.35953
G1 X-9.125 Y10.936 E30.37134
G1 X-8.749 Y11.095 E30.39035
G1 X-8.59 Y11.152 E30.39822
G1 X-8.214 Y11.26 E30.41643
G1 X-7.999 Y11.303 E30.42664
G1 X-7.472 Y11.368 E30.45137
G1 X-7.344 Y11.378 E30.45735
G1 X-6.763 Y11.396 E30.48441
G1 X-6.718 Y11.397 E30.48651
G1 X6.562 Y11.377 E31.10488
G1 X6.614 Y11.376 E31.10731
G1 X6.871 Y11.366 E31.11928
G1 X6.937 Y11.362 E31.12236
G1 X7.24 Y11.336 E31.13652
G1 X7.323 Y11.326 E31.14041
G1 X7.732 Y11.266 E31.15966
G1 X7.929 Y11.223 E31.16905
G1 X8.416 Y11.078 E31.19271
G1 X8.581 Y11.017 E31.2009
G1 X8.939 Y10.859 E31.21912
G1 X9.072 Y10.792 E31.22606
G1 X9.425 Y10.589 E31.24502
G1 X9.656 Y10.422 E31.25829
G1 X9.993 Y10.123 E31.27927
G1 X10.111 Y10.006 E31.28701
G1 X10.397 Y9.684 E31.30706
G1 X10.541 Y9.489 E31.31835
G1 X10.744 Y9.16 E31.33635
G1 X10.814 Y9.033 E31.3431
G1 X10.947 Y8.757 E31.35737
G1 X11.005 Y8.617 E31.36443
G1 X11.147 Y8.217 E31.38419
G1 X11.199 Y8.031 E31.39318
G1 X11.28 Y7.637 E31.41191
G1 X11.297 Y7.535 E31.41673
G1 X11.329 Y7.288 E31.42833
G1 X11.336 Y7.222 E31.43142
G1 X11.366 Y6.854 E31.44861
G1 X11.37 Y6.795 E31.45136
G1 X11.393 Y6.213 E31.47848
G1 X11.394 Y6.159 E31.481
G1 X11.399 Y-8.6 E32.16824
G1 X28.6 Y-8.6 E32.96919
G1 X28.6 Y28.6 E34.70138
G1 X-28.6 Y28.6 E37.36485
G1 X-28.6 Y0.6 E38.66865
G1 X-11.398 Y0.6 E39.46965
G0 F6000 X-11.798 Y1
G1 F1200 X-11.798 Y6.905 E39.74461
G1 X-11.797 Y6.974 E39.74782
G1 X-11.782 Y7.367 E39.76613
G1 X-11.771 Y7.508 E39.77272
G1 X-11.725 Y7.9 E39.7911
G1 X-11.701 Y8.047 E39.79803
G1 X-11.623 Y8.432 E39.81632
G1 X-11.535 Y8.731 E39.83084
G1 X-11.384 Y9.117 E39.85014
G1 X-11.275 Y9.346 E39.86195
G1 X-11.074 Y9.702 E39.88098
G1 X-10.91 Y9.945 E39.89463
G1 X-10.68 Y10.231 E39.91172
G1 X-10.516 Y10.409 E39.92299
G1 X-10.222 Y10.688 E39.94187
G1 X-9.972 Y10.886 E39.95672
G1 X-9.569 Y11.151 E39.97918
G1 X-9.281 Y11.305 E39.99438
G1 X-8.905 Y11.464 E40.01339
G1 X-8.701 Y11.536 E40.02347
G1 X-8.325 Y11.644 E40.04168
G1 X-8.048 Y11.7 E40.05484
G1 X-7.521 Y11.765 E40.07957
G1 X-7.357 Y11.778 E40.08723
G1 X-6.776 Y11.796 E40.11429
G1 X-6.717 Y11.797 E40.11704
G1 X6.563 Y11.777 E40.73541
G1 X6.63 Y11.776 E40.73853
G1 X6.887 Y11.766 E40.75051
G1 X6.971 Y11.76 E40.75443
G1 X7.274 Y11.734 E40.76859
G1 X7.381 Y11.722 E40.77361
G1 X7.79 Y11.662 E40.79285
G1 X8.043 Y11.606 E40.80492
G1 X8.53 Y11.461 E40.82858
G1 X8.743 Y11.383 E40.83914
G1 X9.101 Y11.225 E40.85736
G1 X9.271 Y11.138 E40.86626
G1 X9.624 Y10.935 E40.88522
G1 X9.922 Y10.721 E40.9023
G1 X10.259 Y10.422 E40.92328
G1 X10.41 Y10.271 E40.93322
G1 X10.696 Y9.949 E40.95328
G1 X10.882 Y9.699 E40.96779
G1 X11.085 Y9.37 E40.98579
G1 X11.175 Y9.206 E40.9945
G1 X11.308 Y8.93 E41.00876
G1 X11.382 Y8.751 E41.01778
G1 X11.524 Y8.351 E41.03755
G1 X11.591 Y8.111 E41.04915
G1 X11.672 Y7.717 E41.06788
G1 X11.694 Y7.586 E41.07407
G1 X11.726 Y7.339 E41.08566
G1 X11.735 Y7.254 E41.08964
G1 X11.765 Y6.886 E41.10684
G1 X11.77 Y6.811 E41.11034
G1 X11.793 Y6.229 E41.13746
G1 X11.794 Y6.159 E41.14072
G1 X11.799 Y-8.2 E41.80933
G1 X28.2 Y-8.2 E42.57303
G1 X28.2 Y28.2 E44.26797
G1 X-28.2 Y28.2 E46.89419
G1 X-28.2 Y1 E48.16074
G1 X-11.798 Y1 E48.92448
G0 F6000 X-12.198 Y1.4
G1 F1200 X-12.198 Y6.905 E49.18082
G1 X-12.196 Y6.989 E49.18473
G1 X-12.181 Y7.382 E49.20304
G1 X-12.168 Y7.554 E49.21107
G1 X-12.122 Y7.946 E49.22945
G1 X-12.093 Y8.127 E49.23799
G1 X-12.015 Y8.512 E49.25628
G1 X-11.908 Y8.876 E49.27395
G1 X-11.757 Y9.262 E49.29325
G1 X-11.624 Y9.543 E49.30772
G1 X-11.423 Y9.899 E49.32676
G1 X-11.221 Y10.196 E49.34348
G1 X-10.991 Y10.482 E49.36057
G1 X-10.791 Y10.699 E49.37432
G1 X-10.497 Y10.978 E49.39319
G1 X-10.192 Y11.22 E49.41132
G1 X-9.789 Y11.485 E49.43378
G1 X-9.437 Y11.673 E49.45236
G1 X-9.061 Y11.832 E49.47137
G1 X-8.811 Y11.921 E49.48372
G1 X-8.435 Y12.029 E49.50194
G1 X-8.097 Y12.097 E49.51799
G1 X-7.57 Y12.162 E49.54272
G1 X-7.369 Y12.178 E49.55211
G1 X-6.788 Y12.196 E49.57918
G1 X-6.717 Y12.197 E49.58248
G1 X6.563 Y12.177 E50.20085
G1 X6.646 Y12.175 E50.20472
G1 X6.903 Y12.165 E50.2167
G1 X7.005 Y12.159 E50.22145
G1 X7.308 Y12.133 E50.23562
G1 X7.439 Y12.118 E50.24176
G1 X7.848 Y12.058 E50.261
G1 X8.157 Y11.99 E50.27574
G1 X8.644 Y11.845 E50.2994
G1 X8.904 Y11.749 E50.3123
G1 X9.262 Y11.591 E50.33052
G1 X9.471 Y11.485 E50.34144
G1 X9.824 Y11.282 E50.3604
G1 X10.187 Y11.021 E50.38122
G1 X10.524 Y10.722 E50.40219
G1 X10.709 Y10.537 E50.41438
G1 X10.995 Y10.215 E50.43443
G1 X11.222 Y9.909 E50.45217
G1 X11.425 Y9.58 E50.47017
G1 X11.535 Y9.38 E50.4808
G1 X11.668 Y9.104 E50.49507
G1 X11.759 Y8.885 E50.50611
G1 X11.901 Y8.485 E50.52587
G1 X11.983 Y8.192 E50.54004
G1 X12.064 Y7.798 E50.55877
G1 X12.091 Y7.638 E50.56633
G1 X12.123 Y7.391 E50.57793
G1 X12.134 Y7.287 E50.58279
G1 X12.164 Y6.919 E50.59999
G1 X12.169 Y6.827 E50.60428
G1 X12.192 Y6.245 E50.6314
G1 X12.194 Y6.159 E50.6354
G1 X12.199 Y-7.8 E51.28539
G1 X27.8 Y-7.8 E52.01184
G1 X27.8 Y27.8 E53.66953
G1 X-27.8 Y27.8 E56.2585
G1 X-27.8 Y1.4 E57.48779
G1 X-12.198 Y1.4 E58.21429
G0 F6000 X-12.598 Y1.8
G1 F1200 X-12.598 Y6.905 E58.452
G1 X-12.596 Y7.004 E58.45661
G1 X-12.581 Y7.397 E58.47492
G1 X-12.565 Y7.601 E58.48445
G1 X-12.519 Y7.993 E58.50283
G1 X-12.485 Y8.206 E58.51287
G1 X-12.407 Y8.591 E58.53116
G1 X-12.28 Y9.022 E58.55208
G1 X-12.129 Y9.408 E58.57138
G1 X-11.972 Y9.739 E58.58844
G1 X-11.771 Y10.095 E58.60748
G1 X-11.533 Y10.446 E58.62723
G1 X-11.303 Y10.732 E58.64432
G1 X-11.067 Y10.989 E58.66056
G1 X-10.773 Y11.268 E58.67944
G1 X-10.412 Y11.554 E58.70088
G1 X-10.009 Y11.819 E58.72334
G1 X-9.593 Y12.042 E58.74532
G1 X-9.217 Y12.201 E58.76433
G1 X-8.922 Y12.305 E58.77889
G1 X-8.546 Y12.413 E58.79711
G1 X-8.146 Y12.494 E58.81611
G1 X-7.619 Y12.559 E58.84084
G1 X-7.382 Y12.578 E58.85191
G1 X-6.801 Y12.596 E58.87898
G1 X-6.716 Y12.597 E58.88293
G1 X6.564 Y12.577 E59.50131
G1 X6.661 Y12.575 E59.50582
G1 X6.918 Y12.565 E59.5178
G1 X7.039 Y12.557 E59.52345
G1 X7.342 Y12.531 E59.53761
G1 X7.497 Y12.513 E59.54487
G1 X7.906 Y12.453 E59.56412
G1 X8.271 Y12.373 E59.58152
G1 X8.758 Y12.228 E59.60518
G1 X9.066 Y12.115 E59.62046
G1 X9.424 Y11.957 E59.63868
G1 X9.67 Y11.832 E59.65153
G1 X10.023 Y11.629 E59.67049
G1 X10.453 Y11.32 E59.69515
G1 X10.79 Y11.021 E59.71612
G1 X11.008 Y10.803 E59.73048
G1 X11.294 Y10.481 E59.75053
G1 X11.563 Y10.119 E59.77154
G1 X11.766 Y9.79 E59.78954
G1 X11.895 Y9.554 E59.80206
G1 X12.028 Y9.278 E59.81633
G1 X12.136 Y9.019 E59.82939
G1 X12.278 Y8.619 E59.84916
G1 X12.375 Y8.273 E59.86589
G1 X12.456 Y7.879 E59.88462
G1 X12.487 Y7.689 E59.89358
G1 X12.519 Y7.442 E59.90518
G1 X12.532 Y7.319 E59.91094
G1 X12.562 Y6.951 E59.92813
G1 X12.569 Y6.843 E59.93317
G1 X12.592 Y6.261 E59.96029
G1 X12.594 Y6.159 E59.96504
G1 X12.599 Y-7.4 E60.59641
G1 X27.4 Y-7.4 E61.2856
G1 X27.4 Y27.4 E62.90604
G1 X-27.4 Y27.4 E65.45776
G1 X-27.4 Y1.8 E66.6498
G1 X-12.598 Y1.8 E67.33904
G0 F6000 X-12.998 Y2.2
G1 F1200 X-12.998 Y6.905 E67.55813
G1 X-12.996 Y7.019 E67.56344
G1 X-12.981 Y7.412 E67.58175
G1 X-12.963 Y7.648 E67.59277
G1 X-12.917 Y8.04 E67.61115
G1 X-12.877 Y8.286 E67.62275
G1 X-12.799 Y8.671 E67.64105
G1 X-12.653 Y9.168 E67.66517
G1 X-12.502 Y9.554 E67.68447
G1 X-12.32 Y9.936 E67.70417
G1 X-12.119 Y10.292 E67.72321
G1 X-11.845 Y10.697 E67.74597
G1 X-11.615 Y10.983 E67.76306
G1 X-11.342 Y11.279 E67.78181
G1 X-11.048 Y11.558 E67.80069
G1 X-10.631 Y11.889 E67.82548
G1 X-10.228 Y12.154 E67.84794
G1 X-9.748 Y12.41 E67.87327
G1 X-9.372 Y12.569 E67.89228
G1 X-9.032 Y12.689 E67.90907
G1 X-8.656 Y12.797 E67.92728
G1 X-8.195 Y12.891 E67.94919
G1 X-7.668 Y12.956 E67.97391
G1 X-7.394 Y12.978 E67.98671
G1 X-6.813 Y12.996 E68.01378
G1 X-6.715 Y12.997 E68.01834
G1 X6.565 Y12.977 E68.63672
G1 X6.677 Y12.975 E68.64193
G1 X6.934 Y12.965 E68.65391
G1 X7.073 Y12.956 E68.6604
G1 X7.376 Y12.93 E68.67456
G1 X7.555 Y12.909 E68.68295
G1 X7.964 Y12.849 E68.7022
G1 X8.385 Y12.756 E68.72227
G1 X8.872 Y12.611 E68.74593
G1 X9.227 Y12.481 E68.76354
G1 X9.585 Y12.323 E68.78176
G1 X9.87 Y12.179 E68.79663
G1 X10.223 Y11.976 E68.81559
G1 X10.718 Y11.619 E68.84401
G1 X11.055 Y11.32 E68.86499
G1 X11.307 Y11.068 E68.88158
G1 X11.593 Y10.746 E68.90163
G1 X11.903 Y10.329 E68.92583
G1 X12.106 Y10 E68.94383
G1 X12.256 Y9.727 E68.95834
G1 X12.389 Y9.451 E68.9726
G1 X12.513 Y9.153 E68.98763
G1 X12.655 Y8.753 E69.0074
G1 X12.767 Y8.353 E69.02674
G1 X12.848 Y7.959 E69.04547
G1 X12.884 Y7.74 E69.0558
G1 X12.916 Y7.493 E69.0674
G1 X12.931 Y7.352 E69.074
G1 X12.961 Y6.984 E69.09119
G1 X12.969 Y6.858 E69.09707
G1 X12.992 Y6.276 E69.12419
G1 X12.994 Y6.159 E69.12964
G1 X12.999 Y-7 E69.74238
G1 X27 Y-7 E70.39433
G1 X27 Y27 E71.97751
G1 X-27 Y27 E74.49198
G1 X-27 Y2.2 E75.64677
G1 X-12.998 Y2.2 E76.29876
G0 F6000 X-13.398 Y2.6
G1 F1200 X-13.398 Y6.905 E76.49922
G1 X-13.396 Y7.035 E76.50527
G1 X-13.381 Y7.428 E76.52358
G1 X-13.36 Y7.694 E76.53601
G1 X-13.314 Y8.086 E76.55439
G1 X-13.269 Y8.365 E76.56755
G1 X-13.191 Y8.75 E76.58584
G1 X-13.025 Y9.314 E76.61321
G1 X-12.874 Y9.7 E76.63251
G1 X-12.669 Y10.133 E76.65482
G1 X-12.468 Y10.489 E76.67386
G1 X-12.157 Y10.948 E76.69968
G1 X-11.927 Y11.234 E76.71677
G1 X-11.617 Y11.569 E76.73802
G1 X-11.323 Y11.848 E76.75689
G1 X-10.851 Y12.223 E76.78496
G1 X-10.448 Y12.488 E76.80742
G1 X-9.904 Y12.779 E76.83615
G1 X-9.528 Y12.938 E76.85516
G1 X-9.143 Y13.074 E76.87417
G1 X-8.767 Y13.182 E76.89239
G1 X-8.244 Y13.288 E76.91723
G1 X-7.717 Y13.353 E76.94196
G1 X-7.406 Y13.377 E76.95648
G1 X-6.825 Y13.395 E76.98355
G1 X-6.715 Y13.397 E76.98867
G1 X6.565 Y13.377 E77.60705
G1 X6.692 Y13.374 E77.61296
G1 X6.949 Y13.364 E77.62494
G1 X7.108 Y13.355 E77.63235
G1 X7.411 Y13.329 E77.64652
G1 X7.613 Y13.305 E77.65599
G1 X8.022 Y13.245 E77.67524
G1 X8.499 Y13.14 E77.69798
G1 X8.986 Y12.995 E77.72164
G1 X9.389 Y12.847 E77.74163
G1 X9.747 Y12.689 E77.75985
G1 X10.069 Y12.525 E77.77668
G1 X10.422 Y12.322 E77.79564
G1 X10.983 Y11.918 E77.82783
G1 X11.32 Y11.619 E77.84881
G1 X11.606 Y11.334 E77.86761
