;FLAVOR:Marlin
;TIME:78100
;Filament used: 89.1864m
;Layer height: 0.28
;MINX:-80.665
;MINY:-80.665
;MINZ:0.28
;MAXX:80.665
;MAXY:80.665
;MAXZ:50.12
;Generated with Cura_SteamEngine 5.3.1
M104 S210
M105
M109 S210
M82 ;absolute extrusion mode
; Ender 3 Custom Start G-code
G92 E0 ; Reset Extruder
G92 E0
G92 E0
G1 F2700 E-5
;LAYER_COUNT:179
;LAYER:0
M107
G0 F6000 X55.4 Y76.2 Z0.28
;TYPE:SKIRT
G1 F2700 E0
G1 F1200 X-55.4 Y76.2 E5.15931
G1 X-55.4 Y-76.2 E12.25569
G1 X55.4 Y-76.2 E17.41501
G1 X55.4 Y76.2 E24.51139
G0 F6000 X55.8 Y76.6
G1 F1200 X-55.8 Y76.6 E29.70795
G1 X-55.8 Y-76.6 E36.84159
G1 X55.8 Y-76.6 E42.03815
G1 X55.8 Y76.6 E49.17178
G0 F6000 X56.2 Y77
G1 F1200 X-56.2 Y77 E54.4056
G1 X-56.2 Y-77 E61.57648
G1 X56.2 Y-77 E66.8103
G1 X56.2 Y77 E73.98118
G0 F6000 X56.6 Y77.4
G1 F1200 X-56.6 Y77.4 E79.25225
G1 X-56.6 Y-77.4 E86.46039
G1 X56.6 Y-77.4 E91.73145
G1 X56.6 Y77.4 E98.93959
G0 F6000 X57 Y77.8
G1 F1200 X-57 Y77.8 E104.24791
G1 X-57 Y-77.8 E111.49329
G1 X57 Y-77.8 E116.80161
G1 X57 Y77.8 E124.047
G0 F6000 X57.4 Y78.2
G1 F1200 X-57.4 Y78.2 E129.39257
G1 X-57.4 Y-78.2 E136.67521
G1 X57.4 Y-78.2 E142.02078
G1 X57.4 Y78.2 E149.30342
G0 F6000 X57.8 Y78.6
G1 F1200 X-57.8 Y78.6 E154.68624
G1 X-57.8 Y-78.6 E162.00613
G1 X57.8 Y-78.6 E167.38895
G1 X57.8 Y78.6 E174.70884
G0 F6000 X58.2 Y79
G1 F1200 X-58.2 Y79 E180.12891
G1 X-58.2 Y-79 E187.48605
G1 X58.2 Y-79 E192.90612
G1 X58.2 Y79 E200.26326
G0 F6000 X58.6 Y79.4
G1 F1200 X-58.6 Y79.4 E205.72059
G1 X-58.6 Y-79.4 E213.11498
G1 X58.6 Y-79.4 E218.5723
G1 X58.6 Y79.4 E225.9667
G0 F6000 X59 Y79.8
G1 F1200 X-59 Y79.8 E231.46127
G1 X-59 Y-79.8 E238.89292
G1 X59 Y-79.8 E244.38749
G1 X59 Y79.8 E251.81913
G1 F2700 E246.81913
G0 F6000 X59.347 Y80.653
G0 X80.653 Y80.653
G0 X80.665 Y-33
G0 X80.2 Y-33
G1 F2700 E251.81913
G1 F1200 X80.2 Y79.267 E257.04676
G1 X80.19 Y79.994 E257.08061
G1 X80.149 Y80.112 E257.08643
G1 X79.996 Y80.191 E257.09445
G1 X79.676 Y80.2 E257.10935
G1 X-79.296 Y80.2 E264.51176
G1 X-79.994 Y80.19 E264.54426
G1 X-80.112 Y80.149 E264.55008
G1 X-80.191 Y79.995 E264.55814
G1 X-80.2 Y79.663 E264.5736
G1 X-80.2 Y-79.329 E271.97693
G1 X-80.19 Y-79.994 E272.0079
G1 X-80.149 Y-80.112 E272.01372
G1 X-79.996 Y-80.191 E272.02174
G1 X-79.676 Y-80.2 E272.03664
G1 X79.296 Y-80.2 E279.43905
G1 X79.994 Y-80.19 E279.47155
G1 X80.112 Y-80.149 E279.47737
G1 X80.191 Y-79.996 E279.48539
G1 X80.2 Y-79.676 E279.50029
G1 X80.2 Y-42.5 E281.23136
G1 F2700 E276.23136
G0 F6000 X80.665 Y-42.5
G0 X80.653 Y-80.653
G0 X59.347 Y-80.653
G0 X55.865 Y-75.8
G0 X55 Y-75.8
;TYPE:SUPPORT
G1 F2700 E281.23136
G1 F1200 X55 Y75.8 E288.29049
G1 X-55 Y75.8 E293.41256
G1 X-55 Y-75.8 E300.47169
G1 X55 Y-75.8 E305.59375
G1 F2700 E300.59375
G0 F6000 X54.919 Y-73.276
G1 F2700 E305.59375
G1 F1200 X-54.919 Y-9.861 E311.49948
G1 F2700 E306.49948
G0 F6000 X-55.865 Y-9.861
G0 X-55.865 Y-3.995
G0 X-54.92 Y-3.995
G1 F2700 E311.49948
G1 F1200 X54.92 Y59.421 E317.40532
G1 F2700 E312.40532
G0 F6000 X55.865 Y59.421
G0 X55.865 Y65.287
G0 X54.919 Y65.287
G1 F2700 E317.40532
G1 F1200 X36.848 Y75.72 E318.37695
G0 F6000 X36 Y75.72
G1 F1200 X36 Y-75.72 E325.42863
G0 F6000 X36.849 Y-75.719
G1 F1200 X54.92 Y-65.286 E326.40026
G1 F2700 E321.40026
G0 F6000 X55.865 Y-65.286
G0 X55.865 Y-59.42
G0 X54.919 Y-59.42
G1 F2700 E326.40026
G1 F1200 X-54.919 Y3.994 E332.30598
G1 F2700 E327.30598
G0 F6000 X-55.865 Y3.994
G0 X-55.865 Y9.86
G0 X-54.92 Y9.86
G1 F2700 E332.30598
G1 F1200 X54.92 Y73.277 E338.21184
G1 F2700 E333.21184
G0 F6000 X55.865 Y73.277
G0 X55.853 Y76.653
G0 X48 Y76.665
G0 X48 Y75.72
G1 F2700 E338.21184
G1 F1200 X48 Y-75.72 E345.26352
G1 F2700 E340.26352
G0 F6000 X48 Y-76.665
G0 X35.15 Y-76.665
G0 X35.15 Y-75.719
G1 F2700 E345.26352
G1 F1200 X-54.919 Y-23.717 E350.10634
G1 F2700 E345.10634
G0 F6000 X-55.865 Y-23.717
G0 X-55.865 Y-17.851
G0 X-54.92 Y-17.851
G1 F2700 E350.10634
G1 F1200 X54.92 Y45.564 E356.01215
G1 F2700 E351.01215
G0 F6000 X55.865 Y45.564
G0 X55.865 Y51.43
G0 X54.919 Y51.43
G1 F2700 E356.01215
G1 F1200 X12.849 Y75.719 E358.27416
G0 F6000 X12 Y75.72
G1 F1200 X12 Y-75.72 E365.32584
G0 F6000 X11.15 Y-75.72
G1 F1200 X-54.919 Y-37.574 E368.87824
G1 F2700 E363.87824
G0 F6000 X-55.865 Y-37.574
G0 X-55.865 Y-31.708
G0 X-54.92 Y-31.708
G1 F2700 E368.87824
G1 F1200 X54.92 Y31.708 E374.78408
G1 F2700 E369.78408
G0 F6000 X55.865 Y31.708
G0 X55.865 Y37.574
G0 X54.919 Y37.574
G1 F2700 E374.78408
G1 F1200 X-11.15 Y75.72 E378.33648
G0 F6000 X-12 Y75.72
G1 F1200 X-12 Y-75.72 E385.38816
G0 F6000 X-12.849 Y-75.719
G1 F1200 X-54.919 Y-51.43 E387.65017
G1 F2700 E382.65017
G0 F6000 X-55.865 Y-51.43
G0 X-55.865 Y-45.564
G0 X-54.92 Y-45.564
G1 F2700 E387.65017
G1 F1200 X54.92 Y17.851 E393.55598
G1 F2700 E388.55598
G0 F6000 X55.865 Y17.851
G0 X55.865 Y23.717
G0 X54.919 Y23.717
G1 F2700 E393.55598
G1 F1200 X-35.15 Y75.719 E398.3988
G0 F6000 X-36 Y75.72
G1 F1200 X-36 Y-75.72 E405.45048
G0 F6000 X-36.848 Y-75.72
G1 F1200 X-54.919 Y-65.287 E406.42211
G1 F2700 E401.42211
G0 F6000 X-55.865 Y-65.287
G0 X-55.865 Y-59.421
G0 X-54.92 Y-59.421
G1 F2700 E406.42211
G1 F1200 X54.92 Y3.995 E412.32795
G1 F2700 E407.32795
G0 F6000 X55.865 Y3.995
G0 X55.865 Y9.861
G0 X54.919 Y9.861
G1 F2700 E412.32795
G1 F1200 X-54.919 Y73.276 E418.23369
G1 F2700 E413.23369
G0 F6000 X-55.865 Y73.276
G0 X-55.853 Y76.653
G0 X-48 Y76.665
G0 X-48 Y75.72
G1 F2700 E418.23369
G1 F1200 X-48 Y-75.72 E425.28537
G1 F2700 E420.28537
G0 F6000 X-48 Y-76.665
G0 X-55.853 Y-76.653
G0 X-55.865 Y-73.277
G0 X-54.92 Y-73.277
G1 F2700 E425.28537
G1 F1200 X54.92 Y-9.86 E431.19123
G1 F2700 E426.19123
G0 F6000 X55.865 Y-9.86
G0 X55.865 Y-3.994
G0 X54.919 Y-3.994
G1 F2700 E431.19123
G1 F1200 X-54.919 Y59.42 E437.09694
G1 F2700 E432.09694
G0 F6000 X-55.865 Y59.42
G0 X-55.865 Y65.286
G0 X-54.92 Y65.286
G1 F2700 E437.09694
G1 F1200 X-36.849 Y75.719 E438.06857
G1 F2700 E433.06857
G0 F6000 X-36.849 Y76.665
G0 X-24 Y76.665
G0 X-24 Y75.72
G1 F2700 E438.06857
G1 F1200 X-24 Y-75.72 E445.12025
G1 F2700 E440.12025
G0 F6000 X-24 Y-76.665
G0 X-35.149 Y-76.665
G0 X-35.149 Y-75.719
G1 F2700 E445.12025
G1 F1200 X54.92 Y-23.717 E449.96307
G1 F2700 E444.96307
G0 F6000 X55.865 Y-23.717
G0 X55.865 Y-17.851
G0 X54.919 Y-17.851
G1 F2700 E449.96307
G1 F1200 X-54.919 Y45.564 E455.86881
G1 F2700 E450.86881
G0 F6000 X-55.865 Y45.564
G0 X-55.865 Y51.43
G0 X-54.92 Y51.43
G1 F2700 E455.86881
G1 F1200 X-12.85 Y75.719 E458.13081
G1 F2700 E453.13081
G0 F6000 X-12.85 Y76.665
G0 X0.00 Y76.665
G0 X0.00 Y75.72
G1 F2700 E458.13081
G1 F1200 X0.00 Y-75.72 E465.18249
G1 F2700 E460.18249
G0 F6000 X0.00 Y-76.665
G0 X-11.15 Y-76.665
G0 X-11.15 Y-75.719
G1 F2700 E465.18249
G1 F1200 X54.919 Y-37.574 E468.73487
G1 F2700 E463.73487
G0 F6000 X55.865 Y-37.574
G0 X55.865 Y-31.707
G0 X54.919 Y-31.707
G1 F2700 E468.73487
G1 F1200 X-54.919 Y31.707 E474.64058
G1 F2700 E469.64058
G0 F6000 X-55.865 Y31.707
G0 X-55.865 Y37.574
G0 X-54.919 Y37.574
G1 F2700 E474.64058
G1 F1200 X11.15 Y75.719 E478.19296
G1 F2700 E473.19296
G0 F6000 X11.15 Y76.665
G0 X24 Y76.665
G0 X24 Y75.72
G1 F2700 E478.19296
G1 F1200 X24 Y-75.72 E485.24464
G1 F2700 E480.24464
G0 F6000 X24 Y-76.665
G0 X12.85 Y-76.665
G0 X12.85 Y-75.719
G1 F2700 E485.24464
G1 F1200 X54.92 Y-51.43 E487.50665
G1 F2700 E482.50665
G0 F6000 X55.865 Y-51.43
G0 X55.865 Y-45.564
G0 X54.919 Y-45.564
G1 F2700 E487.50665
G1 F1200 X-54.919 Y17.851 E493.41238
G1 F2700 E488.41238
G0 F6000 X-55.865 Y17.851
G0 X-55.865 Y23.717
G0 X-54.92 Y23.717
G1 F2700 E493.41238
G1 F1200 X35.149 Y75.719 E498.2552
G1 F2700 E493.2552
;MESH:bridge_rect_final_10.stl
G0 F6000 X35.149 Y76.665
G0 X55.853 Y76.653
G0 X59.335 Y75.719
G0 X60.6 Y79.4
;TYPE:WALL-INNER
G1 F2700 E498.2552
G1 F1200 X79.4 Y79.4 E499.13061
G1 X79.4 Y-79.4 E506.525
G1 X60.6 Y-79.4 E507.40041
G1 X60.6 Y79.4 E514.7948
G0 F6000 X60.2 Y79.8
;TYPE:WALL-OUTER
G1 F1200 X79.8 Y79.8 E515.70746
G1 X79.8 Y-79.8 E523.1391
G1 X60.2 Y-79.8 E524.05176
G1 X60.2 Y79.8 E531.48341
G0 F6000 X60.47 Y79.53
G0 X60.7 Y79.04
G0 X60.96 Y79.04
;TYPE:SKIN
G1 F1200 X60.96 Y-79.04 E538.84427
G1 X79.04 Y-79.04 E539.68615
G1 X79.04 Y79.04 E547.04702
G1 X60.96 Y79.04 E547.8889
G0 F6000 X61.159 Y78.696
G1 F1200 X61.302 Y78.838 E547.89828
G0 F6000 X61.868 Y78.838
G1 F1200 X61.159 Y78.13 E547.94494
G0 F6000 X61.159 Y77.564
G1 F1200 X62.433 Y78.838 E548.02884
G0 F6000 X62.999 Y78.838
G1 F1200 X61.159 Y76.998 E548.15
G0 F6000 X61.159 Y76.433
G1 F1200 X63.565 Y78.838 E548.30841
G0 F6000 X64.131 Y78.838
G1 F1200 X61.159 Y75.867 E548.50409
G0 F6000 X61.159 Y75.301
G1 F1200 X64.696 Y78.838 E548.737
G0 F6000 X65.262 Y78.838
G1 F1200 X61.159 Y74.736 E549.00716
G0 F6000 X61.159 Y74.17
G1 F1200 X65.828 Y78.838 E549.31459
G0 F6000 X66.393 Y78.838
G1 F1200 X61.159 Y73.604 E549.65926
G0 F6000 X61.159 Y73.039
G1 F1200 X66.959 Y78.838 E550.04116
G0 F6000 X67.525 Y78.838
G1 F1200 X61.159 Y72.473 E550.46034
G0 F6000 X61.159 Y71.907
G1 F1200 X68.09 Y78.838 E550.91676
G0 F6000 X68.656 Y78.838
G1 F1200 X61.159 Y71.342 E551.41042
G0 F6000 X61.159 Y70.776
G1 F1200 X69.222 Y78.838 E551.94135
G0 F6000 X69.787 Y78.838
G1 F1200 X61.159 Y70.21 E552.50952
G0 F6000 X61.159 Y69.645
G1 F1200 X70.353 Y78.838 E553.11492
G0 F6000 X70.919 Y78.838
G1 F1200 X61.159 Y69.079 E553.7576
G0 F6000 X61.159 Y68.513
G1 F1200 X71.484 Y78.838 E554.43752
G0 F6000 X72.05 Y78.838
G1 F1200 X61.159 Y67.948 E555.15468
G0 F6000 X61.159 Y67.382
G1 F1200 X72.616 Y78.838 E555.90911
G0 F6000 X73.182 Y78.838
G1 F1200 X61.159 Y66.816 E556.70081
G0 F6000 X61.159 Y66.25
G1 F1200 X73.747 Y78.838 E557.52976
G0 F6000 X74.313 Y78.838
G1 F1200 X61.159 Y65.685 E558.39594
G0 F6000 X61.159 Y65.119
G1 F1200 X74.879 Y78.838 E559.29939
G0 F6000 X75.444 Y78.838
G1 F1200 X61.159 Y64.553 E560.24008
G0 F6000 X61.159 Y63.988
G1 F1200 X76.01 Y78.838 E561.21801
G0 F6000 X76.576 Y78.838
G1 F1200 X61.159 Y63.422 E562.23321
G0 F6000 X61.159 Y62.856
G1 F1200 X77.141 Y78.838 E563.28566
G0 F6000 X77.707 Y78.838
G1 F1200 X61.159 Y62.291 E564.37534
G0 F6000 X61.159 Y61.725
G1 F1200 X78.273 Y78.838 E565.50229
G0 F6000 X78.839 Y78.839
G1 F1200 X61.159 Y61.159 E566.66655
G0 F6000 X61.159 Y60.594
G1 F1200 X78.839 Y78.273 E567.83077
G0 F6000 X78.839 Y77.708
G1 F1200 X61.159 Y60.028 E568.99503
G0 F6000 X61.159 Y59.462
G1 F1200 X78.839 Y77.142 E570.15929
G0 F6000 X78.839 Y76.576
G1 F1200 X61.159 Y58.897 E571.32351
G0 F6000 X61.159 Y58.331
G1 F1200 X78.839 Y76.011 E572.48777
G0 F6000 X78.839 Y75.445
G1 F1200 X61.159 Y57.765 E573.65203
G0 F6000 X61.159 Y57.199
G1 F1200 X78.839 Y74.879 E574.81629
G0 F6000 X78.839 Y74.314
G1 F1200 X61.159 Y56.634 E575.98055
G0 F6000 X61.159 Y56.068
G1 F1200 X78.839 Y73.748 E577.14481
G0 F6000 X78.839 Y73.182
G1 F1200 X61.159 Y55.502 E578.30906
G0 F6000 X61.159 Y54.937
G1 F1200 X78.839 Y72.617 E579.47332
G0 F6000 X78.839 Y72.051
G1 F1200 X61.159 Y54.371 E580.63758
G0 F6000 X61.159 Y53.805
G1 F1200 X78.839 Y71.485 E581.80184
G0 F6000 X78.839 Y70.919
G1 F1200 X61.159 Y53.24 E582.96606
G0 F6000 X61.159 Y52.674
G1 F1200 X78.839 Y70.354 E584.13032
G0 F6000 X78.839 Y69.788
G1 F1200 X61.159 Y52.108 E585.29458
G0 F6000 X61.159 Y51.543
G1 F1200 X78.839 Y69.222 E586.45881
G0 F6000 X78.839 Y68.657
G1 F1200 X61.159 Y50.977 E587.62306
G0 F6000 X61.159 Y50.411
G1 F1200 X78.839 Y68.091 E588.78732
G0 F6000 X78.839 Y67.525
G1 F1200 X61.159 Y49.846 E589.95155
G0 F6000 X61.159 Y49.28
G1 F1200 X78.839 Y66.96 E591.11581
G0 F6000 X78.839 Y66.394
G1 F1200 X61.159 Y48.714 E592.28006
G0 F6000 X61.159 Y48.149
G1 F1200 X78.839 Y65.828 E593.44429
G0 F6000 X78.839 Y65.263
G1 F1200 X61.159 Y47.583 E594.60855
G0 F6000 X61.159 Y47.017
G1 F1200 X78.839 Y64.697 E595.77281
G0 F6000 X78.839 Y64.131
G1 F1200 X61.159 Y46.451 E596.93706
G0 F6000 X61.159 Y45.886
G1 F1200 X78.839 Y63.566 E598.10132
G0 F6000 X78.839 Y63
G1 F1200 X61.159 Y45.32 E599.26558
G0 F6000 X61.159 Y44.754
G1 F1200 X78.839 Y62.434 E600.42984
G0 F6000 X78.839 Y61.869
G1 F1200 X61.159 Y44.189 E601.5941
G0 F6000 X61.159 Y43.623
G1 F1200 X78.839 Y61.303 E602.75835
G0 F6000 X78.839 Y60.737
G1 F1200 X61.159 Y43.057 E603.92261
G0 F6000 X61.159 Y42.492
G1 F1200 X78.839 Y60.171 E605.08684
G0 F6000 X78.839 Y59.606
G1 F1200 X61.159 Y41.926 E606.2511
G0 F6000 X61.159 Y41.36
G1 F1200 X78.839 Y59.04 E607.41535
G0 F6000 X78.839 Y58.474
G1 F1200 X61.159 Y40.795 E608.57958
G0 F6000 X61.159 Y40.229
G1 F1200 X78.839 Y57.909 E609.74384
G0 F6000 X78.839 Y57.343
G1 F1200 X61.159 Y39.663 E610.9081
G0 F6000 X61.159 Y39.098
G1 F1200 X78.839 Y56.777 E612.07232
G0 F6000 X78.839 Y56.212
G1 F1200 X61.159 Y38.532 E613.23658
G0 F6000 X61.159 Y37.966
G1 F1200 X78.839 Y55.646 E614.40084
G0 F6000 X78.839 Y55.08
G1 F1200 X61.159 Y37.4 E615.5651
G0 F6000 X61.159 Y36.835
G1 F1200 X78.839 Y54.515 E616.72935
G0 F6000 X78.839 Y53.949
G1 F1200 X61.159 Y36.269 E617.89361
G0 F6000 X61.159 Y35.703
G1 F1200 X78.839 Y53.383 E619.05787
G0 F6000 X78.839 Y52.818
G1 F1200 X61.159 Y35.138 E620.22213
G0 F6000 X61.159 Y34.572
G1 F1200 X78.839 Y52.252 E621.38639
G0 F6000 X78.839 Y51.686
G1 F1200 X61.159 Y34.006 E622.55064
G0 F6000 X61.159 Y33.441
G1 F1200 X78.839 Y51.12 E623.71487
G0 F6000 X78.839 Y50.555
G1 F1200 X61.159 Y32.875 E624.87913
G0 F6000 X61.159 Y32.309
G1 F1200 X78.839 Y49.989 E626.04339
G0 F6000 X78.839 Y49.423
G1 F1200 X61.159 Y31.744 E627.20761
G0 F6000 X61.159 Y31.178
G1 F1200 X78.839 Y48.858 E628.37187
G0 F6000 X78.839 Y48.292
G1 F1200 X61.159 Y30.612 E629.53613
G0 F6000 X61.159 Y30.047
G1 F1200 X78.839 Y47.726 E630.70035
G0 F6000 X78.839 Y47.161
G1 F1200 X61.159 Y29.481 E631.86461
G0 F6000 X61.159 Y28.915
G1 F1200 X78.839 Y46.595 E633.02887
G0 F6000 X78.839 Y46.029
G1 F1200 X61.159 Y28.35 E634.19309
G0 F6000 X61.159 Y27.784
G1 F1200 X78.839 Y45.464 E635.35735
G0 F6000 X78.839 Y44.898
G1 F1200 X61.159 Y27.218 E636.52161
G0 F6000 X61.159 Y26.652
G1 F1200 X78.839 Y44.332 E637.68587
G0 F6000 X78.839 Y43.767
G1 F1200 X61.159 Y26.087 E638.85013
G0 F6000 X61.159 Y25.521
G1 F1200 X78.839 Y43.201 E640.01439
G0 F6000 X78.839 Y42.635
G1 F1200 X61.159 Y24.955 E641.17864
G0 F6000 X61.159 Y24.39
G1 F1200 X78.839 Y42.07 E642.3429
G0 F6000 X78.839 Y41.504
G1 F1200 X61.159 Y23.824 E643.50716
G0 F6000 X61.159 Y23.258
G1 F1200 X78.839 Y40.938 E644.67142
G0 F6000 X78.839 Y40.372
G1 F1200 X61.159 Y22.693 E645.83564
G0 F6000 X61.159 Y22.127
G1 F1200 X78.839 Y39.807 E646.9999
G0 F6000 X78.839 Y39.241
G1 F1200 X61.159 Y21.561 E648.16416
G0 F6000 X61.159 Y20.996
G1 F1200 X78.839 Y38.675 E649.32839
G0 F6000 X78.839 Y38.11
G1 F1200 X61.159 Y20.43 E650.49264
G0 F6000 X61.159 Y19.864
G1 F1200 X78.839 Y37.544 E651.6569
G0 F6000 X78.839 Y36.978
G1 F1200 X61.159 Y19.299 E652.82113
G0 F6000 X61.159 Y18.733
G1 F1200 X78.839 Y36.413 E653.98539
G0 F6000 X78.839 Y35.847
G1 F1200 X61.159 Y18.167 E655.14964
G0 F6000 X61.159 Y17.602
G1 F1200 X78.839 Y35.281 E656.31387
G0 F6000 X78.839 Y34.716
G1 F1200 X61.159 Y17.036 E657.47813
G0 F6000 X61.159 Y16.47
G1 F1200 X78.839 Y34.15 E658.64239
G0 F6000 X78.839 Y33.584
G1 F1200 X61.159 Y15.904 E659.80664
G0 F6000 X61.159 Y15.339
G1 F1200 X78.839 Y33.019 E660.9709
G0 F6000 X78.839 Y32.453
G1 F1200 X61.159 Y14.773 E662.13516
G0 F6000 X61.159 Y14.207
G1 F1200 X78.839 Y31.887 E663.29942
G0 F6000 X78.839 Y31.322
G1 F1200 X61.159 Y13.642 E664.46368
G0 F6000 X61.159 Y13.076
G1 F1200 X78.839 Y30.756 E665.62793
G0 F6000 X78.839 Y30.19
G1 F1200 X61.159 Y12.51 E666.79219
G0 F6000 X61.159 Y11.945
G1 F1200 X78.839 Y29.624 E667.95642
G0 F6000 X78.839 Y29.059
G1 F1200 X61.159 Y11.379 E669.12068
G0 F6000 X61.159 Y10.813
G1 F1200 X78.839 Y28.493 E670.28493
G0 F6000 X78.839 Y27.927
G1 F1200 X61.159 Y10.248 E671.44916
G0 F6000 X61.159 Y9.682
G1 F1200 X78.839 Y27.362 E672.61342
G0 F6000 X78.839 Y26.796
G1 F1200 X61.159 Y9.116 E673.77768
G0 F6000 X61.159 Y8.551
G1 F1200 X78.839 Y26.23 E674.9419
G0 F6000 X78.839 Y25.665
G1 F1200 X61.159 Y7.985 E676.10616
G0 F6000 X61.159 Y7.419
G1 F1200 X78.839 Y25.099 E677.27042
G0 F6000 X78.839 Y24.533
G1 F1200 X61.159 Y6.853 E678.43468
G0 F6000 X61.159 Y6.288
G1 F1200 X78.839 Y23.968 E679.59893
G0 F6000 X78.839 Y23.402
G1 F1200 X61.159 Y5.722 E680.76319
G0 F6000 X61.159 Y5.156
G1 F1200 X78.839 Y22.836 E681.92745
