;FLAVOR:Marlin
;TIME:8729
;Filament used: 7.98465m
;Layer height: 0.28
;MINX:-30.665
;MINY:-30.665
;MINZ:0.28
;MAXX:30.665
;MAXY:30.665
;MAXZ:40.04
;Generated with Cura_SteamEngine 5.3.1
M104 S210
M105
M109 S210
M82 ;absolute extrusion mode
; Ender 3 Custom Start G-code
G92 E0 ; Reset Extruder
G92 E0
G92 E0
G1 F2700 E-5
;LAYER_COUNT:143
;LAYER:0
M107
G0 F6000 X-10.2 Y-.6 Z0.28
;TYPE:SKIRT
G1 F2700 E0
G1 F1200 X-10.196 Y6.829 E0.34593
G1 X-10.196 Y6.837 E0.3463
G1 X-10.173 Y7.438 E0.3743
G1 X-10.17 Y7.466 E0.37561
G1 X-10.09 Y7.907 E0.39648
G1 X-10.085 Y7.927 E0.39744
G1 X-9.995 Y8.238 E0.41252
G1 X-9.988 Y8.258 E0.41351
G1 X-9.868 Y8.548 E0.42812
G1 X-9.858 Y8.57 E0.42925
G1 X-9.707 Y8.84 E0.44365
G1 X-9.691 Y8.863 E0.44496
G1 X-9.436 Y9.197 E0.46452
G1 X-9.411 Y9.224 E0.46624
G1 X-9.045 Y9.556 E0.48925
G1 X-9.016 Y9.578 E0.49094
G1 X-8.655 Y9.802 E0.51072
G1 X-8.633 Y9.814 E0.51189
G1 X-8.289 Y9.971 E0.5295
G1 X-8.265 Y9.98 E0.53069
G1 X-7.998 Y10.062 E0.5437
G1 X-7.979 Y10.067 E0.54461
G1 X-7.583 Y10.147 E0.56342
G1 X-7.562 Y10.15 E0.56441
G1 X-7.209 Y10.184 E0.58092
G1 X-7.196 Y10.185 E0.58153
G1 X-6.729 Y10.2 E0.60329
G1 X-6.723 Y10.2 E0.60357
G1 X6.29 Y10.18 E1.20951
G1 X6.297 Y10.18 E1.20983
G1 X6.702 Y10.166 E1.2287
G1 X6.711 Y10.165 E1.22913
G1 X7.129 Y10.132 E1.24865
G1 X7.141 Y10.131 E1.24921
G1 X7.403 Y10.094 E1.26153
G1 X7.418 Y10.091 E1.26224
G1 X7.754 Y10.017 E1.27826
G1 X7.769 Y10.014 E1.27898
G1 X8.012 Y9.941 E1.29079
G1 X8.03 Y9.934 E1.29169
G1 X8.415 Y9.777 E1.31105
G1 X8.441 Y9.764 E1.31241
G1 X8.817 Y9.54 E1.33278
G1 X8.843 Y9.521 E1.33428
G1 X9.195 Y9.226 E1.35567
G1 X9.218 Y9.204 E1.35715
G1 X9.456 Y8.93 E1.37405
G1 X9.47 Y8.912 E1.37511
G1 X9.698 Y8.579 E1.39391
G1 X9.713 Y8.553 E1.3953
G1 X9.874 Y8.22 E1.41253
G1 X9.882 Y8.201 E1.41349
G1 X9.984 Y7.919 E1.42745
G1 X9.989 Y7.903 E1.42823
G1 X10.08 Y7.567 E1.44444
G1 X10.085 Y7.546 E1.44544
G1 X10.147 Y7.148 E1.4642
G1 X10.148 Y7.131 E1.46499
G1 X10.193 Y6.498 E1.49454
G1 X10.194 Y6.484 E1.4952
G1 X10.2 Y-29.8 E3.18473
G1 X29.8 Y-29.8 E4.09739
G1 X29.8 Y29.8 E6.87262
G1 X-29.8 Y29.8 E9.64784
G1 X-29.8 Y-.6 E11.06339
G1 X-10.2 Y-.6 E11.97605
G0 F6000 X-10.6 Y-.2
G1 F1200 X-10.596 Y6.829 E12.30335
G1 X-10.596 Y6.852 E12.30442
G1 X-10.573 Y7.453 E12.33243
G1 X-10.563 Y7.537 E12.33637
G1 X-10.483 Y7.978 E12.35724
G1 X-10.469 Y8.038 E12.3601
G1 X-10.379 Y8.349 E12.37518
G1 X-10.357 Y8.411 E12.37824
G1 X-10.237 Y8.701 E12.39286
G1 X-10.207 Y8.765 E12.39615
G1 X-10.056 Y9.035 E12.41055
G1 X-10.009 Y9.106 E12.41452
G1 X-9.754 Y9.44 E12.43409
G1 X-9.68 Y9.52 E12.43916
G1 X-9.314 Y9.852 E12.46217
G1 X-9.227 Y9.918 E12.46725
G1 X-8.866 Y10.142 E12.48704
G1 X-8.799 Y10.178 E12.49058
G1 X-8.455 Y10.335 E12.50819
G1 X-8.382 Y10.363 E12.51183
G1 X-8.115 Y10.445 E12.52483
G1 X-8.058 Y10.459 E12.52757
G1 X-7.662 Y10.539 E12.54638
G1 X-7.601 Y10.548 E12.54925
G1 X-7.248 Y10.582 E12.56576
G1 X-7.209 Y10.585 E12.56758
G1 X-6.742 Y10.6 E12.58934
G1 X-6.722 Y10.6 E12.59027
G1 X6.291 Y10.58 E13.19621
G1 X6.311 Y10.58 E13.19714
G1 X6.716 Y10.566 E13.21601
G1 X6.742 Y10.564 E13.21723
G1 X7.16 Y10.531 E13.23675
G1 X7.197 Y10.527 E13.23848
G1 X7.459 Y10.49 E13.25081
G1 X7.504 Y10.482 E13.25293
G1 X7.84 Y10.408 E13.26895
G1 X7.884 Y10.397 E13.27107
G1 X8.127 Y10.324 E13.28288
G1 X8.181 Y10.305 E13.28555
G1 X8.566 Y10.148 E13.30491
G1 X8.646 Y10.107 E13.30909
G1 X9.022 Y9.883 E13.32947
G1 X9.1 Y9.828 E13.33392
G1 X9.452 Y9.533 E13.3553
G1 X9.52 Y9.466 E13.35975
G1 X9.758 Y9.192 E13.37665
G1 X9.8 Y9.138 E13.37983
G1 X10.028 Y8.805 E13.39862
G1 X10.073 Y8.727 E13.40282
G1 X10.234 Y8.394 E13.42004
G1 X10.258 Y8.337 E13.42292
G1 X10.36 Y8.055 E13.43688
G1 X10.375 Y8.008 E13.43918
G1 X10.466 Y7.672 E13.45539
G1 X10.48 Y7.607 E13.45849
G1 X10.542 Y7.209 E13.47724
G1 X10.547 Y7.16 E13.47954
G1 X10.592 Y6.527 E13.50909
G1 X10.594 Y6.484 E13.51109
G1 X10.6 Y-29.4 E15.182
G1 X29.4 Y-29.4 E16.05741
G1 X29.4 Y29.4 E18.79538
G1 X-29.4 Y29.4 E21.53336
G1 X-29.4 Y-.2 E22.91166
G1 X-10.6 Y-.2 E23.78706
G0 F6000 X-10.999 Y0.2
G1 F1200 X-10.996 Y6.83 E24.09578
G1 X-10.995 Y6.867 E24.09751
G1 X-10.972 Y7.468 E24.12551
G1 X-10.957 Y7.608 E24.13207
G1 X-10.877 Y8.049 E24.15294
G1 X-10.854 Y8.149 E24.15772
G1 X-10.764 Y8.46 E24.17279
G1 X-10.727 Y8.564 E24.17793
G1 X-10.607 Y8.854 E24.19255
G1 X-10.556 Y8.96 E24.19802
G1 X-10.405 Y9.23 E24.21243
G1 X-10.327 Y9.349 E24.21905
G1 X-10.072 Y9.683 E24.23862
G1 X-9.949 Y9.817 E24.24709
G1 X-9.583 Y10.149 E24.2701
G1 X-9.438 Y10.258 E24.27855
G1 X-9.077 Y10.482 E24.29833
G1 X-8.965 Y10.542 E24.30425
G1 X-8.621 Y10.699 E24.32185
G1 X-8.5 Y10.745 E24.32788
G1 X-8.233 Y10.827 E24.34089
G1 X-8.137 Y10.851 E24.34549
G1 X-7.741 Y10.931 E24.36431
G1 X-7.639 Y10.946 E24.36911
G1 X-7.286 Y10.98 E24.38562
G1 X-7.222 Y10.984 E24.38861
G1 X-6.755 Y10.999 E24.41036
G1 X-6.721 Y11 E24.41195
G1 X6.292 Y10.98 E25.01789
G1 X6.325 Y10.979 E25.01942
G1 X6.73 Y10.965 E25.03829
G1 X6.774 Y10.963 E25.04034
G1 X7.192 Y10.93 E25.05987
G1 X7.253 Y10.923 E25.06273
G1 X7.515 Y10.886 E25.07505
G1 X7.59 Y10.873 E25.07859
G1 X7.926 Y10.799 E25.09461
G1 X7.999 Y10.78 E25.09813
G1 X8.242 Y10.707 E25.10994
G1 X8.332 Y10.675 E25.11439
G1 X8.717 Y10.518 E25.13375
G1 X8.851 Y10.451 E25.14073
G1 X9.227 Y10.227 E25.16111
G1 X9.357 Y10.134 E25.16855
G1 X9.709 Y9.839 E25.18993
G1 X9.822 Y9.729 E25.19728
G1 X10.06 Y9.455 E25.21418
G1 X10.13 Y9.364 E25.21952
G1 X10.358 Y9.031 E25.23831
G1 X10.433 Y8.901 E25.2453
G1 X10.594 Y8.568 E25.26253
G1 X10.634 Y8.473 E25.26733
G1 X10.736 Y8.191 E25.28129
G1 X10.761 Y8.112 E25.28515
G1 X10.852 Y7.776 E25.30136
G1 X10.875 Y7.669 E25.30645
G1 X10.937 Y7.271 E25.32521
G1 X10.946 Y7.188 E25.3291
G1 X10.991 Y6.555 E25.35865
G1 X10.994 Y6.484 E25.36196
G1 X11 Y-29 E27.01424
G1 X29 Y-29 E27.85239
G1 X29 Y29 E30.55312
G1 X-29 Y29 E33.25384
G1 X-29 Y0.2 E34.59489
G1 X-10.999 Y0.2 E35.43309
G0 F6000 X-11.399 Y0.6
G1 F1200 X-11.396 Y6.83 E35.72319
G1 X-11.395 Y6.883 E35.72565
G1 X-11.372 Y7.484 E35.75366
G1 X-11.351 Y7.68 E35.76284
G1 X-11.271 Y8.121 E35.78371
G1 X-11.238 Y8.26 E35.79036
G1 X-11.148 Y8.571 E35.80544
G1 X-11.097 Y8.717 E35.81264
G1 X-10.977 Y9.007 E35.82725
G1 X-10.905 Y9.155 E35.83492
G1 X-10.754 Y9.425 E35.84932
G1 X-10.645 Y9.592 E35.85861
G1 X-10.39 Y9.926 E35.87817
G1 X-10.218 Y10.113 E35.89
G1 X-9.852 Y10.445 E35.91301
G1 X-9.649 Y10.598 E35.92485
G1 X-9.288 Y10.822 E35.94463
G1 X-9.131 Y10.906 E35.95292
G1 X-8.787 Y11.063 E35.97053
G1 X-8.617 Y11.127 E35.97899
G1 X-8.35 Y11.209 E35.992
G1 X-8.216 Y11.243 E35.99843
G1 X-7.82 Y11.323 E36.01724
G1 X-7.677 Y11.345 E36.02398
G1 X-7.324 Y11.379 E36.0405
G1 X-7.235 Y11.384 E36.04465
G1 X-6.768 Y11.399 E36.0664
G1 X-6.721 Y11.4 E36.06859
G1 X6.292 Y11.38 E36.67453
G1 X6.338 Y11.379 E36.67667
G1 X6.743 Y11.365 E36.69554
G1 X6.805 Y11.362 E36.69843
G1 X7.223 Y11.329 E36.71796
G1 X7.309 Y11.319 E36.72199
G1 X7.571 Y11.282 E36.73431
G1 X7.676 Y11.263 E36.73928
G1 X8.012 Y11.189 E36.7553
G1 X8.114 Y11.163 E36.7602
G1 X8.357 Y11.09 E36.77202
G1 X8.483 Y11.045 E36.77825
G1 X8.868 Y10.888 E36.79761
G1 X9.056 Y10.795 E36.80737
G1 X9.432 Y10.571 E36.82775
G1 X9.614 Y10.441 E36.83817
G1 X9.966 Y10.146 E36.85955
G1 X10.124 Y9.991 E36.86986
G1 X10.362 Y9.717 E36.88676
G1 X10.46 Y9.59 E36.89423
G1 X10.688 Y9.257 E36.91302
G1 X10.793 Y9.075 E36.92281
G1 X10.954 Y8.742 E36.94003
G1 X11.011 Y8.609 E36.94677
G1 X11.113 Y8.327 E36.96073
G1 X11.147 Y8.217 E36.96609
G1 X11.238 Y7.881 E36.9823
G1 X11.27 Y7.73 E36.98949
G1 X11.332 Y7.332 E37.00824
G1 X11.345 Y7.216 E37.01368
G1 X11.39 Y6.583 E37.04323
G1 X11.394 Y6.484 E37.04784
G1 X11.4 Y-28.6 E38.6815
G1 X28.6 Y-28.6 E39.4824
G1 X28.6 Y28.6 E42.14588
G1 X-28.6 Y28.6 E44.80935
G1 X-28.6 Y0.6 E46.11314
G1 X-11.399 Y0.6 E46.9141
G0 F6000 X-11.799 Y1
G1 F1200 X-11.796 Y6.83 E47.18556
G1 X-11.795 Y6.898 E47.18873
G1 X-11.772 Y7.499 E47.21674
G1 X-11.744 Y7.751 E47.22854
G1 X-11.664 Y8.192 E47.24941
G1 X-11.622 Y8.371 E47.25797
G1 X-11.532 Y8.682 E47.27305
G1 X-11.466 Y8.87 E47.28233
G1 X-11.346 Y9.16 E47.29694
G1 X-11.254 Y9.351 E47.30681
G1 X-11.103 Y9.621 E47.32122
G1 X-10.963 Y9.834 E47.33309
G1 X-10.708 Y10.168 E47.35265
G1 X-10.486 Y10.409 E47.36791
G1 X-10.12 Y10.741 E47.39092
G1 X-9.86 Y10.937 E47.40608
G1 X-9.499 Y11.161 E47.42587
G1 X-9.297 Y11.27 E47.43655
G1 X-8.953 Y11.427 E47.45416
G1 X-8.734 Y11.51 E47.46507
G1 X-8.467 Y11.592 E47.47807
G1 X-8.295 Y11.635 E47.48633
G1 X-7.899 Y11.715 E47.50514
G1 X-7.716 Y11.743 E47.51376
G1 X-7.363 Y11.777 E47.53027
G1 X-7.248 Y11.784 E47.53564
G1 X-6.781 Y11.799 E47.55739
G1 X-6.72 Y11.8 E47.56024
G1 X6.293 Y11.78 E48.16618
G1 X6.352 Y11.779 E48.16892
G1 X6.757 Y11.765 E48.18779
G1 X6.837 Y11.76 E48.19153
G1 X7.255 Y11.727 E48.21105
G1 X7.365 Y11.715 E48.2162
G1 X7.627 Y11.678 E48.22852
G1 X7.762 Y11.654 E48.23491
G1 X8.098 Y11.58 E48.25093
G1 X8.229 Y11.546 E48.25723
G1 X8.472 Y11.473 E48.26905
G1 X8.634 Y11.416 E48.27704
G1 X9.019 Y11.259 E48.2964
G1 X9.26 Y11.138 E48.30896
G1 X9.636 Y10.914 E48.32934
G1 X9.871 Y10.748 E48.34274
G1 X10.223 Y10.453 E48.36412
G1 X10.426 Y10.253 E48.37739
G1 X10.664 Y9.979 E48.39429
G1 X10.79 Y9.816 E48.40388
G1 X11.018 Y9.483 E48.42268
G1 X11.154 Y9.25 E48.43524
G1 X11.315 Y8.917 E48.45246
G1 X11.387 Y8.745 E48.46114
G1 X11.489 Y8.463 E48.47511
G1 X11.533 Y8.322 E48.48199
G1 X11.624 Y7.986 E48.49819
G1 X11.666 Y7.792 E48.50744
G1 X11.728 Y7.394 E48.52619
G1 X11.744 Y7.245 E48.53317
G1 X11.789 Y6.612 E48.56272
G1 X11.794 Y6.484 E48.56869
G1 X11.8 Y-28.2 E50.18372
G1 X28.2 Y-28.2 E50.94737
G1 X28.2 Y28.2 E53.57359
G1 X-28.2 Y28.2 E56.19981
G1 X-28.2 Y1 E57.46636
G1 X-11.799 Y1 E58.23006
G0 F6000 X-12.199 Y1.4
G1 F1200 X-12.196 Y6.83 E58.4829
G1 X-12.194 Y6.913 E58.48677
G1 X-12.171 Y7.514 E58.51477
G1 X-12.138 Y7.823 E58.52924
G1 X-12.058 Y8.264 E58.55011
G1 X-12.006 Y8.483 E58.56059
G1 X-11.916 Y8.794 E58.57567
G1 X-11.836 Y9.023 E58.58696
G1 X-11.716 Y9.313 E58.60158
G1 X-11.603 Y9.546 E58.61364
G1 X-11.452 Y9.816 E58.62804
G1 X-11.281 Y10.077 E58.64257
G1 X-11.026 Y10.411 E58.66214
G1 X-10.755 Y10.705 E58.68076
G1 X-10.389 Y11.037 E58.70377
G1 X-10.071 Y11.277 E58.72232
G1 X-9.71 Y11.501 E58.7421
G1 X-9.463 Y11.633 E58.75514
G1 X-9.119 Y11.79 E58.77275
G1 X-8.852 Y11.892 E58.78606
G1 X-8.585 Y11.974 E58.79906
G1 X-8.375 Y12.027 E58.80915
G1 X-7.979 Y12.107 E58.82796
G1 X-7.754 Y12.141 E58.83856
G1 X-7.401 Y12.175 E58.85507
G1 X-7.261 Y12.184 E58.8616
G1 X-6.794 Y12.199 E58.88336
G1 X-6.72 Y12.2 E58.8868
G1 X6.293 Y12.18 E59.49274
G1 X6.366 Y12.179 E59.49614
G1 X6.771 Y12.165 E59.51501
G1 X6.868 Y12.159 E59.51954
G1 X7.286 Y12.126 E59.53906
G1 X7.421 Y12.111 E59.54539
G1 X7.683 Y12.074 E59.55771
G1 X7.848 Y12.045 E59.56551
G1 X8.184 Y11.971 E59.58153
G1 X8.344 Y11.929 E59.58923
G1 X8.587 Y11.856 E59.60105
G1 X8.785 Y11.786 E59.61083
G1 X9.17 Y11.629 E59.63019
G1 X9.465 Y11.482 E59.64553
G1 X9.841 Y11.258 E59.66591
G1 X10.128 Y11.054 E59.68231
G1 X10.48 Y10.759 E59.7037
G1 X10.728 Y10.516 E59.71986
G1 X10.966 Y10.242 E59.73676
G1 X11.12 Y10.042 E59.74852
G1 X11.348 Y9.709 E59.76731
G1 X11.514 Y9.424 E59.78267
G1 X11.675 Y9.091 E59.79989
G1 X11.763 Y8.881 E59.81049
G1 X11.865 Y8.599 E59.82446
G1 X11.919 Y8.426 E59.83289
G1 X12.01 Y8.09 E59.8491
G1 X12.061 Y7.854 E59.86035
G1 X12.123 Y7.456 E59.8791
G1 X12.143 Y7.273 E59.88767
G1 X12.188 Y6.64 E59.91722
G1 X12.194 Y6.484 E59.92449
G1 X12.2 Y-27.8 E61.5209
G1 X27.8 Y-27.8 E62.2473
G1 X27.8 Y27.8 E64.83627
G1 X-27.8 Y27.8 E67.42524
G1 X-27.8 Y1.4 E68.65453
G1 X-12.199 Y1.4 E69.38098
G0 F6000 X-12.599 Y1.8
G1 F1200 X-12.596 Y6.83 E69.6152
G1 X-12.594 Y6.928 E69.61976
G1 X-12.571 Y7.529 E69.64777
G1 X-12.531 Y7.894 E69.66487
G1 X-12.451 Y8.335 E69.68574
G1 X-12.391 Y8.594 E69.69812
G1 X-12.301 Y8.905 E69.71319
G1 X-12.205 Y9.176 E69.72658
G1 X-12.085 Y9.466 E69.74119
G1 X-11.952 Y9.741 E69.75542
G1 X-11.801 Y10.011 E69.76982
G1 X-11.599 Y10.32 E69.78701
G1 X-11.344 Y10.654 E69.80658
G1 X-11.024 Y11.002 E69.82859
G1 X-10.658 Y11.334 E69.8516
G1 X-10.282 Y11.617 E69.87352
G1 X-9.921 Y11.841 E69.8933
G1 X-9.63 Y11.997 E69.90867
G1 X-9.286 Y12.154 E69.92628
G1 X-8.969 Y12.274 E69.94206
G1 X-8.702 Y12.356 E69.95507
G1 X-8.454 Y12.42 E69.967
G1 X-8.058 Y12.5 E69.98581
G1 X-7.792 Y12.539 E69.99833
G1 X-7.439 Y12.573 E70.01484
G1 X-7.273 Y12.584 E70.02259
G1 X-6.806 Y12.599 E70.04434
G1 X-6.719 Y12.6 E70.04839
G1 X6.294 Y12.58 E70.65433
G1 X6.38 Y12.578 E70.65834
G1 X6.785 Y12.564 E70.67721
G1 X6.9 Y12.558 E70.68257
G1 X7.318 Y12.525 E70.7021
G1 X7.477 Y12.507 E70.70955
G1 X7.739 Y12.47 E70.72187
G1 X7.934 Y12.435 E70.73109
G1 X8.27 Y12.361 E70.74711
G1 X8.459 Y12.312 E70.75621
G1 X8.702 Y12.239 E70.76802
G1 X8.936 Y12.157 E70.77957
G1 X9.321 Y12 E70.79893
G1 X9.67 Y11.826 E70.81708
G1 X10.046 Y11.602 E70.83746
G1 X10.385 Y11.361 E70.85683
G1 X10.737 Y11.066 E70.87822
G1 X11.03 Y10.778 E70.89735
G1 X11.268 Y10.504 E70.91425
G1 X11.45 Y10.268 E70.92813
G1 X11.678 Y9.935 E70.94692
G1 X11.874 Y9.598 E70.96507
G1 X12.035 Y9.265 E70.98229
G1 X12.139 Y9.017 E70.99482
G1 X12.241 Y8.735 E71.00878
G1 X12.306 Y8.531 E71.01875
G1 X12.397 Y8.195 E71.03496
G1 X12.456 Y7.915 E71.04828
G1 X12.518 Y7.517 E71.06704
G1 X12.542 Y7.301 E71.07716
G1 X12.587 Y6.668 E71.10671
G1 X12.594 Y6.484 E71.11528
G1 X12.6 Y-27.4 E72.69306
G1 X27.4 Y-27.4 E73.38221
G1 X27.4 Y27.4 E75.93393
G1 X-27.4 Y27.4 E78.48565
G1 X-27.4 Y1.8 E79.67769
G1 X-12.599 Y1.8 E80.36689
G0 F6000 X-12.998 Y2.2
G1 F1200 X-12.996 Y6.831 E80.58253
G1 X-12.994 Y6.944 E80.58779
G1 X-12.971 Y7.545 E80.61579
G1 X-12.925 Y7.965 E80.63547
G1 X-12.845 Y8.406 E80.65634
G1 X-12.775 Y8.705 E80.67064
G1 X-12.685 Y9.016 E80.68571
G1 X-12.575 Y9.329 E80.70116
G1 X-12.455 Y9.619 E80.71578
G1 X-12.301 Y9.936 E80.73219
G1 X-12.15 Y10.206 E80.74659
G1 X-11.916 Y10.562 E80.76643
G1 X-11.661 Y10.896 E80.786
G1 X-11.293 Y11.298 E80.81137
G1 X-10.927 Y11.63 E80.83438
G1 X-10.493 Y11.957 E80.85969
G1 X-10.132 Y12.181 E80.87947
G1 X-9.796 Y12.361 E80.89722
G1 X-9.452 Y12.518 E80.91483
G1 X-9.087 Y12.657 E80.93301
G1 X-8.82 Y12.739 E80.94602
G1 X-8.533 Y12.812 E80.95981
G1 X-8.137 Y12.892 E80.97862
G1 X-7.831 Y12.937 E80.99302
G1 X-7.478 Y12.971 E81.00953
G1 X-7.286 Y12.983 E81.01849
G1 X-6.819 Y12.998 E81.04025
G1 X-6.718 Y13 E81.04495
G1 X6.295 Y12.98 E81.65089
G1 X6.394 Y12.978 E81.6555
G1 X6.799 Y12.964 E81.67437
G1 X6.931 Y12.957 E81.68053
G1 X7.349 Y12.924 E81.70005
G1 X7.533 Y12.904 E81.70867
G1 X7.795 Y12.867 E81.72099
G1 X8.02 Y12.826 E81.73164
G1 X8.356 Y12.752 E81.74766
G1 X8.574 Y12.695 E81.75815
G1 X8.817 Y12.622 E81.76997
G1 X9.087 Y12.527 E81.7833
G1 X9.472 Y12.37 E81.80266
G1 X9.874 Y12.169 E81.82359
G1 X10.25 Y11.945 E81.84397
G1 X10.642 Y11.667 E81.86634
G1 X10.994 Y11.372 E81.88773
G1 X11.332 Y11.04 E81.90979
G1 X11.57 Y10.766 E81.92669
G1 X11.78 Y10.494 E81.94269
G1 X12.008 Y10.161 E81.96148
G1 X12.234 Y9.772 E81.98243
G1 X12.395 Y9.439 E81.99965
G1 X12.515 Y9.153 E82.0141
G1 X12.617 Y8.871 E82.02806
G1 X12.692 Y8.635 E82.03959
G1 X12.783 Y8.299 E82.0558
G1 X12.851 Y7.977 E82.07112
G1 X12.913 Y7.579 E82.08988
G1 X12.941 Y7.33 E82.10155
G1 X12.986 Y6.697 E82.1311
G1 X12.994 Y6.484 E82.14102
G1 X13 Y-27 E83.70018
G1 X27 Y-27 E84.35208
G1 X27 Y27 E86.86654
G1 X-27 Y27 E89.38101
G1 X-27 Y2.2 E90.5358
G1 X-12.998 Y2.2 E91.18779
G0 F6000 X-13.398 Y2.6
G1 F1200 X-13.396 Y6.831 E91.38481
G1 X-13.394 Y6.959 E91.39077
G1 X-13.371 Y7.56 E91.41877
G1 X-13.318 Y8.037 E91.44112
G1 X-13.238 Y8.478 E91.46199
G1 X-13.159 Y8.816 E91.47815
G1 X-13.069 Y9.127 E91.49323
G1 X-12.945 Y9.482 E91.51074
G1 X-12.825 Y9.772 E91.52535
G1 X-12.65 Y10.132 E91.54399
G1 X-12.499 Y10.402 E91.5584
G1 X-12.234 Y10.805 E91.58085
G1 X-11.979 Y11.139 E91.60042
G1 X-11.561 Y11.594 E91.62919
G1 X-11.195 Y11.926 E91.6522
G1 X-10.704 Y12.297 E91.68086
G1 X-10.343 Y12.521 E91.70064
G1 X-9.962 Y12.725 E91.72076
G1 X-9.618 Y12.882 E91.73837
G1 X-9.204 Y13.039 E91.75899
G1 X-8.937 Y13.121 E91.77199
G1 X-8.612 Y13.204 E91.78761
G1 X-8.216 Y13.284 E91.80643
G1 X-7.869 Y13.335 E91.82276
G1 X-7.516 Y13.369 E91.83927
G1 X-7.299 Y13.383 E91.8494
