M104 S200
G28
;FLAVOR:Marlin
;TIME:33591
;Filament used: 36.2167m
;Layer height: 0.28
;MINX:-56.653
;MINY:-56.665
;MINZ:0.28
;MAXX:56.665
;MAXY:56.665
;MAXZ:35
;Generated with Cura_SteamEngine 5.3.1
M104 S210
M105
M109 S210
M82 ;absolute extrusion mode
; Ender 3 Custom Start G-code
G92 E0 ; Reset Extruder
G92 E0
G92 E0
G1 F2700 E-5
;LAYER_COUNT:125
;LAYER:0
M0 P100
M118 A1 parameters_14_61.20000_90.00000_0.00000
M0 P100
M118 A1 time_start
M107
G0 F6000 X98.60000 Y142.20000 Z0.28000
;TYPE:SKIRT
G1 F2700 E0
G1 F1200 X23.80000 Y142.20000 E3.483
G1 X23.80000 Y37.80000 E8.3443
G1 X98.60000 Y37.80000 E11.8273
G1 X98.60000 Y142.20000 E16.68861
G0 F6000 X99.00000 Y142.60000
G1 F1200 X23.40000 Y142.60000 E20.20886
G1 X23.40000 Y37.40000 E25.10741
G1 X99.00000 Y37.40000 E28.62766
G1 X99.00000 Y142.60000 E33.52622
G0 F6000 X99.40000 Y143.00000
G1 F1200 X23.00000 Y143.00000 E37.08372
G1 X23.00000 Y37.00000 E42.01952
G1 X99.40000 Y37.00000 E45.57703
G1 X99.40000 Y143.00000 E50.51283
G0 F6000 X99.80000 Y143.40000
G1 F1200 X22.60000 Y143.40000 E54.10759
G1 X22.60000 Y36.60000 E59.08064
G1 X99.80000 Y36.60000 E62.6754
G1 X99.80000 Y143.40000 E67.64845
G0 F6000 X100.20000 Y143.80000
G1 F1200 X22.20000 Y143.80000 E71.28046
G1 X22.20000 Y36.20000 E76.29077
G1 X100.20000 Y36.20000 E79.92277
G1 X100.20000 Y143.80000 E84.93308
G0 F6000 X100.60000 Y144.20000
G1 F1200 X21.80000 Y144.20000 E88.60234
G1 X21.80000 Y35.80000 E93.6499
G1 X100.60000 Y35.80000 E97.31916
G1 X100.60000 Y144.20000 E102.36671
G0 F6000 X101.00000 Y144.60000
G1 F1200 X21.40000 Y144.60000 E106.07322
G1 X21.40000 Y35.40000 E111.15803
G1 X101.00000 Y35.40000 E114.86454
G1 X101.00000 Y144.60000 E119.94935
G0 F6000 X101.40000 Y145.00000
G1 F1200 X21.00000 Y145.00000 E123.69311
G1 X21.00000 Y35.00000 E128.81517
G1 X101.40000 Y35.00000 E132.55893
G1 X101.40000 Y145.00000 E137.68099
G0 F6000 X101.80000 Y145.40000
G1 F1200 X20.60000 Y145.40000 E141.46201
G1 X20.60000 Y34.60000 E146.62132
G1 X101.80000 Y34.60000 E150.40233
G1 X101.80000 Y145.40000 E155.56164
G0 F6000 X102.20000 Y145.80000
G1 F1200 X20.20000 Y145.80000 E159.37991
G1 X20.20000 Y34.20000 E164.57647
G1 X102.20000 Y34.20000 E168.39473
G1 X102.20000 Y145.80000 E173.5913
G1 F2700 E168.5913
G0 F6000 X102.54700 Y146.65300
G0 X117.85300 Y146.65300
G0 X117.86500 Y57.00000
G0 X117.40000 Y57.00000
G1 F2700 E173.5913
G1 F1200 X117.40000 Y145.26700 E177.70138
G1 X117.39000 Y145.99400 E177.73523
G1 X117.34900 Y146.11200 E177.74105
G1 X117.19600 Y146.19100 E177.74907
G1 X116.87600 Y146.20000 E177.76397
G1 X5.90400 Y146.20000 E182.9313
G1 X5.20600 Y146.19000 E182.9638
G1 X5.08800 Y146.14900 E182.96962
G1 X5.00900 Y145.99500 E182.97768
G1 X5.00000 Y145.66300 E182.99314
G1 X5.00000 Y34.67100 E188.16139
G1 X5.01000 Y34.00600 E188.19236
G1 X5.05100 Y33.88800 E188.19818
G1 X5.20400 Y33.80900 E188.2062
G1 X5.52400 Y33.80000 E188.2211
G1 X116.49600 Y33.80000 E193.38843
G1 X117.19400 Y33.81000 E193.42093
G1 X117.31200 Y33.85100 E193.42675
G1 X117.39100 Y34.00400 E193.43477
G1 X117.40000 Y34.32400 E193.44967
G1 X117.40000 Y47.50000 E194.0632
G1 F2700 E189.0632
G0 F6000 X117.86500 Y47.50000
G0 X117.85300 Y33.34700
G0 X102.54700 Y33.34700
G0 X99.06500 Y38.20000
G0 X98.20000 Y38.20000
;TYPE:SUPPORT
G1 F2700 E194.0632
G1 F1200 X98.20000 Y141.80000 E198.88725
G1 X24.20000 Y141.80000 E202.333
G1 X24.20000 Y38.20000 E207.15705
G1 X98.20000 Y38.20000 E210.6028
G0 F6000 X97.20000 Y38.28000
G1 F1200 X97.20000 Y141.72000 E215.4194
G1 F2700 E210.4194
G0 F6000 X98.12000 Y139.02800
G1 F2700 E215.4194
G1 F1200 X24.28100 Y96.39700 E219.38956
G0 F6000 X24.28200 Y97.45800
G1 F1200 X98.11900 Y54.82900 E223.35958
G0 F6000 X98.11900 Y55.89000
G1 F1200 X67.61900 Y38.28100 E224.99949
G1 F2700 E219.99949
G0 F6000 X67.61900 Y37.33500
G0 X73.20000 Y37.33500
G0 X73.20000 Y38.28000
G1 F2700 E224.99949
G1 F1200 X73.20000 Y141.72000 E229.81609
G1 F2700 E224.81609
G0 F6000 X73.20000 Y142.66500
G0 X78.77900 Y142.66500
G0 X78.77900 Y141.71800
G1 F2700 E229.81609
G1 F1200 X24.28000 Y110.25300 E232.74638
G0 F6000 X24.28100 Y111.31500
G1 F1200 X98.11900 Y68.68500 E236.71647
G0 F6000 X98.12000 Y69.74700
G1 F1200 X43.62100 Y38.28200 E239.64675
G1 F2700 E234.64675
G0 F6000 X43.62100 Y37.33500
G0 X49.20000 Y37.33500
G0 X49.20000 Y38.28000
G1 F2700 E239.64675
G1 F1200 X49.20000 Y141.72000 E244.46335
G1 F2700 E239.46335
G0 F6000 X49.20000 Y142.66500
G0 X43.62000 Y142.66500
G0 X43.62000 Y141.71900
G1 F2700 E244.46335
G1 F1200 X98.11900 Y110.25300 E247.39366
G0 F6000 X98.12000 Y111.31600
G1 F1200 X24.28000 Y68.68400 E251.36388
G0 F6000 X24.28100 Y69.74700
G1 F1200 X78.78000 Y38.28100 E254.29419
G1 F2700 E249.29419
G0 F6000 X78.78000 Y37.33500
G0 X85.20000 Y37.33500
G0 X85.20000 Y38.28000
G1 F2700 E254.29419
G1 F1200 X85.20000 Y141.72000 E259.11079
G1 F2700 E254.11079
G0 F6000 X85.20000 Y142.66500
G0 X91.61800 Y142.66500
G0 X91.61800 Y141.72000
G1 F2700 E259.11079
G1 F1200 X98.11800 Y137.96700 E259.46028
G1 F2700 E254.46028
G0 F6000 X99.06500 Y137.96700
G0 X99.06500 Y125.17200
G0 X98.12000 Y125.17200
G1 F2700 E259.46028
G1 F1200 X24.28100 Y82.54100 E263.43043
G0 F6000 X24.28100 Y83.60300
G1 F1200 X98.11900 Y40.97200 E267.40055
G0 F6000 X98.11900 Y42.03400
G1 F1200 X91.61900 Y38.28100 E267.75004
G1 F2700 E262.75004
G0 F6000 X91.61900 Y37.33500
G0 X61.20000 Y37.33500
G0 X61.20000 Y38.28000
G1 F2700 E267.75004
G1 F1200 X61.20000 Y141.72000 E272.56664
G1 F2700 E267.56664
G0 F6000 X61.20000 Y142.66500
G0 X67.61800 Y142.66500
G0 X67.61800 Y141.71900
G1 F2700 E272.56664
G1 F1200 X98.11800 Y124.11000 E274.20655
G1 F2700 E269.20655
G0 F6000 X99.06500 Y124.11000
G0 X99.06500 Y97.45900
G0 X98.11900 Y97.45900
G1 F2700 E274.20655
G1 F1200 X24.28000 Y54.82800 E278.17671
G0 F6000 X24.28200 Y55.89000
G1 F1200 X54.78200 Y38.28100 E279.81662
G1 F2700 E274.81662
G0 F6000 X54.78200 Y37.33500
G0 X37.20000 Y37.33500
G0 X37.20000 Y38.28000
G1 F2700 E279.81662
G1 F1200 X37.20000 Y141.72000 E284.63322
G1 F2700 E279.63322
G0 F6000 X37.20000 Y142.66500
G0 X30.78100 Y142.66500
G0 X30.78100 Y141.71900
G1 F2700 E284.63322
G1 F1200 X24.28100 Y137.96600 E284.98271
G0 F6000 X24.28100 Y139.02800
G1 F1200 X98.11900 Y96.39700 E288.95283
G1 F2700 E283.95283
G0 F6000 X99.06500 Y96.39700
G0 X99.06500 Y83.60300
G0 X98.11900 Y83.60300
G1 F2700 E288.95283
G1 F1200 X24.28000 Y40.97200 E292.92298
G0 F6000 X24.28200 Y42.03300
G1 F1200 X30.78200 Y38.28000 E293.27247
G1 F2700 E288.27247
G0 F6000 X30.78200 Y37.33500
G0 X25.20000 Y37.33500
G0 X25.20000 Y38.28000
G1 F2700 E293.27247
G1 F1200 X25.20000 Y141.72000 E298.08907
G1 F2700 E293.08907
G0 F6000 X25.20000 Y142.66500
G0 X23.34700 Y142.65300
G0 X23.33500 Y125.17100
G0 X24.28100 Y125.17100
G1 F2700 E298.08907
G1 F1200 X98.11800 Y82.54200 E302.0591
G1 F2700 E297.0591
G0 F6000 X99.06500 Y82.54200
G0 X99.05300 Y142.65300
G0 X54.78100 Y142.66500
G0 X54.78100 Y141.71900
G1 F2700 E302.0591
G1 F1200 X24.28100 Y124.11000 E303.69901
G1 F2700 E298.69901
;MESH:bridge_rect_final_10.stl
G0 F6000 X23.33500 Y124.11000
G0 X19.86500 Y124.11000
G0 X18.60000 Y145.40000
;TYPE:WALL-INNER
M0 P100
M118 A1 time_fill_start
G1 F2700 E303.69901
G1 F1200 X18.60000 Y34.60000 E308.85832
G1 X5.80000 Y34.60000 E309.45434
G1 X5.80000 Y145.40000 E314.61366
G1 X18.60000 Y145.40000 E315.20968
G0 F6000 X19.00000 Y145.80000
;TYPE:WALL-OUTER
G1 F1200 X19.00000 Y34.20000 E320.40624
G1 X5.40000 Y34.20000 E321.03951
G1 X5.40000 Y145.80000 E326.23608
G1 X19.00000 Y145.80000 E326.86935
G0 F6000 X18.73000 Y145.53000
G0 X18.50000 Y145.04000
G0 X18.24000 Y145.04000
;TYPE:SKIN
G1 F1200 X6.16000 Y145.04000 E327.43185
G1 X6.16000 Y34.96000 E332.55763
G1 X18.24000 Y34.96000 E333.12013
G1 X18.24000 Y145.04000 E338.24591
G0 F6000 X18.50000 Y145.04000
G0 X5.97200 Y145.22800
G0 X5.90000 Y144.33700
G0 X6.36100 Y144.33700
G1 F1200 X6.86300 Y144.83900 E338.27897
G0 F6000 X7.42900 Y144.83900
G1 F1200 X6.36100 Y143.77100 E338.3493
G0 F6000 X6.36100 Y143.20600
G1 F1200 X7.99400 Y144.83900 E338.45684
G0 F6000 X8.56000 Y144.83900
G1 F1200 X6.36100 Y142.64000 E338.60164
G0 F6000 X6.36100 Y142.07400
G1 F1200 X9.12600 Y144.83900 E338.78372
G0 F6000 X9.69100 Y144.83900
G1 F1200 X6.36100 Y141.50900 E339.00301
G0 F6000 X6.36100 Y140.94300
G1 F1200 X10.25700 Y144.83900 E339.25957
G0 F6000 X10.82300 Y144.83900
G1 F1200 X6.36100 Y140.37700 E339.5534
G0 F6000 X6.36100 Y139.81200
G1 F1200 X11.38800 Y144.83900 E339.88444
G0 F6000 X11.95400 Y144.83900
G1 F1200 X6.36100 Y139.24600 E340.25274
G0 F6000 X6.36100 Y138.68000
G1 F1200 X12.52000 Y144.83900 E340.65832
G0 F6000 X13.08500 Y144.83900
G1 F1200 X6.36100 Y138.11500 E341.10111
G0 F6000 X6.36100 Y137.54900
G1 F1200 X13.65100 Y144.83900 E341.58117
G0 F6000 X14.21700 Y144.83900
G1 F1200 X6.36100 Y136.98300 E342.0985
G0 F6000 X6.36100 Y136.41800
G1 F1200 X14.78200 Y144.83900 E342.65304
G0 F6000 X15.34800 Y144.83900
G1 F1200 X6.36100 Y135.85200 E343.24485
G0 F6000 X6.36100 Y135.28600
G1 F1200 X15.91400 Y144.83900 E343.87393
G0 F6000 X16.48000 Y144.83900
G1 F1200 X6.36100 Y134.72000 E344.54028
G0 F6000 X6.36100 Y134.15500
G1 F1200 X17.04500 Y144.83900 E345.24384
G0 F6000 X17.61100 Y144.83900
G1 F1200 X6.36100 Y133.58900 E345.98467
G0 F6000 X6.36100 Y133.02300
G1 F1200 X18.04100 Y144.70300 E346.75382
G0 F6000 X18.04100 Y144.13800
G1 F1200 X6.36100 Y132.45800 E347.52297
G0 F6000 X6.36100 Y131.89200
G1 F1200 X18.04100 Y143.57200 E348.29212
G0 F6000 X18.04100 Y143.00600
G1 F1200 X6.36100 Y131.32600 E349.06127
G0 F6000 X6.36100 Y130.76100
G1 F1200 X18.04100 Y142.44100 E349.83041
G0 F6000 X18.04100 Y141.87500
G1 F1200 X6.36100 Y130.19500 E350.59956
G0 F6000 X6.36100 Y129.62900
G1 F1200 X18.04100 Y141.30900 E351.36871
G0 F6000 X18.04100 Y140.74400
G1 F1200 X6.36100 Y129.06400 E352.13786
G0 F6000 X6.36100 Y128.49800
G1 F1200 X18.04100 Y140.17800 E352.90701
G0 F6000 X18.04100 Y139.61200
G1 F1200 X6.36100 Y127.93200 E353.67615
G0 F6000 X6.36100 Y127.36700
G1 F1200 X18.04100 Y139.04700 E354.4453
G0 F6000 X18.04100 Y138.48100
G1 F1200 X6.36100 Y126.80100 E355.21445
G0 F6000 X6.36100 Y126.23500
G1 F1200 X18.04100 Y137.91500 E355.9836
G0 F6000 X18.04100 Y137.34900
G1 F1200 X6.36100 Y125.67000 E356.75271
G0 F6000 X6.36100 Y125.10400
G1 F1200 X18.04100 Y136.78400 E357.52186
G0 F6000 X18.04100 Y136.21800
G1 F1200 X6.36100 Y124.53800 E358.29101
G0 F6000 X6.36100 Y123.97200
G1 F1200 X18.04100 Y135.65200 E359.06016
G0 F6000 X18.04100 Y135.08700
G1 F1200 X6.36100 Y123.40700 E359.8293
G0 F6000 X6.36100 Y122.84100
G1 F1200 X18.04100 Y134.52100 E360.59845
G0 F6000 X18.04100 Y133.95500
G1 F1200 X6.36100 Y122.27500 E361.3676
G0 F6000 X6.36100 Y121.71000
G1 F1200 X18.04100 Y133.39000 E362.13675
G0 F6000 X18.04100 Y132.82400
G1 F1200 X6.36100 Y121.14400 E362.9059
G0 F6000 X6.36100 Y120.57800
G1 F1200 X18.04100 Y132.25800 E363.67504
G0 F6000 X18.04100 Y131.69300
G1 F1200 X6.36100 Y120.01300 E364.44419
G0 F6000 X6.36100 Y119.44700
G1 F1200 X18.04100 Y131.12700 E365.21334
G0 F6000 X18.04100 Y130.56100
G1 F1200 X6.36100 Y118.88100 E365.98249
G0 F6000 X6.36100 Y118.31600
G1 F1200 X18.04100 Y129.99600 E366.75164
G0 F6000 X18.04100 Y129.43000
G1 F1200 X6.36100 Y117.75000 E367.52078
G0 F6000 X6.36100 Y117.18400
G1 F1200 X18.04100 Y128.86400 E368.28993
G0 F6000 X18.04100 Y128.29900
G1 F1200 X6.36100 Y116.61900 E369.05908
G0 F6000 X6.36100 Y116.05300
G1 F1200 X18.04100 Y127.73300 E369.82823
G0 F6000 X18.04100 Y127.16700
G1 F1200 X6.36100 Y115.48700 E370.59738
G0 F6000 X6.36100 Y114.92100
G1 F1200 X18.04100 Y126.60100 E371.36652
G0 F6000 X18.04100 Y126.03600
G1 F1200 X6.36100 Y114.35600 E372.13567
G0 F6000 X6.36100 Y113.79000
G1 F1200 X18.04100 Y125.47000 E372.90482
G0 F6000 X18.04100 Y124.90400
G1 F1200 X6.36100 Y113.22400 E373.67397
G0 F6000 X6.36100 Y112.65900
G1 F1200 X18.04100 Y124.33900 E374.44312
G0 F6000 X18.04100 Y123.77300
G1 F1200 X6.36100 Y112.09300 E375.21226
G0 F6000 X6.36100 Y111.52700
G1 F1200 X18.04100 Y123.20700 E375.98141
G0 F6000 X18.04100 Y122.64200
G1 F1200 X6.36100 Y110.96200 E376.75056
G0 F6000 X6.36100 Y110.39600
G1 F1200 X18.04100 Y122.07600 E377.51971
G0 F6000 X18.04100 Y121.51000
G1 F1200 X6.36100 Y109.83000 E378.28886
G0 F6000 X6.36100 Y109.26500
G1 F1200 X18.04100 Y120.94500 E379.058
G0 F6000 X18.04100 Y120.37900
G1 F1200 X6.36100 Y108.69900 E379.82715
G0 F6000 X6.36100 Y108.13300
G1 F1200 X18.04100 Y119.81300 E380.5963
G0 F6000 X18.04100 Y119.24800
G1 F1200 X6.36100 Y107.56800 E381.36545
G0 F6000 X6.36100 Y107.00200
G1 F1200 X18.04100 Y118.68200 E382.1346
G0 F6000 X18.04100 Y118.11600
G1 F1200 X6.36100 Y106.43600 E382.90374
G0 F6000 X6.36100 Y105.87100
G1 F1200 X18.04100 Y117.55100 E383.67289
G0 F6000 X18.04100 Y116.98500
G1 F1200 X6.36100 Y105.30500 E384.44204
G0 F6000 X6.36100 Y104.73900
G1 F1200 X18.04100 Y116.41900 E385.21119
G0 F6000 X18.04100 Y115.85300
G1 F1200 X6.36100 Y104.17300 E385.98033
G0 F6000 X6.36100 Y103.60800
G1 F1200 X18.04100 Y115.28800 E386.74948
G0 F6000 X18.04100 Y114.72200
G1 F1200 X6.36100 Y103.04200 E387.51863
G0 F6000 X6.36100 Y102.47600
G1 F1200 X18.04100 Y114.15600 E388.28778
G0 F6000 X18.04100 Y113.59100
G1 F1200 X6.36100 Y101.91100 E389.05693
G0 F6000 X6.36100 Y101.34500
G1 F1200 X18.04100 Y113.02500 E389.82607
G0 F6000 X18.04100 Y112.45900
G1 F1200 X6.36100 Y100.77900 E390.59522
G0 F6000 X6.36100 Y100.21400
G1 F1200 X18.04100 Y111.89400 E391.36437
G0 F6000 X18.04100 Y111.32800
G1 F1200 X6.36100 Y99.64800 E392.13352
G0 F6000 X6.36100 Y99.08200
G1 F1200 X18.04100 Y110.76200 E392.90267
G0 F6000 X18.04100 Y110.19700
G1 F1200 X6.36100 Y98.51700 E393.67181
G0 F6000 X6.36100 Y97.95100
G1 F1200 X18.04100 Y109.63100 E394.44096
G0 F6000 X18.04100 Y109.06500
G1 F1200 X6.36100 Y97.38500 E395.21011
G0 F6000 X6.36100 Y96.82000
G1 F1200 X18.04100 Y108.50000 E395.97926
G0 F6000 X18.04100 Y107.93400
G1 F1200 X6.36100 Y96.25400 E396.74841
G0 F6000 X6.36100 Y95.68800
G1 F1200 X18.04100 Y107.36800 E397.51755
G0 F6000 X18.04100 Y106.80200
G1 F1200 X6.36100 Y95.12200 E398.2867
G0 F6000 X6.36100 Y94.55700
G1 F1200 X18.04100 Y106.23700 E399.05585
G0 F6000 X18.04100 Y105.67100
G1 F1200 X6.36100 Y93.99100 E399.825
G0 F6000 X6.36100 Y93.42500
G1 F1200 X18.04100 Y105.10500 E400.59415
G0 F6000 X18.04100 Y104.54000
G1 F1200 X6.36100 Y92.86000 E401.36329
G0 F6000 X6.36100 Y92.29400
G1 F1200 X18.04100 Y103.97400 E402.13244
G0 F6000 X18.04100 Y103.40800
G1 F1200 X6.36100 Y91.72800 E402.90159
G0 F6000 X6.36100 Y91.16300
G1 F1200 X18.04100 Y102.84300 E403.67074
G0 F6000 X18.04100 Y102.27700
G1 F1200 X6.36100 Y90.59700 E404.43989
G0 F6000 X6.36100 Y90.03100
G1 F1200 X18.04100 Y101.71100 E405.20903
G0 F6000 X18.04100 Y101.14600
G1 F1200 X6.36100 Y89.46700 E405.97815
G0 F6000 X6.36100 Y88.90100
G1 F1200 X18.04100 Y100.58000 E406.74726
G0 F6000 X18.04100 Y100.01400
G1 F1200 X6.36100 Y88.33500 E407.51638
G0 F6000 X6.36100 Y87.77000
G1 F1200 X18.04100 Y99.44900 E408.28549
G0 F6000 X18.04100 Y98.88300
G1 F1200 X6.36100 Y87.20400 E409.05461
G0 F6000 X6.36100 Y86.63800
G1 F1200 X18.04100 Y98.31700 E409.82372
G0 F6000 X18.04100 Y97.75200
G1 F1200 X6.36100 Y86.07300 E410.59284
G0 F6000 X6.36100 Y85.50700
G1 F1200 X18.04100 Y97.18600 E411.36195
G0 F6000 X18.04100 Y96.62000
G1 F1200 X6.36100 Y84.94100 E412.13107
G0 F6000 X6.36100 Y84.37500
G1 F1200 X18.04100 Y96.05400 E412.90018
G0 F6000 X18.04100 Y95.48900
G1 F1200 X6.36100 Y83.81000 E413.6693
G0 F6000 X6.36100 Y83.24400
G1 F1200 X18.04100 Y94.92300 E414.43841
G0 F6000 X18.04100 Y94.35700
G1 F1200 X6.36100 Y82.67800 E415.20753
G0 F6000 X6.36100 Y82.11300
G1 F1200 X18.04100 Y93.79200 E415.97664
G0 F6000 X18.04100 Y93.22600
G1 F1200 X6.36100 Y81.54700 E416.74576
G0 F6000 X6.36100 Y80.98100
G1 F1200 X18.04100 Y92.66000 E417.51487
G0 F6000 X18.04100 Y92.09500
G1 F1200 X6.36100 Y80.41600 E418.28399
G0 F6000 X6.36100 Y79.85000
G1 F1200 X18.04100 Y91.52900 E419.0531
G0 F6000 X18.04100 Y90.96300
G1 F1200 X6.36100 Y79.28400 E419.82222
G0 F6000 X6.36100 Y78.71900
G1 F1200 X18.04100 Y90.39800 E420.59133
G0 F6000 X18.04100 Y89.83300
G1 F1200 X6.36100 Y78.15300 E421.36048
G0 F6000 X6.36100 Y77.58700
G1 F1200 X18.04100 Y89.26700 E422.12963
G0 F6000 X18.04100 Y88.70200
