M104 S200
G28
G28
G92 E0
G0 Z120
G0 F9000 X102.00000 Y102.00000 Z120.00000
M0
G0 F9000 X30.5 Y176.5 Z186.3
M0 P500
M118 A1 down
M0 S1.5
G0 F9000 Z160.3
G0 F9000 Z166.70000000000002
M0 P500
M118 A1 up
M0 S1.5
G0 F9000 X30.5 Y125.5 Z186.3
M0 P500
M118 A1 down
M0 S1.5
G0 F9000 Z160.3
G0 F9000 Z167.0
M0 P500
M118 A1 up
M0 S1.5
G0 F9000 X40.5 Y74.5 Z186.3
M0 P500
M118 A1 down
M0 S1.5
G0 F9000 Z160.3
G0 F9000 Z166.70000000000002
M0 P500
M118 A1 up
M0 S1.5
G0 F9000 X91.5 Y176.5 Z186.3
M0 P500
M118 A1 down
M0 S1.5
G0 F9000 Z160.3
G0 F9000 Z166.5
M0 P500
M118 A1 up
M0 S1.5
G0 F9000 X91.5 Y125.5 Z186.3
M0 P500
M118 A1 down
M0 S1.5
G0 F9000 Z160.3
G0 F9000 Z166.10000000000002
M0 P500
M118 A1 up
M0 S1.5
G0 F9000 X91.5 Y74.5 Z186.3
M0 P500
M118 A1 down
M0 S1.5
G0 F9000 Z160.3
G0 F9000 Z165.9
M0 P500
M118 A1 up
M0 S1.5
G0 F9000 X142.5 Y176.5 Z186.3
M0 P500
M118 A1 down
M0 S1.5
G0 F9000 Z160.3
G0 F9000 Z166.10000000000002
M0 P500
M118 A1 up
M0 S1.5
G0 F9000 X142.5 Y125.5 Z186.3
M0 P500
M118 A1 down
M0 S1.5
G0 F9000 Z160.3
G0 F9000 Z166.3
M0 P500
M118 A1 up
M0 S1.5
G0 F9000 X142.5 Y74.5 Z186.3
M0 P500
M118 A1 down
M0 S1.5
G0 F9000 Z160.3
G0 F9000 Z166.10000000000002
M0 P500
M118 A1 up
M0 S1.5
;FLAVOR:Marlin
;TIME:33591
;Filament used: 36.2167m
;Layer height: 0.28
;MINX:-56.653
;MINY:-56.665
;MINZ:0.28
;MAXX:56.665
;MAXY:56.665
;MAXZ:35
;Generated with Cura_SteamEngine 5.3.1
M104 S210
M105
M109 S210
M82 ;absolute extrusion mode
; Ender 3 Custom Start G-code
G92 E0 ; Reset Extruder
G92 E0
G92 E0
G1 F2700 E-5
;LAYER_COUNT:125
;LAYER:0
M0 P100
M118 A1 parameters_14_61.20000_90.00000_0.00000
M0 P100
M118 A1 time_start
M107
G0 F6000 X98.60000 Y142.20000 Z110.28000
;TYPE:SKIRT
;TYPE:SUPPORT
;MESH:bridge_rect_final_10.stl
G0 F9000 X23.80000 Y50.00000
G1 F1500 E1.50000;switch_platform_return
G1 F1500 X23.80000 Y37.80000 E2.06808
G0 F9000 X23.80000 Y37.80000
G1 F1500 X50.00000 Y37.80000 E3.28806
G0 F9000 X23.40000 Y50.00000
G1 F1500 X23.40000 Y37.40000 E3.87477
G0 F9000 X23.40000 Y37.40000
G1 F1500 X50.00000 Y37.40000 E5.11337
G0 F9000 X23.00000 Y50.00000
G1 F1500 X23.00000 Y37.00000 E5.71871
G0 F9000 X23.00000 Y37.00000
G1 F1500 X50.00000 Y37.00000 E6.97593
G0 F9000 X22.60000 Y50.00000
G1 F1500 X22.60000 Y36.60000 E7.59989
G0 F9000 X22.60000 Y36.60000
G1 F1500 X50.00000 Y36.60000 E8.87574
G0 F9000 X22.20000 Y50.00000
G1 F1500 X22.20000 Y36.20000 E9.51832
G0 F9000 X22.20000 Y36.20000
G1 F1500 X50.00000 Y36.20000 E10.81280
G0 F9000 X21.80000 Y50.00000
G1 F1500 X21.80000 Y35.80000 E11.47401
G0 F9000 X21.80000 Y35.80000
G1 F1500 X50.00000 Y35.80000 E12.78711
G0 F9000 X21.40000 Y50.00000
G1 F1500 X21.40000 Y35.40000 E13.46694
G0 F9000 X21.40000 Y35.40000
G1 F1500 X50.00000 Y35.40000 E14.79867
G0 F9000 X21.00000 Y50.00000
G1 F1500 X21.00000 Y35.00000 E15.49713
G0 F9000 X21.00000 Y35.00000
G1 F1500 X50.00000 Y35.00000 E16.84749
G0 F9000 X20.60000 Y50.00000
G1 F1500 X20.60000 Y34.60000 E17.56458
G0 F9000 X20.60000 Y34.60000
G1 F1500 X50.00000 Y34.60000 E18.93356
G0 F9000 X20.20000 Y50.00000
G1 F1500 X20.20000 Y34.20000 E19.66927
G0 F9000 X20.20000 Y34.20000
G1 F1500 X50.00000 Y34.20000 E21.05688
G0 F9000 X5.00000 Y50.00000
G1 F1500 X5.00000 Y34.67100 E21.77066
G0 F9000 X5.01000 Y34.00600
G1 F1500 X5.00000 Y34.67100 E21.80162
G0 F9000 X5.05100 Y33.88800
G1 F1500 X5.01000 Y34.00600 E21.80744
G0 F9000 X5.20400 Y33.80900
G1 F1500 X5.05100 Y33.88800 E21.81546
G0 F9000 X5.52400 Y33.80000
G1 F1500 X5.20400 Y33.80900 E21.83037
G0 F9000 X5.52400 Y33.80000
G1 F1500 X50.00000 Y33.80000 E23.90135
G0 F9000 X24.20000 Y50.00000
G1 F1500 X24.20000 Y38.20000 E24.45081
G0 F9000 X24.20000 Y38.20000
G1 F1500 X50.00000 Y38.20000 E25.65216
G0 F9000 X50.00000 Y41.96492
G1 F1500 X43.62100 Y38.28200 E25.99514
G0 F9000 X49.20000 Y38.28000
G1 F1500 X49.20000 Y50.00000 E26.54087
G0 F9000 X50.00000 Y41.04186
G1 F1500 X34.48389 Y50.00000 E27.37513
G0 F9000 X37.20000 Y38.28000
G1 F1500 X37.20000 Y50.00000 E27.92086
G0 F9000 X39.91694 Y50.00000
G1 F1500 X24.28000 Y40.97200 E28.76162
G0 F9000 X30.78200 Y38.28000
G1 F1500 X24.28200 Y42.03300 E29.11112
G0 F9000 X25.20000 Y38.28000
G1 F1500 X25.20000 Y50.00000 E29.65684
G1 F1500 E23.15684;switch_platform_drawback
G0 F9000 X23.80000 Y101.00000
G1 F1500 E29.65684;switch_platform_return
G1 F1500 X23.80000 Y52.00000 E31.93847
G0 F9000 X23.40000 Y101.00000
G1 F1500 X23.40000 Y52.00000 E34.22010
G0 F9000 X23.00000 Y101.00000
G1 F1500 X23.00000 Y52.00000 E36.50173
G0 F9000 X22.60000 Y101.00000
G1 F1500 X22.60000 Y52.00000 E38.78337
G0 F9000 X22.20000 Y101.00000
G1 F1500 X22.20000 Y52.00000 E41.06501
G0 F9000 X21.80000 Y101.00000
G1 F1500 X21.80000 Y52.00000 E43.34665
G0 F9000 X21.40000 Y101.00000
G1 F1500 X21.40000 Y52.00000 E45.62829
G0 F9000 X21.00000 Y101.00000
G1 F1500 X21.00000 Y52.00000 E47.90992
G0 F9000 X20.60000 Y101.00000
G1 F1500 X20.60000 Y52.00000 E50.19155
G0 F9000 X20.20000 Y101.00000
G1 F1500 X20.20000 Y52.00000 E52.47318
G0 F9000 X5.00000 Y101.00000
G1 F1500 X5.00000 Y52.00000 E54.75482
G0 F9000 X24.20000 Y101.00000
G1 F1500 X24.20000 Y52.00000 E57.03645
G0 F9000 X32.25362 Y101.00000
G1 F1500 X24.28100 Y96.39700 E57.46512
G0 F9000 X50.00000 Y82.60999
G1 F1500 X24.28200 Y97.45800 E58.84791
G0 F9000 X50.00000 Y96.46626
G1 F1500 X42.14727 Y101.00000 E59.27013
G0 F9000 X49.20000 Y52.00000
G1 F1500 X49.20000 Y101.00000 E61.55177
G0 F9000 X50.00000 Y83.53361
G1 F1500 X24.28000 Y68.68400 E62.93467
G0 F9000 X50.00000 Y54.89766
G1 F1500 X24.28100 Y69.74700 E64.31753
G0 F9000 X50.00000 Y97.38988
G1 F1500 X24.28100 Y82.54100 E65.70037
G0 F9000 X50.00000 Y68.75392
G1 F1500 X24.28100 Y83.60300 E67.08322
G0 F9000 X50.00000 Y69.67746
G1 F1500 X24.28000 Y54.82800 E68.46612
G0 F9000 X31.01975 Y52.00000
G1 F1500 X24.28200 Y55.89000 E68.82839
G0 F9000 X37.20000 Y52.00000
G1 F1500 X37.20000 Y101.00000 E71.11003
G0 F9000 X50.00000 Y55.82146
G1 F1500 X43.38104 Y52.00000 E71.46591
G0 F9000 X25.20000 Y52.00000
G1 F1500 X25.20000 Y101.00000 E73.74755
G1 F1500 E67.24755;switch_platform_drawback
G0 F9000 X50.00000 Y142.20000
G1 F1500 E73.74755;switch_platform_return
G1 F1500 X23.80000 Y142.20000 E73.46753
G0 F9000 X23.80000 Y142.20000
G1 F1500 X23.80000 Y103.00000 E75.29284
G0 F9000 X50.00000 Y142.60000
G1 F1500 X23.40000 Y142.60000 E76.53144
G0 F9000 X23.40000 Y142.60000
G1 F1500 X23.40000 Y103.00000 E78.37538
G0 F9000 X50.00000 Y143.00000
G1 F1500 X23.00000 Y143.00000 E79.63261
G0 F9000 X23.00000 Y143.00000
G1 F1500 X23.00000 Y103.00000 E81.49517
G0 F9000 X50.00000 Y143.40000
G1 F1500 X22.60000 Y143.40000 E82.77103
G0 F9000 X22.60000 Y143.40000
G1 F1500 X22.60000 Y103.00000 E84.65221
G0 F9000 X50.00000 Y143.80000
G1 F1500 X22.20000 Y143.80000 E85.94669
G0 F9000 X22.20000 Y143.80000
G1 F1500 X22.20000 Y103.00000 E87.84650
G0 F9000 X50.00000 Y144.20000
G1 F1500 X21.80000 Y144.20000 E89.15960
G0 F9000 X21.80000 Y144.20000
G1 F1500 X21.80000 Y103.00000 E91.07804
G0 F9000 X21.40000 Y144.60000
G1 F1500 X21.40000 Y103.00000 E93.01510
G0 F9000 X50.00000 Y145.00000
G1 F1500 X21.00000 Y145.00000 E94.36546
G0 F9000 X21.00000 Y145.00000
G1 F1500 X21.00000 Y103.00000 E96.32115
G0 F9000 X50.00000 Y145.40000
G1 F1500 X20.60000 Y145.40000 E97.69013
G0 F9000 X20.60000 Y145.40000
G1 F1500 X20.60000 Y103.00000 E99.66445
G0 F9000 X50.00000 Y145.80000
G1 F1500 X20.20000 Y145.80000 E101.05206
G0 F9000 X20.20000 Y145.80000
G1 F1500 X20.20000 Y103.00000 E103.04500
G0 F9000 X50.00000 Y146.20000
G1 F1500 X5.90400 Y146.20000 E105.09829
G0 F9000 X5.90400 Y146.20000
G1 F1500 X5.20600 Y146.19000 E105.13080
G0 F9000 X5.20600 Y146.19000
G1 F1500 X5.08800 Y146.14900 E105.13661
G0 F9000 X5.08800 Y146.14900
G1 F1500 X5.00900 Y145.99500 E105.14467
G0 F9000 X5.00900 Y145.99500
G1 F1500 X5.00000 Y145.66300 E105.16014
G0 F9000 X5.00000 Y145.66300
G1 F1500 X5.00000 Y103.00000 E107.14669
G0 F9000 X50.00000 Y141.80000
G1 F1500 X24.20000 Y141.80000 E108.34805
G0 F9000 X24.20000 Y141.80000
G1 F1500 X24.20000 Y103.00000 E110.15473
G0 F9000 X50.00000 Y111.24588
G1 F1500 X35.71772 Y103.00000 E110.92265
G0 F9000 X50.00000 Y125.10244
G1 F1500 X24.28000 Y110.25300 E112.30555
G0 F9000 X38.68313 Y103.00000
G1 F1500 X24.28100 Y111.31500 E113.07991
G0 F9000 X49.20000 Y103.00000
G1 F1500 X49.20000 Y141.72000 E114.88287
G0 F9000 X50.00000 Y138.03539
G1 F1500 X43.62000 Y141.71900 E115.22591
G0 F9000 X37.20000 Y103.00000
G1 F1500 X37.20000 Y141.72000 E117.02887
G0 F9000 X30.78100 Y141.71900
G1 F1500 X24.28100 Y137.96600 E117.37836
G0 F9000 X50.00000 Y124.17892
G1 F1500 X24.28100 Y139.02800 E118.76121
G0 F9000 X25.20000 Y103.00000
G1 F1500 X25.20000 Y141.72000 E120.56417
G0 F9000 X50.00000 Y110.32241
G1 F1500 X24.28100 Y125.17100 E121.94701
G0 F9000 X50.00000 Y138.95872
G1 F1500 X24.28100 Y124.11000 E123.32985
G0 X18.60000 Y145.40000
G1 F1500 E116.82985;switch_platform_drawback
G0 F9000 X102.20000 Y50.00000
G0 F9000 X103.00000 Y33.80000
G1 F1500 E123.32985;switch_platform_return
G1 F1500 X116.49600 Y33.80000 E123.95827
G0 F9000 X116.49600 Y33.80000
G1 F1500 X117.19400 Y33.81000 E123.99078
G0 F9000 X117.19400 Y33.81000
G1 F1500 X117.31200 Y33.85100 E123.99659
G0 F9000 X117.31200 Y33.85100
G1 F1500 X117.39100 Y34.00400 E124.00461
G0 F9000 X117.39100 Y34.00400
G1 F1500 X117.40000 Y34.32400 E124.01952
G0 F9000 X117.40000 Y34.32400
G1 F1500 X117.40000 Y47.50000 E124.63304
G1 F1500 E118.13304;switch_platform_drawback
G0 F9000.00000 X102.20000 Y52.00000 
G0 F9000 X102.20000 Y101.00000
G0 F9000 X117.40000 Y57.00000
G1 F1500 E124.63304;switch_platform_return
G1 F1500 X117.40000 Y101.00000 E126.68185
G1 F1500 E120.18185;switch_platform_drawback
G0 F9000.00000 X102.20000 Y103.00000 
G0 F9000 X117.40000 Y103.00000
G1 F1500 E126.68185;switch_platform_return
G1 F1500 X117.40000 Y145.26700 E128.64997
G0 F9000 X117.40000 Y145.26700
G1 F1500 X117.39000 Y145.99400 E128.68383
G0 F9000 X117.39000 Y145.99400
G1 F1500 X117.34900 Y146.11200 E128.68964
G0 F9000 X117.34900 Y146.11200
G1 F1500 X117.19600 Y146.19100 E128.69766
G0 F9000 X117.19600 Y146.19100
G1 F1500 X116.87600 Y146.20000 E128.71257
G0 F9000 X116.87600 Y146.20000
G1 F1500 X103.00000 Y146.20000 E129.35868
G1 F1500 E122.85868;switch_platform_drawback
G0 F9000 X18.60000 Y145.40000;last_sup_point
;TYPE:WALL-INNER
M0 P100
M118 A1 time_fill_start
G1 F2700 E129.54494
G1 F1200 X18.60000 Y34.60000 E134.70425
G1 X5.80000 Y34.60000 E135.30027
G1 X5.80000 Y145.40000 E140.45959
G1 X18.60000 Y145.40000 E141.05561
G0 F6000 X19.00000 Y145.80000
;TYPE:WALL-OUTER
G1 F1200 X19.00000 Y34.20000 E146.25217
G1 X5.40000 Y34.20000 E146.88544
G1 X5.40000 Y145.80000 E152.08201
G1 X19.00000 Y145.80000 E152.71528
G0 F6000 X18.73000 Y145.53000
G0 X18.50000 Y145.04000
G0 X18.24000 Y145.04000
;TYPE:SKIN
G1 F1200 X6.16000 Y145.04000 E153.27778
G1 X6.16000 Y34.96000 E158.40356
G1 X18.24000 Y34.96000 E158.96606
G1 X18.24000 Y145.04000 E164.09184
G0 F6000 X18.50000 Y145.04000
G0 X5.97200 Y145.22800
G0 X5.90000 Y144.33700
G0 X6.36100 Y144.33700
G1 F1200 X6.86300 Y144.83900 E164.12490
G0 F6000 X7.42900 Y144.83900
G1 F1200 X6.36100 Y143.77100 E164.19523
G0 F6000 X6.36100 Y143.20600
G1 F1200 X7.99400 Y144.83900 E164.30277
G0 F6000 X8.56000 Y144.83900
G1 F1200 X6.36100 Y142.64000 E164.44757
G0 F6000 X6.36100 Y142.07400
G1 F1200 X9.12600 Y144.83900 E164.62965
G0 F6000 X9.69100 Y144.83900
G1 F1200 X6.36100 Y141.50900 E164.84894
G0 F6000 X6.36100 Y140.94300
G1 F1200 X10.25700 Y144.83900 E165.10550
G0 F6000 X10.82300 Y144.83900
G1 F1200 X6.36100 Y140.37700 E165.39933
G0 F6000 X6.36100 Y139.81200
G1 F1200 X11.38800 Y144.83900 E165.73037
G0 F6000 X11.95400 Y144.83900
G1 F1200 X6.36100 Y139.24600 E166.09867
G0 F6000 X6.36100 Y138.68000
G1 F1200 X12.52000 Y144.83900 E166.50425
G0 F6000 X13.08500 Y144.83900
G1 F1200 X6.36100 Y138.11500 E166.94704
G0 F6000 X6.36100 Y137.54900
G1 F1200 X13.65100 Y144.83900 E167.42710
G0 F6000 X14.21700 Y144.83900
G1 F1200 X6.36100 Y136.98300 E167.94443
G0 F6000 X6.36100 Y136.41800
G1 F1200 X14.78200 Y144.83900 E168.49897
G0 F6000 X15.34800 Y144.83900
G1 F1200 X6.36100 Y135.85200 E169.09078
G0 F6000 X6.36100 Y135.28600
G1 F1200 X15.91400 Y144.83900 E169.71986
G0 F6000 X16.48000 Y144.83900
G1 F1200 X6.36100 Y134.72000 E170.38621
G0 F6000 X6.36100 Y134.15500
G1 F1200 X17.04500 Y144.83900 E171.08977
G0 F6000 X17.61100 Y144.83900
G1 F1200 X6.36100 Y133.58900 E171.83060
G0 F6000 X6.36100 Y133.02300
G1 F1200 X18.04100 Y144.70300 E172.59975
G0 F6000 X18.04100 Y144.13800
G1 F1200 X6.36100 Y132.45800 E173.36890
G0 F6000 X6.36100 Y131.89200
G1 F1200 X18.04100 Y143.57200 E174.13805
G0 F6000 X18.04100 Y143.00600
G1 F1200 X6.36100 Y131.32600 E174.90720
G0 F6000 X6.36100 Y130.76100
G1 F1200 X18.04100 Y142.44100 E175.67634
G0 F6000 X18.04100 Y141.87500
G1 F1200 X6.36100 Y130.19500 E176.44549
G0 F6000 X6.36100 Y129.62900
G1 F1200 X18.04100 Y141.30900 E177.21464
G0 F6000 X18.04100 Y140.74400
G1 F1200 X6.36100 Y129.06400 E177.98379
G0 F6000 X6.36100 Y128.49800
G1 F1200 X18.04100 Y140.17800 E178.75294
G0 F6000 X18.04100 Y139.61200
G1 F1200 X6.36100 Y127.93200 E179.52208
G0 F6000 X6.36100 Y127.36700
G1 F1200 X18.04100 Y139.04700 E180.29123
G0 F6000 X18.04100 Y138.48100
G1 F1200 X6.36100 Y126.80100 E181.06038
G0 F6000 X6.36100 Y126.23500
G1 F1200 X18.04100 Y137.91500 E181.82953
G0 F6000 X18.04100 Y137.34900
G1 F1200 X6.36100 Y125.67000 E182.59864
G0 F6000 X6.36100 Y125.10400
G1 F1200 X18.04100 Y136.78400 E183.36779
G0 F6000 X18.04100 Y136.21800
G1 F1200 X6.36100 Y124.53800 E184.13694
G0 F6000 X6.36100 Y123.97200
G1 F1200 X18.04100 Y135.65200 E184.90609
G0 F6000 X18.04100 Y135.08700
G1 F1200 X6.36100 Y123.40700 E185.67523
G0 F6000 X6.36100 Y122.84100
G1 F1200 X18.04100 Y134.52100 E186.44438
G0 F6000 X18.04100 Y133.95500
G1 F1200 X6.36100 Y122.27500 E187.21353
G0 F6000 X6.36100 Y121.71000
G1 F1200 X18.04100 Y133.39000 E187.98268
G0 F6000 X18.04100 Y132.82400
G1 F1200 X6.36100 Y121.14400 E188.75183
G0 F6000 X6.36100 Y120.57800
G1 F1200 X18.04100 Y132.25800 E189.52097
G0 F6000 X18.04100 Y131.69300
G1 F1200 X6.36100 Y120.01300 E190.29012
G0 F6000 X6.36100 Y119.44700
G1 F1200 X18.04100 Y131.12700 E191.05927
G0 F6000 X18.04100 Y130.56100
G1 F1200 X6.36100 Y118.88100 E191.82842
G0 F6000 X6.36100 Y118.31600
G1 F1200 X18.04100 Y129.99600 E192.59757
G0 F6000 X18.04100 Y129.43000
G1 F1200 X6.36100 Y117.75000 E193.36671
G0 F6000 X6.36100 Y117.18400
G1 F1200 X18.04100 Y128.86400 E194.13586
G0 F6000 X18.04100 Y128.29900
G1 F1200 X6.36100 Y116.61900 E194.90501
G0 F6000 X6.36100 Y116.05300
G1 F1200 X18.04100 Y127.73300 E195.67416
G0 F6000 X18.04100 Y127.16700
G1 F1200 X6.36100 Y115.48700 E196.44331
G0 F6000 X6.36100 Y114.92100
G1 F1200 X18.04100 Y126.60100 E197.21245
G0 F6000 X18.04100 Y126.03600
G1 F1200 X6.36100 Y114.35600 E197.98160
G0 F6000 X6.36100 Y113.79000
G1 F1200 X18.04100 Y125.47000 E198.75075
G0 F6000 X18.04100 Y124.90400
G1 F1200 X6.36100 Y113.22400 E199.51990
G0 F6000 X6.36100 Y112.65900
G1 F1200 X18.04100 Y124.33900 E200.28905
G0 F6000 X18.04100 Y123.77300
G1 F1200 X6.36100 Y112.09300 E201.05819
G0 F6000 X6.36100 Y111.52700
G1 F1200 X18.04100 Y123.20700 E201.82734
G0 F6000 X18.04100 Y122.64200
G1 F1200 X6.36100 Y110.96200 E202.59649
G0 F6000 X6.36100 Y110.39600
G1 F1200 X18.04100 Y122.07600 E203.36564
G0 F6000 X18.04100 Y121.51000
G1 F1200 X6.36100 Y109.83000 E204.13479
G0 F6000 X6.36100 Y109.26500
G1 F1200 X18.04100 Y120.94500 E204.90393
G0 F6000 X18.04100 Y120.37900
G1 F1200 X6.36100 Y108.69900 E205.67308
G0 F6000 X6.36100 Y108.13300
G1 F1200 X18.04100 Y119.81300 E206.44223
G0 F6000 X18.04100 Y119.24800
G1 F1200 X6.36100 Y107.56800 E207.21138
G0 F6000 X6.36100 Y107.00200
G1 F1200 X18.04100 Y118.68200 E207.98053
G0 F6000 X18.04100 Y118.11600
G1 F1200 X6.36100 Y106.43600 E208.74967
G0 F6000 X6.36100 Y105.87100
G1 F1200 X18.04100 Y117.55100 E209.51882
G0 F6000 X18.04100 Y116.98500
G1 F1200 X6.36100 Y105.30500 E210.28797
G0 F6000 X6.36100 Y104.73900
G1 F1200 X18.04100 Y116.41900 E211.05712
G0 F6000 X18.04100 Y115.85300
G1 F1200 X6.36100 Y104.17300 E211.82626
G0 F6000 X6.36100 Y103.60800
G1 F1200 X18.04100 Y115.28800 E212.59541
G0 F6000 X18.04100 Y114.72200
